P3
320 240
255
221 221 221
221 221 221
221 221 221
221 221 221
221 221 221
221 221 221
221 221 221
221 221 221
221 221 221
221 221 221
221 221 221
221 221 221
221 221 221
221 221 221
221 221 221
221 238 221
221 238 221
221 238 221
221 238 221
221 238 221
221 238 221
221 238 221
221 238 221
221 238 221
221 238 221
221 238 221
221 238 221
221 238 238
238 238 238
238 238 238
238 238 238
238 238 238
238 238 238
238 238 238
238 238 238
238 238 238
238 238 238
238 238 238
204 204 204
119 136 102
68 85 51
68 85 51
68 85 51
68 85 68
85 85 68
68 85 68
68 68 51
68 85 68
85 102 68
68 85 51
68 85 51
68 102 51
68 85 51
68 85 34
51 68 34
34 51 34
34 51 34
34 51 34
17 34 34
17 34 17
17 34 17
17 34 34
34 51 34
34 51 34
51 68 51
51 85 51
68 85 51
68 85 51
51 68 51
51 68 34
51 68 34
34 51 34
34 51 34
34 51 34
34 51 34
34 51 17
17 51 17
34 51 34
34 51 34
34 51 34
34 51 34
34 51 34
34 51 34
34 51 34
34 51 34
68 68 51
85 85 68
85 102 85
85 102 85
68 85 68
68 85 51
51 68 51
51 68 51
68 85 51
51 85 51
51 68 34
51 68 34
34 51 34
34 51 34
51 51 34
51 68 51
51 68 51
68 68 51
51 68 51
51 68 51
51 68 51
51 68 51
51 68 51
51 51 34
51 51 34
51 51 34
34 51 34
34 51 34
34 51 34
34 51 34
17 51 34
34 51 34
34 51 34
17 51 17
17 34 17
34 51 17
17 51 17
17 51 17
34 51 17
34 51 34
34 51 34
34 51 34
51 68 34
51 68 51
51 68 51
51 68 34
51 68 34
34 51 34
51 68 34
51 68 34
51 68 34
51 68 34
68 85 51
68 85 51
68 85 68
68 85 51
68 85 68
68 85 51
68 85 51
68 85 51
68 85 51
51 68 51
51 68 34
51 68 34
51 68 51
51 68 51
51 68 51
51 68 51
68 85 51
68 85 51
51 85 51
51 68 34
34 68 34
34 68 34
51 68 51
68 85 68
85 102 68
68 85 51
51 68 51
34 68 34
51 85 34
102 119 85
136 153 102
153 153 119
170 170 136
170 170 136
170 170 153
170 170 153
187 170 153
187 187 153
187 187 153
187 187 153
187 187 153
187 187 153
187 187 153
187 187 153
204 187 153
204 187 153
204 187 170
204 204 170
204 204 170
221 204 187
221 221 187
221 221 204
221 221 187
221 204 187
204 204 187
204 204 187
204 187 187
187 187 170
187 187 170
170 170 170
170 170 170
170 170 153
153 170 153
153 170 153
153 170 153
153 153 153
136 153 153
136 153 136
136 153 136
136 136 136
136 136 136
136 136 136
136 153 136
136 136 136
119 136 136
119 136 136
119 136 119
119 119 119
119 136 119
136 136 136
136 153 136
153 153 136
136 136 136
153 153 136
170 170 153
170 170 170
170 170 153
170 170 170
187 187 170
187 187 170
187 187 170
170 170 153
153 153 119
136 136 102
136 136 102
119 136 102
119 119 102
119 119 102
119 119 102
136 136 119
153 153 136
170 170 153
170 170 153
136 136 119
119 119 102
136 136 119
153 153 136
170 170 153
170 170 170
187 187 170
187 187 170
170 170 153
153 153 136
153 153 119
153 153 136
153 153 136
153 170 136
153 153 136
136 153 119
136 136 119
136 153 119
136 153 136
136 153 136
136 153 119
136 153 119
153 153 119
153 170 136
136 153 119
119 136 102
102 136 85
102 119 68
102 119 68
102 119 68
102 119 68
85 119 68
85 119 68
85 119 68
85 119 51
85 119 51
85 119 68
102 119 68
102 119 68
102 136 68
102 136 68
102 136 68
102 136 68
102 136 68
102 136 68
102 136 68
102 119 68
102 119 68
102 136 68
119 136 68
119 136 85
119 136 85
119 136 85
136 153 102
136 153 102
136 153 102
119 136 102
119 136 102
119 136 102
136 153 102
136 153 102
136 153 102
136 153 102
119 136 102
119 136 102
102 136 85
102 136 85
102 136 85
102 136 85
102 136 85
85 119 85
85 119 85
85 102 68
85 102 68
85 102 68
85 102 68
85 102 68
85 102 68
85 119 68
85 119 68
221 221 221
221 221 221
221 221 221
221 221 221
221 221 221
221 221 221
221 221 221
221 221 221
221 221 221
221 221 221
221 221 221
221 221 221
221 221 221
221 221 221
221 221 221
221 238 221
221 238 221
221 238 221
221 238 221
221 238 221
221 238 221
221 238 221
221 238 221
221 238 221
221 238 221
221 238 238
221 238 221
221 238 238
238 238 238
238 238 238
238 238 238
238 238 238
238 238 238
238 238 238
238 238 238
238 238 238
238 238 238
238 238 238
238 238 238
170 187 170
85 102 68
68 85 51
68 85 51
68 85 68
85 85 68
85 85 68
68 68 68
68 85 68
85 85 68
68 85 51
68 85 34
68 85 34
68 85 51
51 68 34
51 68 34
34 51 34
34 51 34
34 51 34
34 34 34
34 34 34
34 51 34
34 51 34
51 51 51
51 51 34
51 68 34
51 68 34
51 85 51
51 68 51
51 68 34
34 68 34
34 51 34
34 51 34
34 51 34
34 51 34
34 51 34
34 51 34
34 51 34
34 51 34
34 51 34
34 51 34
34 51 34
34 51 34
34 51 34
34 51 34
34 51 34
68 68 51
85 85 68
102 102 85
85 102 85
68 85 68
51 68 51
51 68 34
51 68 34
51 68 51
51 68 34
51 68 34
51 51 34
34 51 34
34 51 34
34 51 34
51 51 34
51 68 51
51 68 51
51 68 51
51 68 34
51 68 34
51 68 51
51 68 34
34 51 34
34 51 34
34 51 34
34 51 34
34 51 34
34 51 34
34 51 34
34 51 34
34 51 34
34 51 34
34 51 34
17 34 17
17 34 17
17 51 17
34 51 17
34 51 34
34 51 34
34 51 34
34 51 34
51 68 34
51 68 34
51 68 34
34 51 34
34 51 34
34 51 34
34 51 34
51 68 34
51 68 34
51 68 34
51 68 34
51 68 34
51 68 51
51 68 34
51 68 34
51 68 34
51 68 34
51 68 34
51 68 34
51 68 34
51 68 34
51 68 34
51 68 51
51 68 51
51 68 51
51 68 51
51 68 51
51 68 34
51 68 51
34 68 34
34 51 34
34 51 34
51 68 51
68 85 68
85 102 85
68 85 68
51 68 34
51 68 34
51 85 34
85 102 51
119 119 85
136 136 85
136 153 102
153 153 119
170 170 136
170 170 153
170 170 153
170 170 153
187 187 153
187 187 153
187 187 170
187 187 170
204 187 170
204 187 170
204 204 170
204 204 170
204 204 187
204 204 187
204 204 187
204 204 187
204 204 187
204 204 187
187 187 187
187 187 170
187 170 170
170 170 153
153 153 153
153 153 136
136 136 136
136 136 119
119 136 119
119 136 119
119 136 119
119 136 119
119 136 136
136 136 136
136 136 136
136 153 136
136 153 153
136 153 153
153 170 153
153 170 170
153 170 170
170 170 170
153 170 170
153 153 153
136 153 136
119 136 119
119 136 119
136 136 119
153 153 136
153 153 136
136 136 119
136 153 119
153 153 136
170 170 153
170 170 153
170 170 136
170 170 136
170 170 153
170 170 136
153 153 119
136 136 102
119 119 85
119 119 85
119 119 85
102 102 85
102 102 85
119 119 85
136 136 119
153 153 136
170 170 153
170 170 153
136 136 119
119 119 102
136 136 119
153 153 136
170 170 170
170 170 153
170 170 153
170 170 153
153 153 136
153 153 136
136 136 119
136 136 102
136 136 102
136 136 119
119 136 102
119 136 102
119 136 102
119 136 102
136 136 102
136 136 102
119 136 102
119 136 102
119 136 102
136 153 102
119 136 102
119 136 85
119 136 85
119 136 85
102 136 68
102 136 68
102 136 68
102 136 68
102 136 68
102 119 68
102 119 68
102 119 68
102 136 68
102 119 68
102 119 68
102 119 68
102 136 68
102 136 68
102 136 68
102 119 68
102 136 68
102 136 68
102 119 68
102 136 68
119 136 85
119 136 85
119 136 85
136 153 102
136 153 102
136 153 119
136 153 119
136 153 119
136 153 102
119 136 102
119 136 102
136 153 102
136 153 119
136 153 119
136 153 102
136 136 102
119 136 102
119 136 85
102 136 85
102 136 85
119 136 85
102 136 85
102 136 85
102 119 85
85 119 85
85 102 85
85 102 68
85 102 85
85 102 68
85 119 85
85 119 85
102 119 85
221 221 221
221 221 221
221 221 221
221 221 221
221 221 221
221 221 221
221 221 221
221 221 221
221 221 221
221 221 221
221 221 221
221 221 221
221 221 221
221 221 221
221 238 221
221 221 221
221 238 221
221 238 221
221 238 221
221 238 221
221 238 221
221 238 221
221 238 221
221 238 221
221 238 221
221 238 238
221 238 238
238 238 238
238 238 238
221 238 238
238 238 238
221 238 238
238 238 238
238 238 238
238 238 238
238 238 238
238 238 238
238 238 238
238 238 238
221 221 221
136 153 119
68 85 51
68 85 51
68 85 51
85 85 68
85 85 68
68 68 68
68 85 68
85 85 68
68 85 51
68 85 34
68 85 34
68 85 51
51 68 34
51 68 34
34 51 34
34 51 34
34 51 34
34 51 34
34 51 34
34 51 51
51 68 51
51 68 51
51 68 34
51 68 34
51 68 34
51 85 51
51 68 51
51 68 34
34 51 34
34 51 17
34 51 17
34 51 34
34 51 34
34 51 34
34 51 34
34 51 34
34 68 34
34 68 34
34 51 34
34 68 34
34 68 34
34 68 34
34 51 34
34 68 34
51 68 51
68 85 68
85 102 85
85 102 85
68 85 68
68 68 51
51 68 51
51 68 51
51 68 51
51 68 51
51 68 34
34 51 34
34 51 34
34 51 34
34 51 34
34 51 34
51 68 51
51 68 51
51 68 34
51 51 34
51 68 34
51 68 51
51 68 34
34 51 34
34 51 34
34 51 34
34 51 17
34 51 34
34 51 34
34 51 34
34 51 34
34 51 34
34 51 34
34 51 17
17 51 17
17 51 17
34 51 34
34 51 34
34 51 34
34 51 34
34 51 34
34 51 34
34 51 34
51 68 34
51 51 34
34 51 34
34 51 34
34 51 34
34 51 34
34 51 34
51 68 34
51 68 34
51 68 34
51 68 51
51 68 34
51 68 34
51 68 34
51 68 34
51 68 34
51 68 34
51 68 34
51 68 34
51 68 34
51 68 51
68 68 51
68 68 51
51 68 51
51 68 51
51 68 51
51 68 34
51 68 51
34 68 34
34 51 34
34 51 34
51 68 34
68 85 51
68 85 51
51 85 51
51 68 34
51 85 34
68 85 34
85 102 51
102 119 68
102 119 68
119 136 85
153 153 119
170 170 136
187 170 153
187 187 170
187 187 170
187 187 170
187 187 170
204 187 187
204 204 187
204 204 187
204 204 187
204 204 187
204 204 187
204 204 187
187 187 187
187 187 170
187 187 170
187 187 170
170 170 170
170 170 153
153 153 136
136 153 136
136 136 136
119 136 119
119 119 119
102 119 102
102 102 102
102 102 102
102 119 102
102 119 119
119 136 119
136 153 136
153 153 153
153 170 153
153 170 153
170 170 170
170 170 170
170 187 170
170 187 170
187 187 187
187 187 187
170 170 170
153 153 136
136 136 119
119 119 102
119 119 102
119 136 119
136 136 119
136 136 119
119 119 102
119 119 102
136 136 102
136 136 119
136 136 119
136 136 119
136 136 119
136 136 119
136 136 119
136 136 102
119 119 102
119 119 85
119 119 102
119 119 85
102 119 85
102 119 85
119 119 85
136 136 119
153 153 136
170 170 153
170 170 153
136 136 119
119 119 102
136 136 119
170 170 153
170 170 170
170 170 170
153 153 153
153 153 136
153 153 136
136 136 119
119 136 102
119 136 102
119 136 102
102 119 85
102 119 85
102 119 85
102 119 85
119 136 85
119 136 85
119 136 102
119 136 85
102 119 85
119 136 85
119 136 85
119 136 85
119 136 85
119 136 85
119 136 85
102 136 68
102 136 68
119 136 68
119 136 68
102 136 68
102 136 68
102 136 68
119 136 85
102 136 85
102 136 68
102 119 68
102 119 68
102 119 68
102 136 68
102 136 68
102 136 68
102 136 68
102 136 68
102 136 68
102 136 68
119 136 85
119 136 85
119 136 85
136 153 102
136 153 102
136 153 102
136 153 102
136 153 102
136 153 102
136 153 102
119 136 102
136 153 102
136 153 102
136 153 119
136 153 102
119 136 102
119 136 102
119 136 102
119 136 85
119 136 102
119 136 102
119 136 85
119 136 85
102 136 85
102 136 85
102 119 85
85 119 85
85 119 85
85 119 85
102 119 85
102 119 85
102 119 85
221 221 221
221 221 221
221 221 221
221 221 221
221 221 221
221 221 221
221 221 221
221 221 221
221 221 221
221 221 221
221 221 221
221 221 221
221 221 221
221 221 221
221 238 221
221 238 221
221 238 221
221 238 221
221 238 221
221 238 221
221 238 221
221 238 221
221 238 238
221 238 221
221 238 221
221 238 238
221 238 238
221 238 238
221 238 238
238 238 238
238 238 238
238 238 238
238 238 238
238 238 238
238 238 238
238 238 238
238 238 238
238 238 238
238 238 238
238 238 238
187 187 187
102 102 85
68 85 51
68 85 51
85 85 68
85 85 68
68 68 68
68 85 68
85 85 68
68 85 68
68 85 51
68 85 34
68 85 51
51 85 34
51 68 34
34 51 34
34 51 34
34 51 34
34 51 51
34 51 51
51 51 51
34 51 34
51 68 34
51 68 34
51 68 51
51 68 51
51 85 51
51 68 34
51 68 34
34 51 34
34 51 17
17 34 17
17 51 17
34 51 34
34 51 34
34 51 34
34 51 34
34 68 34
34 68 34
34 51 34
34 68 34
34 68 34
34 68 34
34 51 34
34 51 34
51 68 51
68 85 68
85 102 85
85 102 85
68 85 68
68 85 68
51 68 51
51 68 51
51 68 34
51 68 34
34 51 34
34 51 34
34 51 34
34 51 34
34 51 34
34 51 34
51 51 34
51 51 34
51 51 34
51 51 34
51 68 51
51 68 51
51 68 34
51 51 34
34 51 34
34 51 34
34 51 34
34 51 34
34 51 34
51 51 51
51 68 51
34 51 34
34 51 34
34 51 34
34 51 34
34 51 34
34 51 34
34 51 34
34 51 34
34 51 34
34 51 34
34 51 34
34 51 34
51 68 34
51 68 34
34 51 34
34 51 34
34 51 34
34 51 34
34 68 34
51 68 34
51 68 34
51 85 51
68 85 51
51 68 51
51 68 51
51 68 34
51 68 34
51 68 34
51 68 34
51 68 34
51 68 51
51 68 51
68 85 51
68 85 68
68 85 68
68 85 68
68 85 51
51 68 51
51 68 34
51 68 34
51 68 34
34 68 34
34 68 34
51 68 34
68 85 51
68 85 51
51 85 34
68 85 34
68 85 51
85 102 51
102 102 68
102 119 85
119 119 85
136 136 119
153 153 136
170 170 153
187 187 170
204 187 187
204 204 187
204 204 187
204 204 187
204 204 187
204 204 187
204 204 187
204 204 187
204 204 187
187 187 187
187 187 170
170 170 170
170 170 170
153 153 153
153 153 153
136 153 136
136 136 136
119 136 119
102 119 119
102 119 102
102 119 102
102 119 102
102 102 102
102 102 102
102 119 102
119 119 119
119 136 119
136 153 136
153 153 153
170 170 170
170 187 170
170 187 170
170 187 170
187 187 170
187 187 170
187 187 170
187 187 170
170 170 170
170 170 153
136 136 119
119 119 102
102 119 85
102 119 85
119 119 102
119 119 102
119 119 102
102 102 85
102 119 102
119 119 102
119 119 102
119 119 102
136 136 119
136 136 119
136 136 119
136 136 119
136 136 102
136 136 102
119 136 102
119 136 102
119 119 85
102 119 85
119 119 68
119 119 85
136 136 119
153 153 136
187 170 153
170 170 153
136 136 119
119 119 85
136 153 119
170 170 153
170 170 153
170 170 153
153 153 136
153 153 136
136 153 119
136 136 119
119 136 102
119 136 102
119 119 85
102 119 85
102 119 85
102 119 85
102 119 85
119 136 85
119 136 102
119 136 102
119 136 85
102 136 85
102 136 85
119 136 85
119 136 85
119 136 85
119 136 85
102 136 85
102 136 85
102 136 68
102 136 68
102 136 85
102 136 68
102 136 68
102 136 68
119 136 85
102 136 85
102 136 85
102 119 68
102 136 68
119 136 85
119 136 85
102 136 68
102 136 68
119 136 85
102 136 68
102 136 68
102 136 68
102 136 68
102 136 68
102 136 85
119 136 85
136 153 102
136 153 102
136 136 102
136 136 102
119 136 102
119 136 102
136 136 102
136 136 102
136 136 102
136 136 102
119 136 102
119 136 102
119 136 102
119 136 102
119 136 85
119 136 85
119 136 85
102 136 85
102 136 85
102 136 85
102 136 85
102 136 85
102 136 85
102 119 85
102 119 85
102 136 85
119 136 85
102 136 85
221 221 221
221 221 221
221 221 221
221 221 221
221 221 221
221 221 221
221 221 221
221 221 221
221 221 221
221 221 221
221 221 221
221 221 221
221 221 221
221 221 221
221 221 221
221 238 221
221 238 221
221 238 221
221 238 221
221 238 221
221 238 221
221 238 221
221 238 221
221 238 221
221 238 221
221 238 221
221 238 238
221 238 238
221 238 238
238 238 238
221 238 238
238 238 238
238 238 238
238 238 238
238 238 238
238 238 238
238 238 238
238 238 238
238 238 238
238 238 238
221 221 221
153 170 153
68 85 51
68 85 51
85 85 68
85 85 68
68 68 68
68 85 68
85 85 68
85 85 68
68 85 51
68 85 51
68 85 51
68 85 51
51 68 34
51 68 34
34 51 34
34 51 51
51 51 51
51 51 51
51 51 51
34 51 34
51 51 34
51 68 51
51 68 51
68 85 51
51 68 51
51 68 34
34 51 34
34 51 34
17 51 17
17 34 17
17 34 17
17 34 17
17 34 17
34 51 34
34 51 34
34 51 34
34 51 34
34 51 34
34 51 34
34 51 34
34 51 34
34 51 34
34 51 34
51 68 51
68 85 68
85 102 85
85 102 85
85 85 68
68 68 68
51 68 51
51 68 51
51 68 34
34 51 34
34 51 34
34 51 34
34 51 34
34 51 34
34 51 34
34 51 34
34 51 34
34 51 34
34 51 34
34 51 34
51 51 34
51 68 34
51 68 51
51 68 34
34 51 34
34 51 34
34 51 34
34 51 34
34 51 34
34 51 51
51 51 51
34 51 34
34 51 34
34 51 34
34 51 34
34 51 34
34 51 34
34 51 34
34 51 34
34 51 34
34 51 34
34 51 34
51 68 34
51 68 34
51 68 51
51 68 34
51 68 34
51 68 34
51 68 34
51 68 34
51 68 34
51 68 34
51 68 34
68 85 34
51 85 51
68 85 51
68 85 51
68 85 51
68 85 51
68 85 68
85 85 68
85 102 68
85 102 68
102 102 85
102 102 85
85 102 85
85 102 85
85 102 68
85 102 68
68 85 68
68 85 51
68 85 51
51 68 51
51 68 34
68 85 51
68 85 51
68 102 51
68 102 68
85 102 68
85 102 68
102 119 85
119 136 102
136 136 119
136 153 136
153 153 153
170 170 153
170 187 170
187 187 170
187 187 170
187 187 170
187 187 170
187 187 170
187 187 170
170 187 170
170 187 170
187 187 170
170 187 187
170 187 170
170 170 170
170 170 170
153 153 153
136 136 136
119 136 119
119 119 119
119 119 119
102 119 119
102 119 119
102 119 119
119 119 119
119 136 119
119 119 119
119 119 119
119 136 119
119 136 119
119 136 119
136 136 119
153 153 136
153 170 153
170 170 153
170 170 153
170 170 153
170 170 153
170 170 153
170 170 153
170 170 153
153 153 136
136 153 136
119 119 102
102 102 85
102 102 85
102 102 85
102 102 102
102 102 102
119 119 102
102 102 102
102 102 102
119 119 102
119 119 102
119 119 102
136 136 119
136 136 119
136 136 119
136 136 119
136 136 119
136 136 102
136 136 102
136 136 102
119 136 85
102 119 68
102 119 68
119 136 102
153 153 119
170 170 136
187 187 170
170 170 153
136 136 102
102 119 85
119 136 102
153 153 136
170 170 136
153 170 136
153 153 136
153 153 136
153 153 136
136 136 119
119 136 102
119 136 102
119 136 102
119 136 85
102 136 85
119 136 85
119 136 85
119 136 102
119 136 102
136 153 102
119 153 102
119 136 102
119 136 85
119 153 102
136 153 102
136 153 102
119 153 102
119 153 102
119 136 85
119 153 102
119 136 85
119 136 85
119 136 85
119 136 85
119 136 85
119 136 85
119 136 85
119 136 85
119 136 85
119 136 102
119 136 102
119 136 85
119 136 85
119 136 85
102 136 85
102 136 68
102 136 68
102 136 68
102 136 68
102 136 68
102 136 68
119 136 85
119 136 85
119 136 85
119 136 85
119 136 85
119 136 85
119 136 85
119 136 85
119 136 85
119 136 85
119 136 85
119 136 85
119 136 85
119 136 85
119 136 85
119 136 85
119 136 85
102 136 85
102 119 85
102 119 85
102 119 85
102 136 85
102 136 85
119 136 85
102 136 85
102 136 85
119 136 85
119 136 85
119 136 85
221 221 221
221 221 221
221 221 221
221 221 221
221 221 221
221 221 221
221 221 221
221 221 221
221 221 221
221 221 221
221 221 221
221 221 221
221 221 221
221 221 221
221 221 221
221 221 221
221 221 221
221 238 221
221 238 221
221 238 221
221 238 221
221 238 221
221 238 221
221 238 221
221 238 221
221 238 238
221 238 238
221 238 238
221 238 238
238 238 238
238 238 238
238 238 238
238 238 238
238 238 238
238 238 238
238 238 238
238 238 238
238 238 238
238 238 238
238 238 238
238 238 238
204 204 204
102 119 102
68 85 51
85 85 68
85 85 68
68 85 68
68 85 68
85 85 68
85 85 68
68 85 51
68 85 51
68 85 51
68 85 51
68 85 51
68 85 51
51 68 51
51 51 51
51 68 68
51 68 68
51 51 51
34 51 34
51 68 51
51 68 51
68 85 51
51 68 51
51 68 34
34 68 34
34 51 34
34 51 34
17 51 17
17 34 17
17 34 17
17 34 17
17 34 17
17 34 34
34 51 34
34 51 34
34 51 34
34 51 34
34 51 34
34 51 34
51 51 34
51 51 34
34 51 34
51 68 51
68 85 68
85 102 85
85 102 85
85 85 85
68 85 68
51 68 51
51 51 51
34 51 34
34 51 34
34 51 34
34 51 34
34 51 34
34 51 34
34 51 34
34 51 34
34 51 34
34 51 34
34 51 34
34 51 34
34 51 34
51 51 34
51 68 51
51 68 51
51 51 34
34 51 34
34 51 34
34 51 34
34 51 51
51 51 51
51 51 51
51 68 51
34 51 34
34 51 34
34 51 34
34 51 34
34 51 34
34 51 34
34 51 34
34 34 34
34 51 34
34 51 34
51 68 34
51 68 34
51 68 34
51 68 34
51 68 51
51 68 51
51 68 51
51 68 34
34 51 34
51 68 34
51 68 34
68 85 51
68 85 51
68 85 68
85 85 68
85 102 68
102 102 85
119 119 102
136 136 119
136 136 119
136 136 119
136 153 136
136 153 136
136 136 136
136 136 119
136 136 119
136 136 119
119 136 102
119 119 85
102 119 85
85 102 68
85 102 68
85 102 85
102 119 102
119 119 102
119 136 119
119 136 119
136 136 136
136 153 136
153 153 153
153 170 153
170 170 170
170 170 170
170 170 170
170 170 170
170 170 170
170 170 170
170 170 170
170 170 170
170 170 153
153 170 153
153 170 153
170 170 170
170 170 170
170 170 170
170 170 170
153 170 153
153 153 153
136 136 136
119 119 119
102 119 119
119 136 119
119 136 136
119 136 136
119 136 136
136 136 136
136 153 136
136 136 136
119 136 102
119 119 85
102 119 85
119 119 85
119 119 85
119 119 85
119 136 102
136 136 119
153 153 119
153 153 136
153 153 136
153 153 136
153 153 136
153 153 119
136 136 119
136 136 119
119 119 102
102 102 85
102 102 85
102 102 85
102 102 85
102 102 85
102 102 102
119 119 102
119 119 102
119 119 102
119 119 102
119 119 102
119 119 102
136 136 119
136 136 119
136 136 119
136 136 119
136 153 119
136 153 102
136 153 102
136 136 102
119 136 85
102 119 68
102 119 68
136 136 102
153 153 136
170 170 153
187 187 170
170 170 153
136 136 102
102 119 85
119 136 102
136 153 119
153 153 136
153 153 136
136 153 119
136 153 119
136 153 119
136 136 119
136 136 102
119 136 102
136 136 102
119 136 102
119 153 102
119 136 102
119 136 102
119 136 102
119 136 102
136 153 102
119 153 102
119 136 102
119 136 102
119 153 102
136 153 102
136 153 102
119 153 102
136 153 102
136 153 102
136 153 102
119 153 102
119 153 102
119 153 102
119 153 102
119 153 102
119 153 102
119 153 102
119 153 102
119 136 102
119 136 102
119 136 102
119 136 102
102 136 85
102 136 85
102 136 85
102 119 85
102 136 85
102 136 85
102 136 68
102 119 68
102 119 68
102 119 68
102 119 68
102 119 68
102 119 68
102 119 85
102 119 85
119 136 85
119 136 85
119 136 85
102 119 85
102 119 85
119 136 85
119 136 85
119 136 85
102 136 85
102 136 85
102 136 85
102 119 68
102 119 85
102 119 85
102 119 85
102 136 85
102 136 85
119 136 85
102 136 85
119 136 85
119 136 85
119 136 85
119 136 85
221 221 221
221 221 221
221 221 221
221 221 221
221 221 221
221 221 221
221 221 221
221 221 221
221 221 221
221 221 221
221 221 221
221 221 221
221 221 221
221 221 221
221 221 221
221 221 221
221 221 221
221 221 221
221 238 221
221 238 221
221 238 221
221 238 221
221 238 221
221 238 238
221 238 221
221 238 238
221 238 238
238 238 238
238 238 238
238 238 238
238 238 238
238 238 238
238 238 238
238 238 238
238 238 238
238 238 238
238 238 238
238 238 238
238 238 238
238 238 238
238 238 238
221 238 238
170 170 153
85 85 68
68 85 68
85 85 68
68 85 68
68 68 68
85 85 68
85 85 68
68 85 51
68 85 51
68 85 51
68 85 51
68 85 51
68 85 34
51 68 34
51 68 51
51 68 51
51 68 51
51 51 51
51 51 51
51 68 51
68 68 51
68 68 51
51 68 51
51 68 51
51 68 34
34 51 34
34 51 34
34 51 34
17 34 34
17 34 34
17 34 34
17 34 34
34 34 34
34 34 34
34 34 34
34 34 34
34 51 34
34 51 34
51 68 34
51 68 34
51 68 34
51 68 34
51 68 51
68 85 68
85 102 85
102 102 85
85 85 85
68 68 68
51 68 68
51 51 51
51 51 51
34 51 34
34 51 34
34 51 34
34 34 34
34 51 34
34 51 34
34 51 34
34 51 34
34 51 34
34 34 34
34 51 34
34 51 34
34 51 34
51 51 34
51 51 51
51 51 34
34 51 34
34 51 34
34 51 34
51 51 51
51 68 68
68 68 68
51 68 51
51 68 34
34 68 34
34 51 34
34 51 34
34 51 34
34 51 34
34 51 34
34 34 34
34 34 34
34 51 34
51 68 51
51 68 51
51 68 34
34 51 34
51 68 51
51 68 51
51 68 51
51 68 51
51 51 34
51 51 34
51 68 34
51 68 34
68 68 51
85 85 68
102 102 85
119 119 102
136 136 119
153 153 136
170 153 136
170 170 153
170 170 153
187 187 170
187 187 170
187 187 170
187 187 170
187 187 170
170 170 170
170 170 153
153 153 153
153 153 136
136 153 119
136 153 136
153 153 136
153 153 153
153 153 153
153 170 153
153 170 153
170 170 153
170 170 170
170 170 170
170 170 170
170 170 170
170 170 170
153 170 153
153 170 153
153 170 153
153 153 153
153 153 153
153 153 153
153 153 153
153 153 153
153 170 153
153 170 170
170 170 170
153 170 153
153 153 153
136 153 153
136 153 153
136 136 136
119 136 119
119 136 136
136 153 153
153 170 153
153 153 153
136 153 136
136 136 119
136 136 119
119 136 102
102 119 85
102 102 68
102 102 68
102 102 68
102 102 68
102 102 85
119 119 85
119 119 102
119 119 102
119 119 102
119 136 119
136 136 119
119 119 102
136 136 102
119 119 102
119 119 102
119 102 102
102 102 102
102 102 85
102 102 102
102 102 102
102 102 102
102 102 102
119 119 102
119 119 102
119 119 102
119 119 102
119 119 102
119 119 102
136 136 119
136 153 119
136 153 119
136 153 119
136 153 119
136 153 102
136 153 102
136 153 102
119 136 85
102 119 68
102 119 68
136 136 102
153 153 136
170 170 153
187 187 170
170 170 153
136 136 102
119 119 85
136 136 102
136 153 119
153 153 119
153 153 119
136 153 102
136 136 102
136 136 102
136 136 102
136 136 102
136 153 102
136 153 119
136 153 119
136 153 119
119 153 102
119 136 102
119 136 102
136 153 102
136 153 119
136 153 119
119 136 102
119 136 102
119 136 102
119 136 102
119 136 102
119 136 102
119 136 102
119 153 102
119 153 102
119 153 102
119 153 102
136 153 119
136 153 119
119 153 102
119 153 102
119 136 102
119 136 102
119 136 102
119 136 102
119 136 102
102 119 85
102 119 85
102 119 85
102 119 85
102 119 85
102 119 85
102 119 85
102 119 85
102 119 68
85 119 68
85 119 68
85 119 68
85 119 68
85 119 68
102 119 68
102 119 68
102 119 85
102 119 85
102 119 85
102 119 85
102 119 85
102 119 85
102 119 85
119 136 85
102 119 85
102 136 85
102 119 85
102 119 68
102 119 85
102 136 85
102 136 85
102 136 85
119 136 85
119 136 85
119 136 85
119 136 85
119 136 85
119 136 85
119 136 85
221 221 221
221 221 221
221 221 221
221 221 221
221 221 221
221 221 221
221 221 221
221 221 221
221 221 221
221 221 221
221 221 221
221 221 221
221 221 221
221 221 221
221 221 221
221 221 221
221 221 221
221 238 221
221 238 221
221 238 221
221 238 221
221 238 221
221 238 221
221 238 221
221 238 238
221 238 238
221 238 221
221 238 238
238 238 238
238 238 238
238 238 238
238 238 238
238 238 238
238 238 238
238 238 238
238 238 238
238 238 238
238 238 238
238 238 238
238 238 238
238 238 238
238 238 238
204 204 204
119 136 119
85 85 68
85 85 68
68 85 68
68 68 68
85 85 68
85 85 68
68 85 51
68 85 34
68 85 51
68 85 51
68 85 34
51 68 34
51 68 34
51 68 34
51 68 51
51 68 51
51 68 51
51 51 34
51 68 51
51 68 51
51 68 51
51 68 51
51 68 51
51 68 51
34 51 34
34 51 34
34 34 34
34 51 34
34 51 34
34 51 34
34 51 34
34 51 34
34 34 34
34 34 34
34 51 34
34 51 34
34 51 34
34 51 34
51 51 34
51 51 34
51 68 51
51 68 51
68 85 68
85 85 85
85 102 85
85 85 85
68 68 68
51 68 68
51 51 51
51 51 51
34 51 51
34 51 34
34 34 34
34 34 34
34 34 34
34 51 34
34 51 34
34 51 34
34 34 34
34 34 34
34 34 34
34 34 34
34 51 34
51 51 34
51 51 51
51 51 34
34 51 34
34 34 34
34 51 34
34 51 51
51 68 51
51 68 51
51 68 51
34 68 34
34 68 34
34 51 34
34 68 34
34 51 34
34 51 34
34 51 34
34 51 34
51 51 51
51 68 51
51 68 68
51 68 51
51 51 51
34 51 34
51 68 51
51 68 51
51 68 51
51 68 51
34 51 34
34 51 34
51 51 34
51 68 34
51 68 51
85 85 68
119 119 85
136 136 119
153 153 136
170 170 153
187 187 153
187 187 170
187 187 170
204 204 187
204 204 187
204 204 187
204 204 187
204 204 187
204 187 170
187 187 170
187 187 170
187 187 170
170 170 170
170 170 170
170 187 170
170 187 170
170 170 170
170 170 170
170 170 170
170 170 170
170 170 170
170 170 170
170 170 153
153 170 153
153 170 153
153 153 153
153 153 153
153 153 153
153 153 153
153 153 153
153 153 153
153 153 153
153 170 153
153 170 170
170 170 170
153 170 170
153 153 153
136 153 153
136 153 136
153 170 153
153 153 153
136 153 136
153 153 153
153 170 153
153 170 153
136 153 136
119 119 102
119 119 85
119 119 85
119 119 85
102 102 68
102 102 68
102 102 68
85 85 68
102 102 68
102 102 68
102 102 85
102 102 85
119 119 102
119 119 102
119 119 102
119 119 102
119 119 102
119 136 102
119 119 102
119 119 102
102 102 102
102 102 102
102 102 102
119 119 102
119 119 102
119 119 102
119 119 102
119 119 102
119 119 102
136 136 102
119 119 102
119 119 102
119 119 102
119 136 102
136 136 102
136 153 102
136 153 102
136 153 102
136 136 102
136 153 102
119 153 102
119 136 85
119 136 85
119 136 68
136 136 102
153 153 136
170 170 153
187 187 170
170 170 153
136 136 102
119 136 85
136 153 102
136 153 119
136 153 119
136 153 119
136 153 102
119 136 102
119 136 102
136 136 102
136 153 119
136 153 119
136 153 119
136 153 119
136 153 119
136 153 119
136 153 102
119 136 102
136 153 119
136 153 119
136 153 119
119 136 102
119 136 119
119 136 119
119 136 102
119 136 102
119 136 102
119 136 102
119 136 102
119 136 102
119 136 102
119 136 102
136 153 119
136 136 102
119 136 102
119 136 102
119 136 102
119 136 102
119 136 102
119 136 102
102 119 102
102 119 85
102 119 85
102 119 85
102 119 85
102 119 85
102 119 85
102 119 85
102 119 85
85 119 68
85 119 68
85 119 68
85 119 68
85 119 68
85 119 68
85 102 68
102 119 68
102 119 85
102 119 85
102 119 85
102 119 85
119 119 85
119 136 102
119 136 102
119 136 102
102 119 85
119 136 85
102 119 85
102 119 85
102 136 85
119 136 85
119 136 85
119 136 85
119 136 85
119 136 85
119 136 85
119 136 85
119 136 85
119 136 85
102 136 85
221 221 221
221 221 221
221 221 221
221 221 221
221 221 221
221 221 221
221 221 221
221 221 221
221 221 221
221 221 221
221 221 221
221 221 221
221 221 221
221 221 221
221 221 221
221 221 221
221 238 221
221 238 221
221 238 221
221 238 221
221 238 221
221 238 221
221 238 221
221 238 221
221 238 238
221 238 238
221 238 238
238 238 238
221 238 238
221 238 238
238 238 238
238 238 238
238 238 238
238 238 238
238 238 238
238 238 238
238 238 238
238 238 238
238 238 238
238 238 238
238 238 238
238 238 238
238 238 238
170 187 170
85 102 85
85 85 68
85 85 68
68 68 68
68 85 68
85 85 68
68 85 51
68 85 34
68 85 34
68 85 34
68 85 34
68 85 34
68 85 34
51 85 34
68 85 51
51 68 34
51 68 34
34 51 34
34 51 34
51 51 51
51 68 51
51 68 51
51 68 51
51 51 51
34 51 34
17 34 34
17 34 34
34 51 34
34 51 34
34 51 34
34 51 34
34 51 34
34 51 34
34 51 34
34 51 34
34 51 34
34 51 34
34 51 34
34 51 34
34 51 34
51 51 51
51 51 51
68 68 68
85 85 85
85 102 85
85 85 85
68 85 68
51 68 68
51 51 51
51 51 51
51 51 51
34 51 34
34 34 34
34 34 34
34 34 34
34 51 34
34 51 34
34 51 34
34 34 34
17 34 34
34 34 34
34 34 34
34 51 34
51 51 34
51 51 51
51 51 51
34 51 34
34 51 34
34 51 34
34 51 34
34 51 34
34 51 34
34 68 34
34 68 34
51 68 34
51 68 51
51 68 51
51 68 51
51 68 34
51 68 51
51 68 51
68 68 68
68 85 85
68 85 85
51 68 68
34 51 51
51 68 51
51 68 51
51 68 68
51 68 51
51 51 51
34 51 34
34 51 34
34 51 34
34 51 34
51 68 34
51 68 51
85 85 68
119 119 102
153 153 136
187 170 153
187 187 170
204 187 170
204 204 187
204 204 187
221 221 204
204 204 187
204 204 187
204 204 187
204 204 187
204 204 187
204 204 187
187 187 187
187 187 170
187 187 170
187 187 170
170 187 170
170 170 170
170 170 170
170 170 170
170 170 153
153 170 153
153 170 153
153 153 153
153 153 153
153 153 153
153 153 153
153 153 153
153 153 153
153 153 153
153 153 153
153 153 153
153 170 170
153 170 170
153 170 170
153 170 153
153 153 153
136 153 136
136 153 136
153 153 153
153 170 170
170 170 170
153 170 153
153 153 136
153 153 136
136 153 119
119 136 102
102 119 68
102 102 68
102 102 68
102 102 68
85 102 68
85 85 68
85 85 68
85 85 68
85 85 68
85 85 68
102 102 85
102 102 85
102 119 102
119 119 102
119 119 102
119 119 102
119 119 102
119 119 102
119 119 102
119 119 102
102 102 102
119 119 102
119 119 102
119 119 102
119 119 102
119 119 102
119 119 102
119 119 102
119 136 102
136 136 102
119 136 102
119 119 102
119 119 85
119 136 102
119 136 102
119 136 102
119 136 102
119 136 102
119 136 85
119 136 102
119 136 102
102 136 85
102 119 68
102 119 68
136 136 119
153 153 136
170 170 153
204 187 170
170 170 136
119 136 102
119 136 85
119 136 102
119 153 102
119 153 102
136 153 102
136 153 102
136 153 102
136 153 102
136 153 119
136 153 119
136 153 119
136 153 119
136 153 119
153 153 119
136 153 119
136 153 119
136 153 119
136 153 119
136 153 119
136 153 119
119 136 102
119 136 119
136 153 119
119 136 119
119 136 102
119 136 102
119 136 102
102 119 102
102 119 102
119 136 102
119 136 102
119 136 102
119 136 102
119 136 102
119 136 102
102 119 102
102 119 102
102 119 102
102 119 102
102 119 85
85 102 85
85 102 85
102 119 85
102 119 85
102 119 85
102 119 85
102 119 85
85 119 85
85 119 68
85 119 68
85 119 68
102 119 68
85 119 68
102 119 68
85 119 68
102 119 85
102 119 85
102 119 85
102 119 85
119 136 85
119 136 102
136 136 102
136 136 102
119 136 102
119 136 85
119 136 85
119 136 85
102 136 85
119 136 85
119 136 102
119 136 85
119 136 85
119 136 85
119 136 85
119 136 85
119 136 85
119 136 102
119 136 85
119 136 85
221 221 221
221 221 221
221 221 221
221 221 221
221 221 221
221 221 221
221 221 221
221 221 221
221 221 221
221 221 221
221 221 221
221 221 221
221 221 221
221 221 221
221 221 221
221 221 221
221 238 221
221 221 221
221 238 221
221 238 221
221 238 221
221 238 221
221 238 221
221 238 221
221 238 221
221 238 238
221 238 238
221 238 238
221 238 238
238 238 238
238 238 238
238 238 238
238 238 238
238 238 238
238 238 238
238 238 238
238 238 238
238 238 238
238 238 238
238 238 238
238 238 238
238 238 238
238 238 238
204 221 221
136 153 136
85 85 68
85 85 68
68 68 68
68 85 68
85 85 68
68 85 51
68 85 51
68 85 34
68 85 34
68 85 51
68 85 34
68 85 51
68 85 51
68 85 51
68 85 34
51 68 34
34 51 34
34 51 34
51 68 51
51 68 51
51 68 51
51 68 51
51 51 51
34 51 51
34 34 34
34 34 34
34 34 34
34 51 34
34 51 34
34 51 34
34 51 34
34 51 34
34 51 34
34 34 34
34 34 34
34 34 34
34 34 34
34 51 34
34 51 51
51 51 51
51 51 51
68 68 68
85 85 68
85 102 85
85 85 85
68 85 68
68 68 68
51 51 51
51 51 51
51 51 51
34 51 51
34 34 34
34 34 34
34 34 34
34 51 34
34 51 34
34 51 34
34 51 34
34 34 34
17 34 34
34 34 34
34 51 34
51 51 34
51 51 51
51 51 51
51 51 51
51 51 51
51 68 51
51 68 51
51 68 51
51 68 51
51 68 51
51 85 68
68 85 68
68 85 68
51 85 51
51 68 51
51 68 51
51 68 51
51 68 51
68 85 68
68 85 85
68 85 85
51 68 68
51 68 51
51 68 51
51 68 51
51 68 51
51 51 51
34 51 51
34 51 51
34 51 51
34 51 34
34 51 34
51 51 34
51 68 34
51 68 34
85 102 68
136 136 119
187 170 153
204 204 187
204 204 187
221 204 187
221 221 204
221 221 204
221 221 204
204 204 204
204 204 187
204 204 187
204 204 187
204 204 187
187 187 187
187 187 170
187 187 170
170 187 170
170 170 170
170 170 170
153 170 153
153 153 153
153 153 153
153 153 153
153 153 153
153 153 153
153 153 153
153 153 153
153 153 153
153 153 153
153 153 153
153 153 153
153 153 153
153 170 153
153 170 170
153 170 170
153 170 170
136 153 153
136 136 136
136 136 136
153 153 153
170 170 170
170 170 170
153 170 153
153 153 136
136 136 102
119 136 102
119 119 85
102 102 68
102 102 68
102 102 68
102 102 68
102 102 68
85 85 68
85 85 68
85 85 68
85 85 68
85 85 68
85 85 68
102 102 85
102 102 85
102 119 102
119 119 102
119 119 102
102 119 102
102 102 102
102 102 102
102 102 102
102 102 102
102 102 102
119 119 102
119 119 102
119 119 102
119 119 102
119 136 102
119 136 102
119 136 102
119 136 102
119 136 102
119 136 102
119 136 102
119 136 102
119 136 102
119 136 102
119 136 102
119 136 85
119 136 102
119 136 102
119 136 102
119 136 102
102 119 85
102 119 68
102 119 68
136 136 119
170 170 136
187 170 153
204 187 170
153 153 136
119 136 85
119 136 85
119 136 102
119 153 102
119 153 102
119 153 102
119 153 102
136 153 119
136 153 102
136 153 119
136 153 119
136 153 119
136 153 119
136 153 119
136 153 119
136 153 119
136 153 119
136 153 119
136 153 119
136 153 102
136 153 119
119 136 102
119 136 119
119 136 119
119 136 119
119 136 119
119 136 102
119 136 102
119 136 102
119 119 102
102 119 102
119 136 102
119 136 102
119 136 102
119 136 102
119 136 102
119 119 102
102 119 102
102 119 102
102 119 102
102 119 102
102 119 85
102 119 85
102 119 102
102 119 85
102 119 85
102 119 85
102 119 85
102 119 85
85 119 85
85 119 68
85 119 85
102 119 85
102 119 85
102 119 68
102 119 85
102 119 85
102 119 85
102 119 85
102 119 85
119 136 102
136 136 102
136 136 102
119 136 102
119 136 102
119 136 85
119 136 85
119 136 85
119 136 85
119 136 85
119 136 85
119 136 102
119 136 85
119 136 85
119 136 85
119 136 85
119 136 85
119 136 102
119 136 85
119 136 85
221 221 221
221 221 221
221 221 221
221 221 221
221 221 221
221 221 221
221 221 221
221 221 221
221 221 221
221 221 221
221 221 221
221 221 221
221 221 221
221 221 221
221 221 221
221 221 221
221 238 221
221 238 221
221 238 221
221 238 221
221 238 221
221 238 221
221 238 221
221 238 221
221 238 221
221 238 238
221 238 238
221 238 238
221 238 238
238 238 238
238 238 238
238 238 238
238 238 238
238 238 238
238 238 238
238 238 238
238 238 238
238 238 238
238 238 238
238 238 238
238 238 238
238 238 238
238 238 238
238 238 238
187 187 187
102 102 85
85 85 68
68 68 68
68 85 68
85 85 68
68 85 68
68 85 34
68 85 34
68 85 34
68 85 51
68 85 51
85 102 51
85 102 51
68 102 51
68 85 51
68 85 51
51 68 34
51 51 51
51 68 68
51 68 68
51 51 51
51 51 51
51 51 51
34 51 51
34 51 34
34 51 34
34 34 34
34 51 34
34 51 34
34 34 34
17 34 34
17 34 34
17 34 34
17 34 17
17 34 34
17 34 34
17 34 34
34 34 34
34 51 34
51 51 51
51 51 51
68 68 68
68 85 68
85 102 85
85 102 85
68 85 68
68 68 68
51 51 51
51 68 68
51 68 68
51 51 51
34 51 34
34 51 34
34 51 34
34 51 34
34 51 34
34 51 34
34 51 34
34 34 34
17 34 34
34 51 34
34 51 34
51 51 34
51 68 51
51 51 51
68 68 68
68 85 85
85 102 119
102 102 119
102 102 102
85 102 102
102 102 102
102 119 119
102 119 119
102 119 119
85 102 102
85 102 102
68 85 85
68 85 68
68 85 68
85 85 85
85 102 85
68 85 68
51 68 68
51 68 51
51 68 51
51 68 51
51 68 51
34 51 51
34 51 51
34 51 34
34 51 34
34 51 51
34 51 34
34 51 34
51 51 34
51 68 34
68 85 51
119 119 102
170 170 153
204 187 170
204 204 187
221 204 187
221 221 204
221 221 204
204 204 204
204 204 187
204 204 187
204 204 187
204 204 187
204 204 187
187 187 170
187 187 170
170 187 170
170 170 170
170 170 153
153 153 153
153 153 153
136 153 153
136 153 153
136 153 153
136 153 153
136 153 153
153 153 153
153 153 153
153 153 153
153 153 153
153 153 153
153 153 153
153 170 153
153 170 153
153 170 153
153 170 170
153 170 153
136 153 153
119 136 119
136 136 136
153 153 153
170 170 170
153 170 153
153 153 136
136 136 119
119 119 85
119 119 85
102 102 68
85 102 68
85 102 68
102 102 68
102 102 85
102 102 85
102 102 68
85 85 51
85 85 51
85 85 51
85 85 68
85 85 68
85 85 68
102 102 85
102 102 85
102 119 102
102 119 102
102 102 102
102 102 85
102 102 85
102 102 85
102 102 102
119 119 102
119 119 119
119 136 119
119 136 119
119 136 102
119 136 102
119 136 102
119 136 102
119 136 102
119 136 102
119 153 102
119 153 102
119 153 102
119 153 102
119 153 102
119 153 102
119 153 102
119 153 102
119 153 102
119 136 102
119 136 85
102 119 85
102 119 68
102 119 68
136 153 119
170 170 153
187 187 170
204 187 170
153 153 136
119 119 85
102 119 85
119 136 102
119 153 102
119 153 102
136 153 102
119 153 102
119 153 102
119 153 102
136 153 102
136 153 119
136 153 119
119 136 102
119 136 102
136 153 119
136 153 119
136 153 119
136 153 119
119 153 102
119 136 102
119 136 102
119 136 102
119 136 119
119 136 119
119 136 119
119 136 119
136 153 119
119 136 119
119 136 119
119 136 102
119 136 102
119 119 102
119 119 102
119 136 119
136 136 119
119 136 119
119 136 119
119 119 102
102 119 102
102 119 102
102 119 102
102 119 102
102 119 102
102 119 102
102 119 102
102 119 102
102 119 102
102 119 85
102 119 102
102 119 102
102 119 85
85 119 85
102 119 85
102 119 85
102 119 85
119 136 85
119 136 102
119 136 102
119 136 102
119 136 102
136 136 102
136 153 102
136 153 102
119 136 85
136 136 102
119 136 85
119 136 85
119 136 85
119 136 85
119 136 85
119 136 85
119 136 85
119 136 85
119 136 85
119 136 85
119 136 85
119 136 85
119 136 85
119 136 85
119 136 85
221 221 221
221 221 221
221 221 221
221 221 221
221 221 221
221 221 221
221 221 221
221 221 221
221 221 221
221 221 221
221 221 221
221 221 221
221 221 221
221 221 221
221 221 221
221 221 221
221 238 221
221 238 221
221 238 221
221 238 221
221 238 221
221 238 221
221 238 221
221 238 221
221 238 238
221 238 238
221 238 238
221 238 238
221 238 238
238 238 238
238 238 238
238 238 238
238 238 238
238 238 238
238 238 238
238 238 238
238 238 238
238 238 238
238 238 238
238 238 238
238 238 238
238 238 238
238 238 238
238 238 238
221 221 221
153 153 153
85 85 68
68 85 68
68 85 68
85 85 68
68 85 68
68 85 51
68 85 34
68 85 34
68 85 51
68 85 51
68 102 51
85 102 51
85 102 51
68 102 51
68 85 51
68 85 51
51 68 51
51 68 51
51 51 51
51 51 51
51 51 51
51 51 51
34 51 34
34 51 34
34 51 34
34 51 34
34 34 34
34 34 34
17 34 34
17 34 17
17 34 17
17 34 17
17 34 17
17 34 34
17 34 17
17 34 34
17 34 34
34 51 34
51 51 51
34 51 34
51 68 51
68 85 68
85 102 85
85 102 85
85 85 85
68 68 68
51 51 51
51 68 68
51 68 68
51 51 51
51 51 51
34 51 34
34 51 34
51 51 34
34 51 34
34 51 34
34 51 34
34 34 34
17 34 34
34 51 34
34 51 34
51 68 51
51 68 51
51 51 51
85 85 85
119 119 136
136 153 170
153 153 170
153 153 170
153 153 153
136 153 153
136 153 153
136 153 170
136 153 170
136 153 170
136 136 153
119 119 136
119 119 119
119 119 136
102 119 119
102 119 119
85 85 85
51 68 68
68 68 68
51 68 68
51 68 51
51 68 51
34 51 51
34 51 51
34 51 34
34 51 34
34 51 34
34 51 34
34 51 34
34 51 34
34 51 34
51 68 34
119 119 102
170 170 153
204 204 187
204 204 187
221 204 187
221 204 204
204 204 187
204 204 187
204 204 187
204 204 187
204 204 187
204 204 187
187 187 170
187 187 170
170 170 170
170 170 153
153 170 153
153 153 153
153 153 153
136 153 136
136 153 136
136 153 136
136 153 153
136 153 153
153 153 153
153 153 153
153 153 153
153 153 153
153 153 153
153 153 153
153 153 153
153 153 153
153 153 153
153 153 153
153 170 153
153 153 153
153 153 153
119 136 119
136 136 136
153 153 136
153 170 153
153 153 136
136 136 119
119 136 102
119 119 85
102 119 68
102 102 68
85 85 68
85 85 68
85 85 68
102 102 85
102 102 85
102 102 68
85 102 68
85 102 51
85 85 51
85 85 68
85 85 68
85 85 68
85 85 85
102 102 85
102 102 85
102 119 102
102 119 102
102 102 85
102 102 85
102 102 85
119 119 102
136 136 119
136 153 136
136 153 119
136 153 119
119 153 102
119 136 102
119 136 102
119 153 102
119 153 102
119 153 102
119 153 102
119 153 102
119 153 102
119 153 102
119 153 102
119 153 102
119 153 102
119 153 102
119 153 102
119 153 102
119 136 102
102 119 85
85 119 68
102 119 68
153 153 119
170 170 153
187 187 170
187 187 170
153 153 136
102 119 85
102 119 85
119 136 102
119 153 102
119 153 102
119 153 102
119 136 102
119 136 102
119 136 102
119 136 102
119 136 102
119 136 102
119 136 102
119 136 102
119 136 102
119 136 102
119 136 102
119 136 102
119 136 102
119 136 102
119 136 102
119 136 102
119 153 119
119 153 119
136 153 119
136 153 119
136 153 119
136 153 119
136 153 119
119 136 102
119 136 102
119 136 119
119 136 119
119 136 119
136 153 119
136 153 136
119 136 119
119 136 119
119 136 119
119 136 119
119 136 119
119 136 119
119 136 119
119 119 119
119 119 102
119 119 102
102 119 102
102 119 102
119 119 102
119 119 102
102 119 102
102 119 102
102 119 102
102 136 102
119 136 102
119 136 102
136 153 119
136 153 119
136 153 119
136 153 119
136 153 119
136 153 119
136 153 102
136 153 102
136 153 102
119 153 102
136 153 102
136 153 102
136 153 102
119 136 102
119 136 85
119 136 85
119 136 85
119 136 85
119 153 102
119 136 102
119 136 102
119 136 102
119 136 85
119 136 85
221 221 221
221 221 221
221 221 221
221 221 221
221 221 221
221 221 221
221 221 221
221 221 221
221 221 221
221 221 221
221 221 221
221 221 221
221 221 221
221 221 221
221 221 221
221 221 221
221 221 221
221 238 221
221 221 221
221 238 221
221 238 221
221 238 221
221 238 221
221 238 221
221 238 221
221 238 221
221 238 238
238 238 238
221 238 238
221 238 238
238 238 238
238 238 238
238 238 238
238 238 238
238 238 238
238 238 238
238 238 238
238 238 238
238 238 238
238 238 238
238 238 238
238 238 238
238 238 238
238 238 238
238 238 238
204 204 204
119 119 102
68 85 68
68 68 68
68 85 68
68 85 68
68 85 51
68 68 34
68 85 34
68 85 51
68 85 51
68 85 34
68 85 51
68 102 51
68 102 51
68 85 51
68 85 51
51 68 51
51 51 51
51 51 51
51 51 51
51 51 51
51 51 51
51 51 51
51 51 51
34 51 34
34 34 34
34 34 34
34 34 34
17 34 17
17 34 17
17 34 17
17 34 17
17 34 34
34 34 34
34 34 34
34 34 34
34 34 34
34 34 34
34 51 51
34 51 51
51 51 51
68 68 68
85 102 85
85 102 85
85 85 85
68 68 68
51 68 68
51 68 68
68 68 68
51 68 68
51 68 51
51 68 51
51 68 51
51 68 51
51 68 34
34 51 34
34 51 34
34 34 34
17 34 34
34 51 34
34 51 34
51 51 34
51 68 51
51 51 51
85 85 85
136 136 153
170 170 187
170 170 187
170 170 170
170 153 153
170 153 153
170 153 153
170 170 170
170 170 187
153 170 187
170 187 187
153 170 170
170 170 170
153 153 170
153 153 187
136 136 153
102 102 102
68 68 68
68 85 68
68 85 68
51 68 51
51 51 51
34 51 34
34 51 34
34 51 34
34 51 34
34 51 34
34 51 34
34 51 34
34 51 34
34 51 34
68 68 51
136 136 119
170 187 170
204 204 187
204 204 187
204 204 187
204 204 187
204 204 187
204 204 187
204 204 187
204 204 187
187 187 170
187 187 170
170 170 170
170 170 153
153 170 153
153 170 153
153 153 153
153 153 153
136 153 136
136 153 136
136 153 136
153 153 153
153 153 153
153 153 153
153 153 153
153 153 153
153 153 153
153 153 153
153 170 153
153 170 153
153 153 153
153 153 153
153 153 153
153 153 153
153 153 153
153 153 153
153 153 153
136 136 119
136 136 119
136 136 119
136 136 119
136 136 102
119 119 102
102 119 85
102 102 85
102 102 68
85 85 68
85 85 68
85 85 68
85 85 68
102 102 85
119 119 85
102 119 85
102 119 68
85 102 68
85 102 51
85 85 51
85 85 68
85 85 68
85 85 68
102 102 85
102 102 85
102 119 102
102 119 102
119 119 102
102 119 85
102 119 102
119 136 119
136 153 136
153 170 136
153 170 136
136 153 119
136 153 119
119 153 102
119 153 102
119 153 102
119 153 102
119 153 102
119 153 102
119 153 102
119 153 102
119 153 102
119 153 102
119 153 102
119 153 102
119 153 119
119 153 119
119 153 102
119 136 102
102 119 85
85 119 51
102 119 68
153 153 119
170 170 153
187 187 170
187 187 170
153 153 119
102 119 85
102 119 85
119 136 102
119 153 102
119 153 102
119 153 102
119 153 102
119 136 102
119 136 102
119 136 102
119 136 102
119 136 102
119 136 102
102 136 102
119 119 102
119 136 102
119 136 102
119 136 102
119 136 102
119 136 102
119 136 102
119 136 102
119 136 102
119 153 102
136 153 119
136 153 119
136 153 119
136 153 119
136 153 119
119 153 102
119 136 119
136 153 119
136 153 119
136 153 119
136 153 136
136 153 119
119 136 119
119 136 119
119 136 119
136 136 119
136 136 119
136 136 136
136 136 136
136 136 119
119 136 119
119 136 119
119 136 119
119 136 119
119 136 119
119 136 119
119 136 119
119 136 102
119 136 102
119 136 102
119 136 102
136 153 119
136 153 119
136 153 119
136 153 119
136 153 119
136 153 119
136 153 119
136 153 119
136 153 119
136 153 102
136 153 119
136 153 119
136 170 119
136 153 119
136 153 102
136 153 119
136 153 119
136 153 102
136 153 102
136 153 119
136 153 119
136 153 119
136 153 102
136 153 102
136 153 102
221 221 221
221 221 221
221 221 221
221 221 221
221 221 221
221 221 221
221 221 221
221 221 221
221 221 221
221 221 221
221 221 221
221 221 221
221 221 221
221 221 221
221 221 221
221 221 221
221 221 221
221 221 221
221 221 221
221 221 221
221 238 221
221 238 221
221 238 221
221 238 221
221 238 221
221 238 221
221 238 221
221 238 221
221 238 238
221 238 238
221 238 238
238 238 238
238 238 238
238 238 238
238 238 238
238 238 238
238 238 238
238 238 238
238 238 238
238 238 238
238 238 238
238 238 238
238 238 238
238 238 238
238 238 238
221 238 238
170 170 153
85 85 68
68 85 68
68 85 68
68 85 68
68 85 51
51 68 34
68 85 34
68 85 34
68 85 34
68 85 51
68 85 51
68 85 51
68 85 51
68 85 51
68 85 51
51 68 51
51 51 51
51 51 51
51 51 51
68 51 51
68 51 51
68 51 51
51 51 51
51 51 34
34 34 34
34 34 34
34 34 34
51 34 34
34 34 34
34 34 34
34 34 34
34 34 34
51 51 34
68 51 51
51 51 51
51 51 51
34 34 34
34 51 34
34 51 51
51 51 51
68 68 68
85 85 85
85 102 85
85 85 85
68 68 68
68 68 68
68 68 68
68 68 68
51 68 51
51 68 51
51 68 34
51 68 51
51 68 34
51 51 34
34 51 34
34 51 34
34 51 34
34 34 34
34 51 34
34 51 34
51 51 34
51 68 51
51 51 51
68 85 68
119 136 136
153 170 187
170 170 187
170 153 153
170 136 136
170 136 136
170 136 136
170 170 170
170 170 187
153 170 170
170 187 204
170 170 187
170 170 187
170 170 187
170 170 204
136 153 153
102 102 102
68 85 68
68 85 68
68 85 68
51 68 51
51 68 51
34 51 51
34 51 34
34 51 34
34 51 34
17 34 34
17 34 34
34 34 34
34 51 34
34 51 34
68 85 51
136 136 119
170 187 170
204 204 187
204 204 187
204 204 187
204 204 187
204 204 204
204 204 187
204 204 187
187 187 170
170 170 170
170 170 170
170 170 153
153 153 153
153 153 153
153 153 153
136 153 153
136 153 136
136 153 136
136 153 136
153 153 153
153 153 153
153 153 153
153 153 153
153 170 153
153 170 170
153 170 153
153 170 153
153 170 153
153 153 153
153 153 153
153 153 153
153 153 153
153 170 170
153 153 153
136 153 153
136 136 119
119 136 119
119 119 102
119 119 85
119 119 85
102 119 85
119 119 85
102 119 85
102 102 85
85 102 68
85 85 68
85 85 68
85 85 68
85 102 68
102 102 68
102 119 68
102 119 85
102 119 68
85 102 68
85 102 68
85 102 68
85 85 68
85 102 68
85 102 68
102 119 85
102 119 102
119 136 102
119 136 102
119 136 102
119 136 102
119 136 102
136 136 119
153 170 136
153 170 136
153 170 136
136 153 119
136 153 119
119 153 102
119 153 102
119 153 102
136 153 119
119 153 102
119 153 102
119 153 102
119 153 102
119 153 102
136 153 119
136 153 119
136 153 119
136 153 119
136 153 119
119 153 102
119 136 102
102 119 68
85 119 51
102 119 68
153 153 136
170 170 153
187 187 170
187 187 170
136 153 119
102 119 85
102 136 85
119 153 102
136 153 119
136 153 119
136 153 119
119 153 102
119 153 102
119 136 102
119 136 102
119 136 102
119 136 102
102 136 102
102 119 102
102 119 102
102 119 102
102 119 102
102 119 102
102 119 102
102 119 102
102 136 102
119 136 102
119 136 102
119 136 102
119 136 102
119 136 102
119 153 102
119 153 102
119 153 102
136 153 119
136 153 119
136 153 119
136 153 119
136 153 119
136 153 136
136 153 119
136 153 119
136 136 119
136 136 119
136 153 119
136 153 119
136 153 136
136 153 136
136 153 119
119 136 119
119 136 119
136 136 119
136 153 136
136 153 136
136 136 119
119 136 119
119 136 119
136 136 119
136 153 119
136 153 119
136 153 119
136 153 119
136 153 119
136 153 119
136 153 102
136 153 119
136 153 119
136 153 102
136 153 119
136 153 119
153 170 119
153 170 119
153 170 136
153 170 119
153 170 136
153 170 136
153 170 136
153 170 119
153 170 119
153 170 119
153 170 136
153 170 136
153 170 136
153 153 119
136 153 119
221 221 221
221 221 221
221 221 221
221 221 221
221 221 221
221 221 221
221 221 221
221 221 221
221 221 221
221 221 221
221 221 221
221 221 221
221 221 221
221 221 221
221 221 221
221 221 221
221 221 221
221 221 221
221 221 221
221 221 221
221 221 221
221 238 221
221 238 221
221 238 221
221 238 221
221 238 221
221 238 238
221 238 221
221 238 238
221 238 238
221 238 238
238 238 238
238 238 238
238 238 238
238 238 238
238 238 238
238 238 238
238 238 238
238 238 238
238 238 238
238 238 238
238 238 238
238 238 238
238 238 238
238 238 238
238 238 238
204 204 204
119 119 102
68 68 68
68 85 68
85 85 68
68 85 51
51 68 34
51 68 34
51 85 34
68 85 34
68 85 51
68 85 51
68 85 51
68 85 51
68 85 51
68 68 51
51 68 51
51 51 51
51 51 51
51 51 51
68 51 51
85 51 68
85 68 68
85 51 68
68 51 51
51 51 34
51 51 34
68 51 51
85 51 51
85 51 51
68 51 51
68 51 34
68 51 51
85 51 51
85 68 68
85 68 68
68 51 51
68 51 51
51 51 51
51 51 51
51 68 51
68 68 68
85 85 85
85 102 85
85 85 85
68 85 68
68 68 68
51 68 51
51 68 51
51 68 51
51 68 34
34 51 34
51 68 34
34 51 51
34 51 34
34 51 34
34 34 34
17 34 34
17 34 34
34 51 34
34 51 34
51 68 34
51 68 51
51 68 51
68 68 68
119 119 119
153 170 170
170 170 187
170 153 170
170 136 136
170 136 136
170 136 136
170 170 170
170 170 187
153 170 170
170 187 204
187 187 204
187 187 204
187 187 204
187 187 204
153 153 170
119 119 102
68 85 68
68 85 68
68 85 68
68 68 51
51 68 51
51 68 51
51 51 51
51 51 51
34 51 34
17 34 34
17 34 34
34 34 34
34 51 34
34 51 34
85 102 68
136 153 136
170 170 170
187 187 170
187 187 170
187 187 187
204 204 187
204 204 187
204 204 187
187 187 170
170 170 153
170 170 153
153 170 153
153 153 153
153 153 153
136 153 153
136 153 136
136 153 136
136 153 136
136 153 136
153 153 153
153 153 153
153 153 153
153 153 153
153 170 153
153 153 153
153 153 153
153 170 153
153 153 153
153 153 153
153 153 153
153 153 153
153 153 153
153 170 153
170 170 170
153 153 153
136 153 136
119 136 119
119 136 102
119 119 85
102 119 68
102 102 68
85 102 68
102 102 85
102 119 102
102 102 85
85 102 68
85 85 68
85 85 68
85 85 51
85 102 51
85 102 68
85 102 68
85 102 68
85 102 68
85 102 68
85 102 68
85 102 68
85 102 68
102 119 85
102 119 85
119 136 85
119 136 102
136 153 102
136 153 119
136 153 102
119 136 102
119 136 102
136 153 119
136 153 119
153 153 119
136 153 119
136 153 119
136 153 119
136 153 119
136 153 119
136 153 119
136 153 119
119 153 102
119 153 102
119 153 102
136 153 102
136 153 119
136 153 119
136 153 119
136 153 119
136 153 119
119 153 102
119 153 102
119 136 85
102 119 68
85 119 51
102 119 68
136 153 119
170 170 153
187 187 170
187 187 170
136 136 102
102 119 68
119 136 85
119 153 102
136 153 119
136 153 119
136 153 119
136 153 102
119 153 102
119 153 102
119 136 102
119 136 102
102 136 102
119 136 102
102 119 102
102 119 102
102 119 102
102 119 102
102 119 102
102 119 102
102 119 102
102 119 102
102 119 102
102 136 102
119 136 102
119 136 102
119 136 102
119 136 102
119 136 102
119 153 102
136 153 119
136 153 119
136 153 119
136 153 119
136 153 119
136 153 119
136 153 119
136 153 119
136 153 102
136 136 102
136 153 119
136 153 119
153 153 136
153 153 136
136 153 136
136 153 119
136 153 119
136 153 119
153 153 136
153 170 136
136 153 136
136 153 119
136 153 119
136 153 119
136 153 136
153 153 136
136 153 136
136 153 119
136 153 119
136 153 119
136 153 119
136 153 119
136 153 119
136 153 119
136 153 119
153 170 119
153 170 136
153 170 136
170 170 136
170 170 136
170 170 136
170 170 136
170 170 136
170 170 136
170 170 136
170 170 136
170 170 136
153 170 136
170 170 136
153 170 136
153 170 136
221 221 221
221 221 221
221 221 221
221 221 221
221 221 221
221 221 221
221 221 221
221 221 221
221 221 221
221 221 221
221 221 221
221 221 221
221 221 221
221 221 221
221 221 221
221 221 221
221 221 221
221 221 221
221 221 221
221 221 221
221 221 221
221 238 221
221 238 221
221 238 221
221 238 221
221 238 221
221 238 238
221 238 238
221 238 238
221 238 238
221 238 238
238 238 238
238 238 238
238 238 238
238 238 238
238 238 238
238 238 238
238 238 238
238 238 238
238 238 238
238 238 238
238 238 238
238 238 238
238 238 238
238 238 238
238 238 238
221 238 238
170 170 170
85 85 68
68 85 68
85 85 68
68 85 51
51 68 34
51 68 34
68 85 34
68 85 34
68 85 51
68 85 51
51 68 34
68 85 51
68 85 51
51 68 51
51 68 51
51 51 51
51 51 51
51 51 51
68 51 51
85 68 68
85 68 68
85 68 68
68 51 51
68 51 51
68 51 51
85 68 51
102 68 68
119 68 68
102 68 68
85 51 51
68 51 51
85 68 51
102 68 68
119 68 68
102 68 68
85 51 51
51 51 51
51 51 51
51 51 51
68 68 68
85 85 85
85 85 85
85 85 85
68 85 68
51 68 51
51 68 51
51 68 51
51 68 34
34 51 34
34 51 34
34 68 34
34 51 51
51 51 51
34 51 34
34 34 34
17 34 34
17 34 34
34 51 34
34 51 34
51 68 51
51 68 51
68 68 68
68 68 68
119 119 119
153 170 170
170 187 187
170 170 187
170 153 170
153 153 153
153 153 170
170 170 187
170 187 187
153 170 187
170 187 187
187 187 187
204 187 187
204 170 187
187 187 204
153 153 170
119 119 119
68 85 68
68 85 68
68 85 68
51 68 51
51 68 51
51 68 51
51 51 34
51 68 51
51 51 51
34 51 34
34 51 34
34 51 34
34 51 34
68 68 51
119 119 102
170 170 153
187 187 170
187 187 170
187 187 170
187 187 187
204 204 187
204 204 187
187 187 187
170 170 153
153 170 153
153 153 153
153 153 153
153 153 153
136 153 153
136 136 136
136 136 136
136 136 136
136 153 136
136 153 136
153 153 153
153 153 153
153 153 153
153 153 153
153 153 153
153 153 153
153 153 153
153 153 153
153 153 153
153 153 153
153 153 153
153 153 153
153 153 153
170 170 170
187 187 187
153 170 170
136 136 136
119 119 102
119 119 102
102 119 85
102 102 51
85 102 51
85 102 68
102 102 85
102 102 85
102 102 85
85 85 68
85 85 68
85 85 68
85 102 51
85 102 51
85 102 51
85 102 51
68 102 51
68 102 51
85 102 51
85 102 68
85 102 68
102 119 68
102 119 85
102 119 85
102 119 85
119 136 85
119 136 102
119 136 102
119 136 102
119 136 102
119 136 102
119 136 102
119 136 102
119 136 102
119 136 102
119 153 102
136 153 102
136 153 102
136 153 102
136 153 102
119 153 102
119 153 102
119 136 102
119 153 102
119 153 102
136 153 102
119 153 102
119 153 102
119 153 102
119 153 102
119 136 85
119 136 85
102 119 85
102 119 68
85 119 51
102 119 68
136 153 119
170 170 153
170 170 153
170 170 153
119 136 102
102 119 85
119 136 85
119 153 102
119 153 102
119 153 102
136 153 102
136 153 102
136 153 102
119 153 102
119 153 102
119 153 102
119 136 102
102 136 102
102 119 102
102 119 102
102 119 85
102 119 85
102 119 85
102 119 85
102 119 85
102 119 85
102 119 85
102 119 85
119 136 102
119 136 102
119 136 102
119 136 102
119 136 102
119 153 102
119 136 102
119 136 102
119 136 102
136 153 102
136 153 119
136 153 119
136 153 119
136 136 102
136 136 102
136 153 102
136 153 119
136 153 119
153 153 119
153 170 136
136 153 136
136 153 119
136 153 119
136 153 119
153 153 136
153 153 136
153 153 136
153 153 136
153 153 136
153 153 136
153 170 136
153 170 136
153 170 136
153 153 119
136 153 119
136 153 119
136 153 119
136 153 119
136 153 119
136 153 119
153 153 119
153 170 136
153 170 136
153 170 136
170 170 136
170 170 136
170 187 153
170 187 153
170 170 136
170 170 136
170 170 136
170 170 136
170 170 136
170 170 136
170 170 136
170 170 136
153 170 136
221 221 221
221 221 221
221 221 221
221 221 221
221 221 221
221 221 221
221 221 221
221 221 221
221 221 221
221 221 221
221 221 221
221 221 221
221 221 221
221 221 221
221 221 221
221 221 221
221 221 221
221 221 221
221 221 221
221 221 221
221 221 221
221 238 221
221 238 221
221 238 221
221 238 221
221 238 221
221 238 221
221 238 221
221 238 238
221 238 221
221 238 221
238 238 238
238 238 238
221 238 238
238 238 238
238 238 238
238 238 238
238 238 238
238 238 238
238 238 238
238 238 238
238 238 238
238 238 238
238 238 238
238 238 238
238 238 238
238 238 238
204 204 204
119 119 119
68 85 68
85 85 68
68 85 68
51 68 34
51 68 34
68 85 51
68 85 51
68 85 51
51 85 34
51 68 34
68 68 51
68 68 51
68 68 68
51 68 68
51 68 68
68 68 68
68 68 68
68 51 68
68 51 68
68 51 68
68 51 68
68 51 68
51 51 51
68 51 51
85 51 51
102 68 68
102 68 68
85 68 51
68 51 51
68 51 51
68 51 51
85 68 68
102 68 68
102 68 68
85 51 51
51 51 51
34 51 34
34 51 34
51 68 68
68 85 68
85 85 85
85 102 85
68 85 68
51 68 51
51 51 34
51 68 34
34 51 34
34 51 34
34 51 34
34 51 34
51 68 51
51 51 51
34 51 34
34 51 34
34 51 34
34 34 34
34 51 34
34 51 34
51 68 34
51 68 34
51 68 51
68 68 51
119 119 119
153 153 170
170 187 204
170 170 187
170 170 170
170 170 170
170 170 187
170 170 187
170 187 187
153 170 187
170 187 187
170 170 187
187 170 187
187 170 187
187 187 187
153 153 170
119 119 119
68 85 68
68 68 51
51 68 51
51 68 34
51 68 34
51 51 34
34 51 34
51 68 51
51 68 51
51 68 34
51 68 34
51 68 34
51 68 34
85 102 68
136 136 119
187 187 170
204 204 187
204 187 187
187 187 187
204 204 187
204 204 187
204 204 187
170 170 170
153 170 153
153 153 153
153 153 153
153 153 153
136 153 153
136 153 136
136 153 136
136 153 136
136 153 136
136 153 153
153 153 153
153 153 153
153 153 153
153 153 153
153 153 153
153 153 153
153 153 153
153 153 153
153 153 153
153 153 153
153 153 153
153 153 153
136 153 153
153 170 153
187 187 170
187 187 187
170 170 170
136 136 136
136 136 119
119 119 102
102 119 85
85 102 68
85 102 51
85 102 51
85 102 68
102 102 85
102 102 68
85 85 68
85 85 68
85 102 68
85 102 51
68 102 51
68 102 51
68 85 51
68 85 51
68 85 51
68 85 51
68 102 51
85 102 51
85 102 68
102 119 68
102 102 68
85 102 68
102 119 68
102 119 85
119 136 85
102 119 85
102 119 85
102 119 85
102 119 85
102 119 85
102 119 85
102 119 85
102 136 85
119 136 85
119 136 102
119 136 102
119 136 102
119 136 102
119 136 85
119 136 85
119 136 85
119 136 85
119 136 102
119 136 102
119 136 85
119 136 85
102 136 85
102 119 85
102 119 68
102 119 68
85 119 68
85 119 51
102 119 68
136 136 119
153 153 136
153 153 136
153 153 136
119 119 85
102 119 68
119 136 85
119 136 85
119 136 85
119 136 85
119 153 85
119 153 85
119 153 102
119 153 85
119 153 85
119 153 102
119 136 85
102 136 85
102 119 85
102 119 85
102 119 85
102 119 85
102 119 85
85 102 68
85 102 68
85 102 68
85 119 85
102 119 85
102 119 85
102 136 85
119 136 85
119 136 85
119 136 85
119 136 85
119 136 85
119 136 85
119 136 85
119 136 102
119 136 102
119 136 102
136 136 102
119 136 102
119 136 102
119 136 102
136 136 102
136 153 119
136 153 119
136 153 119
136 153 119
136 153 119
136 136 102
136 153 119
136 153 119
153 153 119
153 153 119
153 153 119
153 153 119
153 153 119
153 153 119
153 153 119
153 153 119
153 153 119
153 153 119
136 153 119
153 153 136
153 153 119
153 153 119
136 153 119
153 153 119
153 153 119
153 170 119
153 153 119
153 170 136
170 170 136
170 170 136
170 170 136
153 170 119
170 170 136
170 170 136
170 170 136
153 170 119
153 170 119
153 170 119
153 170 136
153 170 119
221 221 221
221 221 221
221 221 221
221 221 221
221 221 221
221 221 221
221 221 221
221 221 221
221 221 221
221 221 221
221 221 221
221 221 221
221 221 221
221 221 221
221 221 221
221 221 221
221 221 221
221 221 221
221 221 221
221 221 221
221 221 221
221 221 221
221 221 221
221 238 221
221 238 221
221 238 221
221 238 221
221 238 221
221 238 221
221 238 221
221 238 238
221 238 238
221 238 238
221 238 238
238 238 238
238 238 238
238 238 238
238 238 238
238 238 238
238 238 238
238 238 238
238 238 238
238 238 238
238 238 238
238 238 238
238 238 238
238 238 238
221 221 238
170 170 170
85 85 85
85 85 68
68 85 68
51 68 51
51 68 34
68 85 51
68 85 51
68 85 51
51 68 34
51 68 34
68 85 51
68 85 68
68 85 68
68 85 68
68 85 68
68 85 85
68 68 68
51 51 68
51 51 68
51 51 85
51 51 85
51 51 68
34 51 51
34 34 34
51 51 51
68 51 51
68 68 68
68 68 51
51 51 51
34 51 51
51 51 51
68 68 68
68 68 68
68 68 51
68 51 51
51 51 34
34 51 34
34 51 51
51 68 51
68 85 68
85 102 85
85 102 85
68 85 68
51 68 51
51 51 34
51 68 34
34 51 34
34 51 34
34 51 34
51 51 34
51 68 51
51 51 51
34 51 34
34 51 34
17 51 34
17 34 34
34 51 34
34 51 34
51 68 34
51 68 34
51 68 34
51 68 51
102 119 119
153 153 170
170 187 187
170 170 187
170 170 170
170 170 170
170 170 187
170 187 187
170 187 187
153 170 170
170 187 187
170 187 187
204 187 204
204 187 187
187 187 204
153 153 170
119 119 119
68 68 51
68 68 51
51 68 34
51 68 34
51 51 34
51 68 34
34 51 34
51 68 34
51 68 34
51 68 34
51 68 34
51 68 51
51 68 51
102 102 85
136 136 119
170 170 136
170 170 153
187 187 170
187 187 187
204 204 204
204 204 187
187 187 170
170 170 153
153 153 153
153 153 153
153 153 153
136 153 153
136 153 136
136 153 136
136 153 136
136 153 136
136 153 136
136 153 153
153 153 153
153 153 153
153 153 153
153 153 153
153 153 153
153 153 153
153 153 153
153 153 153
153 153 153
153 153 153
153 153 153
136 153 153
136 153 136
187 187 170
187 187 170
187 187 187
153 170 153
136 136 136
136 136 119
119 136 119
119 119 85
85 102 68
85 85 51
85 102 51
85 102 68
102 102 68
85 102 68
85 102 68
85 102 68
85 102 68
85 102 51
68 85 51
68 85 51
68 85 51
68 85 51
68 85 51
68 85 51
68 85 51
68 85 51
85 102 68
85 102 68
85 102 68
68 85 51
85 102 68
85 102 68
102 119 85
102 119 68
85 119 68
85 102 68
102 119 68
102 119 85
102 119 68
102 119 68
102 119 68
102 119 85
102 136 85
119 136 85
102 136 85
119 136 85
102 136 85
102 119 85
102 119 85
102 119 68
102 136 85
102 136 85
102 119 85
102 119 68
85 119 68
85 102 68
85 102 51
85 102 68
85 102 68
85 102 51
102 102 68
119 119 102
136 136 119
153 153 136
136 136 119
102 119 85
102 119 68
102 136 85
102 136 85
102 136 68
102 136 68
102 136 68
102 136 68
102 136 85
102 136 68
102 136 68
102 136 68
102 136 85
102 136 85
102 136 85
102 119 68
102 119 68
85 119 68
85 119 68
85 102 68
85 102 51
85 102 68
85 102 68
85 102 68
85 102 68
85 119 68
102 119 68
102 119 68
102 119 85
102 119 85
102 119 85
102 119 68
102 119 85
102 119 85
102 119 85
102 119 85
119 119 85
119 136 85
119 136 85
119 136 102
119 136 102
136 136 102
136 136 102
136 136 102
119 136 102
119 136 102
119 136 102
119 136 102
136 136 102
136 136 102
136 136 102
136 153 102
136 153 119
136 153 119
136 153 119
136 153 119
136 153 119
136 153 119
153 153 119
153 153 119
153 153 119
136 153 119
136 153 119
136 153 119
153 153 119
153 153 119
136 153 119
136 153 119
136 153 119
153 153 119
153 153 119
153 153 119
153 153 119
153 153 119
153 170 119
153 170 119
153 153 102
136 153 102
153 153 119
153 153 119
153 153 119
221 221 221
221 221 221
221 221 221
221 221 221
221 221 221
221 221 221
221 221 221
221 221 221
221 221 221
221 221 221
221 221 221
221 221 221
221 221 221
221 221 221
221 221 221
221 221 221
221 221 221
221 221 221
221 221 221
221 221 221
221 221 221
221 221 221
221 221 221
221 221 221
221 238 221
221 238 221
221 238 221
221 238 238
221 238 221
221 238 221
221 238 238
221 238 238
221 238 238
221 238 238
221 238 238
238 238 238
238 238 238
238 238 238
238 238 238
238 238 238
238 238 238
238 238 238
238 238 238
238 238 238
238 238 238
238 238 238
238 238 238
238 238 238
204 204 204
119 136 119
68 85 68
68 85 68
51 68 51
51 68 34
51 68 51
51 68 51
51 68 51
51 68 51
51 68 34
68 85 51
68 85 68
68 85 68
68 85 68
85 102 85
85 102 102
68 85 102
51 68 85
34 51 85
17 51 102
34 68 102
34 51 85
17 51 51
17 34 34
17 51 51
34 51 51
34 51 51
34 51 51
17 51 51
17 51 51
17 68 51
17 68 68
34 68 68
51 68 51
51 51 51
34 51 34
34 51 34
34 51 51
51 68 51
68 85 68
85 85 85
102 102 85
85 85 85
68 68 68
51 68 51
34 51 34
34 51 34
51 51 34
51 51 34
51 51 34
51 68 51
51 51 51
34 51 51
34 51 34
34 51 34
17 51 34
34 51 34
34 51 34
51 68 34
51 51 34
51 51 34
51 68 51
102 119 102
136 153 170
170 170 187
170 170 170
170 170 170
170 170 170
170 170 187
170 170 187
170 170 187
153 170 170
170 187 187
187 187 204
204 187 204
204 187 204
204 187 204
170 153 170
119 119 119
68 68 51
68 68 51
51 51 34
51 51 34
51 68 34
51 68 34
51 51 34
51 68 34
51 68 34
51 68 34
51 68 34
51 68 51
51 68 34
85 85 68
119 119 85
136 136 119
153 153 136
170 170 153
187 187 187
204 204 187
204 204 187
170 170 153
153 153 153
153 153 153
136 153 136
136 153 136
136 153 136
136 153 136
136 153 136
136 153 136
136 153 136
136 153 136
136 153 153
153 153 153
153 153 153
153 153 153
153 153 153
153 153 153
153 153 153
153 153 153
153 153 153
153 153 153
153 153 153
136 153 153
136 153 136
153 153 153
187 187 187
187 187 170
187 187 170
153 153 136
136 153 136
136 136 136
136 136 119
119 119 102
102 102 85
85 85 68
85 85 51
85 85 68
85 102 68
85 102 68
85 102 68
85 85 68
68 85 68
68 85 51
68 85 51
68 85 51
68 85 51
68 85 51
68 85 51
68 85 51
68 85 51
68 85 51
85 102 68
85 102 68
85 102 68
68 102 51
68 102 51
85 102 68
85 102 68
68 102 51
68 102 51
68 102 68
85 102 68
85 102 68
85 102 68
85 102 68
85 102 68
85 102 68
85 119 68
85 119 68
85 119 68
102 119 68
85 119 68
85 119 68
85 119 68
85 119 68
85 119 68
102 119 68
102 119 68
85 119 68
85 102 68
68 102 51
68 102 51
85 102 68
85 102 51
85 102 51
85 102 68
102 119 85
119 119 102
136 136 119
119 119 102
102 102 68
85 102 68
102 119 85
102 119 68
85 119 68
85 119 51
85 119 51
85 119 68
85 119 68
102 119 68
102 119 68
85 119 68
102 119 68
102 119 68
102 136 68
102 119 68
102 119 68
85 119 68
102 119 68
85 102 68
85 102 51
85 102 51
85 102 68
85 102 51
68 102 51
85 102 51
85 102 68
85 102 68
85 102 68
102 102 68
102 102 68
85 102 68
85 102 68
85 102 68
102 119 68
102 102 68
102 119 68
102 119 68
102 119 68
119 119 85
119 119 85
119 136 102
119 136 102
119 119 85
119 119 85
102 119 85
102 119 85
102 119 85
119 119 85
119 136 85
119 136 102
119 136 85
119 136 85
119 136 85
119 136 102
119 136 102
119 136 102
136 136 102
136 136 102
136 136 102
136 136 102
136 136 102
119 136 102
119 136 85
136 136 102
136 153 102
136 136 102
119 136 85
136 136 85
136 136 85
119 136 85
119 136 85
136 136 85
136 136 102
136 153 102
136 153 102
136 136 85
136 136 85
136 153 102
136 153 102
136 136 102
221 221 221
221 221 221
221 221 221
221 221 221
221 221 221
221 221 221
221 221 221
221 221 221
221 221 221
221 221 221
221 221 221
221 221 221
221 221 221
221 221 221
221 221 221
221 221 221
221 221 221
221 221 221
221 221 221
221 221 221
221 221 221
221 221 221
221 238 221
221 221 221
221 238 221
221 238 221
221 238 221
221 238 221
221 238 221
221 238 221
221 238 221
221 238 221
221 238 238
221 238 238
221 238 238
238 238 238
238 238 238
238 238 238
238 238 238
238 238 238
238 238 238
238 238 238
238 238 238
238 238 238
238 238 238
238 238 238
238 238 238
238 238 238
221 238 238
170 170 170
85 102 85
68 85 68
51 68 51
51 68 34
51 68 34
51 68 51
51 68 51
51 68 51
51 68 51
68 85 68
85 85 68
85 85 85
102 102 102
119 119 119
119 136 136
102 119 136
68 102 102
34 68 102
17 68 119
17 68 119
17 51 102
17 51 68
17 51 51
17 51 51
17 51 51
17 68 51
17 51 51
0 51 51
0 51 51
0 68 68
0 68 68
0 85 68
17 68 68
34 68 51
34 51 51
34 51 51
51 51 51
68 68 68
68 85 68
85 85 85
85 102 85
85 85 85
85 68 68
51 51 51
51 51 34
51 51 51
68 68 51
68 68 51
68 68 68
68 68 68
68 68 68
51 68 51
51 68 51
51 68 51
34 68 34
34 68 34
34 51 34
34 68 34
34 51 34
34 51 34
51 68 34
102 102 102
136 153 153
153 170 187
170 170 170
170 170 170
170 170 187
170 170 187
170 170 187
170 170 187
153 170 170
170 170 187
187 187 187
187 187 204
204 170 187
187 187 204
153 153 170
136 136 136
68 85 68
68 68 51
51 51 34
51 51 34
51 68 34
51 68 51
51 68 34
51 68 34
51 68 34
51 68 34
51 68 51
51 68 34
68 68 51
68 85 51
102 102 85
136 136 102
153 153 119
153 153 136
187 187 187
187 204 187
187 187 170
153 153 153
153 153 153
136 153 136
136 153 136
136 136 136
136 136 136
136 136 136
136 136 136
136 153 136
136 153 136
136 153 136
136 153 153
153 153 153
153 153 153
153 153 153
153 153 153
153 153 153
153 153 153
153 153 153
153 153 153
153 153 153
136 153 153
136 153 153
136 153 136
170 170 170
204 187 187
187 187 170
170 170 153
153 153 136
153 153 136
136 153 136
136 136 119
119 136 119
102 119 102
102 102 85
85 85 68
85 85 68
85 85 68
85 85 68
85 85 68
85 85 68
68 85 68
68 85 51
68 85 51
68 85 51
68 85 51
68 85 51
68 85 51
68 85 51
85 102 68
85 102 68
85 102 68
85 102 68
85 102 68
85 102 68
85 102 68
85 102 68
68 85 51
68 85 51
68 85 51
68 85 51
68 102 51
85 102 68
85 102 68
68 102 51
68 102 51
68 102 51
68 102 51
85 102 51
85 102 51
85 102 51
85 102 51
68 102 51
85 102 51
85 102 51
85 119 68
85 119 68
85 119 68
85 119 68
85 102 68
85 102 68
85 102 68
85 102 68
85 102 51
85 102 51
68 85 51
102 102 85
102 102 85
119 119 102
102 102 85
85 102 68
85 102 68
102 119 68
85 119 68
85 102 51
85 102 51
85 102 51
85 102 51
85 119 51
85 119 68
85 119 68
85 119 51
85 119 51
102 119 68
102 119 68
102 119 68
85 119 51
85 119 51
102 119 68
102 119 68
85 119 68
85 119 51
85 119 51
85 119 51
85 119 51
85 119 68
102 119 68
85 119 68
85 119 68
102 119 68
85 102 68
85 102 68
102 119 68
102 119 68
102 119 68
102 119 68
102 102 68
102 119 68
102 119 68
119 119 85
119 136 85
119 136 102
119 119 85
119 119 85
102 119 85
102 102 68
102 119 68
102 119 68
119 119 85
119 136 85
119 136 102
119 136 85
119 119 85
119 119 85
119 119 85
119 119 85
119 136 102
136 136 102
136 136 102
119 136 102
119 136 102
119 119 85
119 119 85
119 119 85
119 136 85
119 136 85
119 119 85
119 119 68
119 136 68
102 119 68
102 119 68
102 119 68
102 119 68
119 119 85
119 136 85
119 136 85
119 136 85
119 136 85
119 136 85
119 136 85
119 119 85
221 221 221
221 221 221
221 221 221
221 221 221
221 221 221
221 221 221
221 221 221
221 221 221
221 221 221
221 221 221
221 221 221
221 221 221
221 221 221
221 221 221
221 221 221
221 221 221
221 221 221
221 221 221
221 221 221
221 221 221
221 238 221
221 238 221
221 221 221
221 221 221
221 238 221
221 238 221
221 238 221
221 238 221
221 238 221
221 238 221
221 238 238
221 238 221
221 238 221
221 238 238
221 238 238
238 238 238
221 238 238
221 238 238
238 238 238
238 238 238
238 238 238
238 238 238
238 238 238
238 238 238
238 238 238
238 238 238
238 238 238
238 238 238
238 238 238
204 204 204
119 136 119
68 85 68
51 68 51
51 68 34
51 68 51
51 68 51
51 68 34
51 68 34
51 68 51
68 85 68
85 85 68
85 102 85
119 136 119
153 153 153
170 170 170
136 153 153
102 119 136
51 85 119
17 68 119
17 68 119
17 68 102
34 51 85
34 51 51
34 68 68
34 68 68
17 68 68
17 51 51
0 51 51
0 51 51
0 68 68
0 85 85
0 85 85
0 85 68
34 68 68
34 68 51
51 68 68
68 68 68
68 68 68
85 85 68
85 85 85
85 85 85
85 85 68
85 68 68
68 51 51
68 68 68
68 85 85
85 85 85
85 85 85
102 102 85
85 102 85
85 102 85
85 102 85
68 85 68
68 85 68
68 85 51
51 68 51
51 68 34
51 68 34
34 51 34
34 51 34
34 68 34
85 102 102
136 153 153
153 153 170
153 153 170
153 153 153
153 170 187
153 170 187
153 170 170
153 170 187
153 153 170
170 170 187
170 170 187
187 187 187
187 170 187
187 187 204
153 153 170
136 136 119
68 85 68
51 68 51
51 51 34
51 51 34
51 68 34
51 68 51
51 68 51
51 68 51
51 68 34
51 68 34
68 85 51
68 85 51
68 85 51
68 85 51
102 85 68
119 102 85
119 119 102
153 153 136
187 187 170
187 187 170
170 170 153
153 153 136
136 153 136
136 136 136
136 136 136
136 136 136
136 136 136
136 136 136
136 136 136
136 153 136
136 153 136
136 153 136
136 153 136
153 153 153
153 153 153
153 153 153
153 153 153
153 153 153
153 153 153
153 153 153
153 153 153
136 153 153
136 153 153
136 153 153
136 153 136
187 187 187
204 204 187
187 187 170
153 153 119
153 153 136
153 153 153
153 153 136
136 136 119
119 136 119
119 119 102
102 102 102
85 102 68
85 85 68
68 85 68
68 68 68
68 68 68
68 85 51
68 85 51
68 85 51
68 85 51
68 85 51
68 85 51
68 85 51
85 85 68
85 102 68
102 102 68
102 102 68
102 102 68
85 102 68
85 102 68
85 102 68
102 119 85
85 119 68
85 102 68
85 102 68
85 102 68
68 102 51
85 102 68
68 102 68
85 102 51
68 102 51
68 102 51
68 102 51
68 102 51
68 102 51
68 102 51
68 102 51
85 102 51
85 102 51
68 102 51
68 102 51
85 102 51
85 102 51
85 119 68
85 119 68
85 102 51
85 102 51
85 102 68
85 119 68
85 119 68
85 102 51
68 85 51
85 85 85
102 102 85
102 102 85
85 85 85
85 85 68
85 102 68
85 102 68
85 102 51
68 102 51
68 102 51
68 102 51
68 102 51
85 102 51
85 119 51
85 119 68
85 119 51
85 119 51
102 119 68
102 119 68
102 119 68
102 119 68
85 119 68
102 119 68
102 119 68
85 119 68
85 119 51
85 102 51
85 119 51
85 119 51
85 119 68
102 119 68
102 119 68
102 119 51
102 119 68
85 119 68
85 102 68
102 119 68
102 119 68
102 119 68
102 119 68
102 119 68
102 119 68
102 119 68
119 136 85
136 136 102
136 136 102
119 119 85
119 119 85
102 119 85
102 119 85
102 119 85
119 119 85
136 136 102
136 136 102
136 136 102
119 136 85
119 119 85
119 119 85
119 119 85
119 136 102
136 136 102
136 136 119
136 136 102
136 136 102
119 119 85
119 119 85
102 119 68
102 119 68
102 119 68
102 119 85
102 119 68
102 119 68
102 119 68
102 119 68
102 119 68
102 119 68
102 119 68
102 119 68
102 119 85
102 119 68
102 119 85
119 119 85
119 136 85
119 119 85
119 119 85
221 221 221
221 221 221
221 221 221
221 221 221
221 221 221
221 221 221
221 221 221
221 221 221
221 221 221
221 221 221
221 221 221
221 221 221
221 221 221
221 221 221
221 221 221
221 221 221
221 221 221
221 221 221
221 221 221
221 221 221
221 221 221
221 221 221
221 238 221
221 221 221
221 238 221
221 238 221
221 238 221
221 238 221
221 238 221
221 238 221
221 238 221
221 238 221
221 238 238
221 238 221
221 238 238
221 238 238
221 238 238
221 238 221
238 238 238
238 238 238
238 238 238
238 238 238
238 238 238
238 238 238
238 238 238
238 238 238
238 238 238
238 238 238
238 238 238
238 238 238
170 187 187
85 102 85
51 68 51
34 51 34
34 51 51
34 51 51
34 51 34
51 51 34
51 68 51
68 85 68
85 85 85
85 102 102
136 136 136
153 170 170
187 187 187
153 170 170
102 119 136
51 85 119
17 68 119
17 68 119
17 68 102
34 68 85
51 68 68
51 68 68
51 68 68
17 68 51
17 68 51
0 51 51
0 51 51
0 68 68
0 85 68
0 85 85
0 85 85
34 85 68
51 85 68
68 85 85
85 85 85
85 85 85
85 85 85
85 85 85
85 85 85
85 85 68
85 68 68
85 68 68
102 102 102
119 119 119
119 119 119
102 102 102
102 119 102
102 119 102
102 119 102
102 102 102
102 102 85
85 102 85
85 102 85
85 85 68
68 85 68
68 68 51
51 68 51
51 68 51
51 68 51
85 102 102
136 136 153
136 153 170
136 153 153
136 153 153
153 170 187
153 170 187
153 153 170
153 170 170
153 153 170
170 170 187
170 187 187
187 187 204
187 187 204
187 187 204
170 170 170
136 136 136
85 85 68
68 68 68
68 68 68
68 85 68
68 85 68
68 85 68
68 85 68
68 85 51
68 85 51
68 85 51
51 68 51
68 85 51
68 85 51
85 85 68
102 102 68
102 102 85
119 119 102
153 153 136
170 170 170
187 187 170
153 153 153
136 153 136
136 136 136
136 136 136
136 136 136
136 136 136
136 136 136
136 136 136
136 153 136
136 153 136
136 153 136
136 153 136
136 153 153
153 153 153
153 153 153
153 153 153
153 153 153
153 153 153
153 153 153
153 153 153
136 153 153
136 153 153
136 153 136
136 153 136
153 153 153
204 204 187
187 187 187
187 187 170
153 153 119
153 153 136
170 170 153
153 153 136
136 136 119
119 119 102
119 119 102
102 102 85
102 102 68
85 85 68
68 85 68
68 68 51
51 68 51
51 68 51
51 85 51
68 85 51
68 85 51
68 85 51
68 85 51
68 85 51
85 102 68
102 102 68
102 119 85
102 119 85
102 102 68
85 102 68
85 102 68
102 119 85
102 119 85
85 119 68
85 119 68
85 102 68
85 102 68
85 102 68
85 102 68
85 102 68
85 102 68
85 102 68
85 119 68
85 102 68
85 102 51
68 102 51
68 102 51
68 102 51
85 102 51
85 119 68
85 102 51
68 102 51
68 102 51
85 102 51
85 102 51
85 102 51
68 102 51
68 102 51
85 102 51
85 119 68
102 119 68
85 102 68
68 85 51
85 85 68
85 85 85
85 85 68
85 85 68
68 85 68
85 85 68
68 85 68
68 85 51
68 85 51
68 85 51
68 102 51
68 102 51
68 102 51
85 102 51
85 119 68
85 119 68
85 119 68
102 119 68
102 119 68
102 119 68
102 119 68
102 119 68
102 119 68
102 119 68
85 119 68
85 102 51
68 102 51
85 102 51
85 119 51
85 119 51
85 102 51
85 119 51
85 119 51
85 119 51
85 102 51
85 102 51
85 102 51
85 119 68
102 119 68
102 119 68
119 119 85
102 119 68
102 119 68
119 119 68
119 136 85
119 136 85
119 119 85
119 136 85
102 119 85
102 119 85
119 136 85
119 136 102
136 136 102
136 153 119
136 136 102
119 136 85
119 136 85
119 136 85
119 136 85
136 136 102
136 136 102
153 153 119
136 153 119
136 136 102
119 136 85
119 119 85
102 119 68
102 119 68
102 119 68
102 119 68
85 119 68
85 102 68
85 102 51
85 102 51
85 119 68
102 119 68
102 119 68
102 119 68
102 119 85
102 119 85
119 119 85
119 119 85
119 136 102
119 119 85
119 119 85
221 221 221
221 221 221
221 221 221
221 221 221
221 221 221
221 221 221
221 221 221
221 221 221
221 221 221
221 221 221
221 221 221
221 221 221
221 221 221
221 221 221
221 221 221
221 221 221
221 221 221
221 221 221
221 221 221
221 221 221
221 221 221
221 221 221
221 221 221
221 221 221
221 238 221
221 238 221
221 238 221
221 238 221
221 238 221
221 238 221
221 238 221
221 238 221
221 238 221
221 238 221
221 238 221
221 238 238
221 238 238
221 238 238
238 238 238
238 238 238
238 238 238
238 238 238
238 238 238
238 238 238
238 238 238
238 238 238
238 238 238
238 238 238
238 238 238
238 238 238
204 221 204
136 136 119
68 68 51
34 51 34
34 51 34
34 51 34
34 51 34
34 51 34
51 68 51
68 85 68
102 102 102
102 119 102
136 136 136
153 170 170
170 170 170
153 153 153
119 119 119
68 102 119
51 85 119
51 85 119
51 85 119
51 85 102
68 85 102
68 85 85
51 85 85
34 68 68
34 68 68
17 68 51
17 68 68
17 68 68
0 85 68
0 85 85
17 85 85
51 85 85
68 85 85
85 102 85
102 102 102
85 102 85
85 85 85
85 85 85
85 85 85
85 85 68
85 68 68
102 102 102
136 136 136
153 153 153
136 136 136
119 119 102
119 119 102
119 119 119
119 119 119
119 119 119
119 119 102
119 119 102
102 119 102
102 102 102
102 102 85
85 102 85
85 102 85
85 85 85
85 85 85
102 119 102
136 153 153
136 153 170
136 153 170
136 153 153
153 170 187
153 170 187
153 170 170
153 153 170
136 153 170
153 170 170
170 187 187
204 187 204
204 187 204
204 187 204
170 170 187
136 136 136
102 102 85
85 102 85
102 102 102
102 119 102
119 119 102
102 102 102
102 102 102
85 102 85
85 102 68
68 85 68
68 85 51
68 68 51
68 85 51
85 85 68
102 102 85
119 119 102
153 153 136
170 170 170
187 187 170
170 170 170
153 153 153
136 136 136
136 136 136
136 136 136
136 136 136
136 136 136
136 136 136
136 136 136
136 153 136
136 153 136
136 153 153
136 153 153
153 153 153
153 153 153
153 153 153
153 153 153
153 153 153
153 153 153
153 153 153
153 153 153
136 153 153
153 153 153
136 153 153
136 153 136
153 153 153
204 204 187
187 187 187
187 170 170
153 153 119
153 153 136
170 170 153
153 153 153
136 153 136
119 136 119
102 119 102
102 102 85
102 102 68
85 102 68
85 85 68
68 68 51
51 68 51
51 68 51
51 68 51
51 68 51
68 85 51
68 85 51
68 85 51
85 102 68
85 102 68
102 102 68
102 119 85
102 119 85
102 102 68
85 102 68
102 119 68
102 119 85
102 119 85
102 119 68
85 119 68
85 102 68
85 119 68
85 102 68
85 119 68
85 102 68
85 119 68
85 119 68
85 119 68
85 119 68
85 119 68
85 119 68
85 102 51
85 102 51
85 102 51
85 119 68
85 119 68
85 102 68
68 102 51
68 102 51
68 102 51
68 102 51
68 102 51
68 102 51
68 102 51
85 102 51
102 119 68
85 102 68
68 85 51
68 85 68
85 85 68
85 85 68
85 85 68
68 85 51
68 85 68
68 85 51
68 85 51
68 85 51
68 102 51
68 102 51
68 102 51
68 102 51
85 102 51
85 119 51
85 119 51
85 119 68
85 119 51
85 119 51
85 119 51
102 119 68
119 119 85
119 119 85
102 119 85
102 119 68
85 102 51
68 85 51
85 102 51
85 102 51
85 102 51
85 102 51
85 102 51
102 119 68
85 102 51
85 102 51
85 102 51
85 102 68
85 102 68
85 102 68
85 102 68
102 119 68
119 119 85
102 119 68
102 119 68
102 119 68
119 119 68
102 119 68
102 119 68
102 119 68
102 119 68
119 136 85
136 136 102
136 136 102
136 136 85
119 136 85
119 119 85
119 136 85
119 136 85
119 119 85
119 136 85
136 136 102
136 136 102
136 136 102
119 136 102
119 136 85
119 119 85
102 119 68
85 102 68
85 102 68
85 102 68
85 102 68
85 102 51
85 102 51
85 102 68
85 102 68
102 119 68
102 119 68
102 119 68
102 119 85
119 119 85
119 136 102
119 136 102
136 136 102
119 136 102
119 119 102
221 221 221
221 221 221
221 221 221
221 221 221
221 221 221
221 221 221
221 221 221
221 221 221
221 221 221
221 221 221
221 221 221
221 221 221
221 221 221
221 221 221
221 221 221
221 221 221
221 221 221
221 221 221
221 221 221
221 221 221
221 221 221
221 221 221
221 221 221
221 221 221
221 221 221
221 221 221
221 221 221
221 238 221
221 238 221
221 238 221
221 238 221
221 238 221
221 238 221
221 238 221
221 238 221
221 238 221
221 238 238
221 238 238
221 238 238
221 238 238
238 238 238
238 238 238
238 238 238
238 238 238
238 238 238
238 238 238
238 238 238
238 238 238
238 238 238
238 238 238
238 238 238
170 187 170
85 102 85
34 51 34
34 34 34
34 34 34
34 51 34
34 51 34
51 68 34
85 85 85
102 119 102
119 136 119
119 136 136
136 153 153
136 153 153
136 153 136
119 119 136
102 119 119
85 102 119
85 102 119
85 102 119
85 102 119
85 102 119
85 102 102
68 85 102
68 85 85
51 85 85
51 85 85
51 85 85
51 85 85
34 85 85
34 85 85
34 85 85
68 85 85
85 102 102
102 119 102
102 119 102
102 102 102
102 102 85
85 85 85
85 85 85
85 85 85
85 85 68
119 102 102
153 153 153
170 170 170
153 153 136
119 119 119
119 119 102
119 119 119
119 119 119
119 119 119
119 119 119
119 119 119
119 119 119
119 119 119
119 119 102
119 119 119
119 119 119
119 119 119
119 119 102
119 119 119
153 153 153
153 153 170
136 153 170
136 153 153
153 153 170
153 153 170
153 153 170
136 153 153
136 153 153
153 170 170
170 170 187
187 187 187
204 187 204
204 187 204
170 170 187
153 153 153
119 119 119
119 119 119
136 136 119
136 136 119
136 136 119
119 119 119
119 119 119
119 119 119
119 119 102
102 102 85
85 85 68
85 85 51
85 85 68
102 102 85
119 119 102
153 153 136
170 170 153
187 187 187
187 187 170
153 170 153
153 153 153
136 136 136
136 136 136
136 136 136
136 136 136
136 136 136
136 136 136
136 136 136
136 153 136
136 153 136
136 153 136
136 153 153
136 153 153
153 153 153
153 153 153
153 153 153
153 153 153
153 170 153
153 153 153
153 153 153
153 153 153
153 153 153
136 153 153
136 153 136
153 153 153
204 204 187
187 187 170
187 170 153
153 153 119
153 153 136
153 153 136
170 170 153
153 153 153
136 136 136
119 119 102
102 102 85
102 102 85
102 102 68
85 85 68
68 68 51
51 68 51
51 68 51
51 68 51
51 68 51
68 85 51
68 85 51
68 85 51
85 102 51
85 102 68
102 102 68
102 102 68
85 102 68
85 102 68
85 102 68
102 119 68
102 119 85
102 119 68
85 119 68
85 119 68
85 102 68
102 119 68
85 119 68
85 119 68
85 102 68
85 119 68
85 119 68
102 119 68
102 119 68
102 119 68
85 119 68
85 102 68
85 102 51
85 102 51
102 119 68
102 119 68
102 119 68
85 119 68
85 119 68
85 102 68
85 102 68
68 102 51
68 102 51
68 102 51
85 102 51
85 119 68
85 102 51
68 85 51
68 68 51
68 68 68
68 68 68
68 85 68
68 85 51
68 85 68
68 85 68
68 85 51
68 102 51
68 102 51
68 102 51
68 102 51
68 102 51
68 102 51
85 102 51
85 102 51
85 119 51
85 119 51
85 102 51
85 102 51
85 119 51
102 119 68
119 119 85
119 136 85
119 119 85
102 119 68
85 102 51
85 102 68
85 102 51
85 102 68
85 102 51
85 102 68
102 119 85
85 102 68
85 102 51
85 102 51
102 119 68
102 119 85
85 102 68
85 102 51
102 119 68
102 119 68
102 119 68
102 119 68
102 119 68
102 119 68
102 119 68
102 119 68
85 102 51
85 102 68
102 119 68
119 119 85
119 119 85
102 119 68
102 119 68
102 119 68
102 119 68
102 119 68
102 119 68
102 119 68
119 119 68
119 136 85
119 136 85
119 119 85
119 119 85
102 119 68
102 119 68
85 102 68
85 102 68
85 102 51
85 102 51
85 102 68
85 102 68
85 102 68
85 102 68
102 102 68
102 119 85
102 119 85
119 119 85
119 119 85
136 136 102
136 136 102
136 136 102
119 136 102
119 119 102
221 221 221
221 221 221
221 221 221
221 221 221
221 221 221
221 221 221
221 221 221
221 221 221
221 221 221
221 221 221
221 221 221
221 221 221
221 221 221
221 221 221
221 221 221
221 221 221
221 221 221
221 221 221
221 221 221
221 221 221
221 221 221
221 221 221
221 221 221
221 221 221
221 221 221
221 221 221
221 238 221
221 238 221
221 238 221
221 238 221
221 238 221
221 238 221
221 238 221
221 238 221
221 238 221
221 238 221
221 238 238
221 238 238
221 238 238
221 238 238
221 238 238
238 238 238
238 238 238
238 238 238
238 238 238
238 238 238
238 238 238
238 238 238
238 238 238
238 238 238
238 238 238
204 221 221
136 136 136
34 51 34
34 51 34
34 34 34
34 51 34
34 51 34
51 68 51
85 85 85
102 119 102
119 136 136
119 136 119
119 136 136
119 136 136
119 136 136
119 136 136
119 136 136
119 136 136
119 136 136
119 136 136
119 136 136
102 119 136
102 119 136
102 119 119
85 102 102
85 102 102
85 102 102
85 102 102
68 102 102
68 102 102
68 102 102
68 102 102
85 102 102
102 119 119
119 119 119
119 119 119
102 119 119
102 102 102
85 85 85
85 85 85
85 85 85
85 85 85
119 119 102
136 136 136
153 153 153
136 136 136
119 119 119
119 119 119
119 119 119
119 119 119
119 119 119
119 119 119
119 119 102
119 119 102
119 119 119
119 119 119
119 119 102
119 119 102
119 119 119
119 119 119
119 136 119
153 153 153
153 170 170
153 170 170
136 153 170
153 170 187
153 170 170
136 153 170
136 153 153
136 153 153
153 170 170
170 170 187
187 170 187
187 170 187
187 187 204
187 170 187
153 153 153
136 136 119
136 136 119
136 136 119
136 136 119
136 136 119
136 119 119
136 119 119
136 136 119
136 136 119
119 119 102
85 102 68
85 85 68
102 102 85
119 119 102
153 153 136
170 170 153
187 187 170
187 187 170
170 170 153
153 153 153
153 153 153
136 136 136
136 136 136
136 136 136
136 136 136
136 136 136
136 136 136
136 136 136
136 153 136
136 153 136
136 153 136
153 153 153
153 153 153
153 153 153
153 153 153
153 153 153
153 153 153
153 153 153
153 170 170
153 153 153
170 170 170
170 170 170
136 153 153
136 153 136
153 153 136
204 204 187
187 187 187
187 170 170
153 153 136
153 153 136
153 153 136
153 170 153
170 170 153
153 153 153
136 136 136
119 119 102
102 102 85
85 102 68
85 85 68
68 68 51
51 68 51
51 68 51
51 68 51
51 68 51
51 68 51
68 85 51
68 85 51
68 85 51
85 85 51
85 85 51
68 85 51
68 85 51
68 85 51
68 85 51
85 102 68
102 119 68
102 102 68
85 102 68
85 102 68
85 102 68
85 119 68
85 102 68
85 119 68
85 102 51
85 102 68
85 102 68
85 119 68
85 119 68
85 119 68
85 102 68
85 102 51
85 102 51
85 119 68
102 119 68
102 119 68
102 119 68
85 119 68
85 119 68
85 119 68
85 119 68
85 119 68
68 102 51
68 102 51
85 102 51
85 119 68
85 102 51
68 85 51
68 68 51
68 68 51
68 68 51
68 85 68
68 85 68
85 102 68
85 102 68
68 102 51
68 102 51
68 102 51
68 102 51
68 102 51
68 102 51
68 102 51
85 102 51
85 102 51
85 102 51
85 119 51
85 102 51
85 102 51
85 102 51
85 102 51
102 119 68
102 119 85
119 119 85
102 119 68
85 119 68
102 119 68
85 119 68
102 119 68
102 102 68
102 119 85
102 119 85
85 102 68
68 85 51
85 102 51
102 102 68
102 119 85
102 119 68
85 102 68
102 119 68
102 119 68
102 119 68
102 119 68
102 119 68
102 119 68
102 119 68
85 102 68
85 102 51
85 102 51
85 102 51
85 102 68
102 119 68
85 119 68
85 102 51
85 102 68
102 119 68
102 119 68
102 119 68
102 119 68
102 119 68
102 119 68
102 119 68
102 119 68
102 119 68
102 119 68
102 119 68
102 119 68
85 102 68
85 102 51
68 102 51
85 102 68
102 102 68
102 102 68
102 102 68
102 119 85
119 119 85
119 119 85
119 119 85
119 119 85
119 136 102
119 136 102
119 136 85
119 136 85
119 119 85
221 221 221
221 221 221
221 221 221
221 221 221
221 221 221
221 221 221
221 221 221
221 221 221
221 221 221
221 221 221
221 221 221
221 221 221
221 221 221
221 221 221
221 221 221
221 221 221
221 221 221
221 221 221
221 221 221
221 221 221
221 221 221
221 221 221
221 221 221
221 221 221
221 221 221
221 221 221
221 221 221
221 221 221
221 238 221
221 238 221
221 238 221
221 238 221
221 238 221
221 238 221
221 238 221
221 238 221
221 238 238
221 238 238
221 238 221
221 238 238
221 238 238
238 238 238
238 238 238
238 238 238
238 238 238
238 238 238
238 238 238
238 238 238
238 238 238
238 238 238
238 238 238
238 238 238
170 187 170
68 85 51
34 51 34
34 51 34
34 51 34
34 51 34
51 68 51
85 102 85
119 119 119
119 136 136
119 136 136
136 136 136
136 136 136
136 153 136
136 153 153
136 153 153
136 153 153
153 153 153
153 153 153
153 153 153
136 136 136
136 136 136
119 136 136
119 119 119
119 119 119
102 119 119
102 119 119
102 119 119
102 119 119
102 119 119
102 119 119
102 119 119
119 119 119
119 119 119
119 136 119
119 119 119
102 102 102
85 102 85
85 85 68
85 102 85
102 102 102
119 119 119
136 136 136
136 136 136
136 136 136
119 136 136
119 136 136
119 136 136
119 136 119
119 119 119
119 119 119
119 119 119
119 119 119
119 119 119
119 119 119
119 119 119
119 119 119
119 119 119
119 136 119
119 136 119
153 153 153
153 170 170
153 170 187
153 153 170
153 170 187
153 170 187
153 170 170
136 153 153
136 153 170
153 170 170
170 187 187
187 187 204
187 187 204
204 187 204
187 187 204
170 170 170
136 136 119
136 136 119
136 136 119
136 136 119
136 136 119
136 136 119
136 119 119
136 136 119
119 119 102
119 119 102
102 102 85
102 102 68
119 119 102
153 136 119
170 170 153
170 170 170
187 187 170
170 170 153
153 153 153
153 153 153
136 153 136
136 136 136
136 136 136
136 136 136
136 136 136
136 136 136
136 136 136
136 136 136
136 153 136
136 153 136
136 153 136
153 153 153
153 153 153
153 153 153
153 153 153
153 153 153
153 153 153
153 153 153
153 170 170
170 187 170
170 187 170
153 153 153
136 153 153
136 153 136
136 153 136
187 187 187
187 187 187
187 187 170
153 153 136
153 153 136
153 153 136
153 170 153
170 170 170
153 170 153
153 153 153
119 136 119
102 119 102
102 102 68
85 85 68
68 68 51
51 68 51
51 68 51
51 68 51
51 68 51
51 68 51
68 85 51
68 85 51
68 85 51
68 85 51
68 85 51
51 68 51
51 68 51
51 85 51
68 85 51
85 102 68
85 102 68
85 102 68
102 119 85
102 119 85
85 119 68
85 102 51
85 102 51
85 102 51
85 102 51
68 102 51
85 102 51
85 102 51
85 102 68
85 102 68
85 102 68
85 102 51
68 102 51
85 119 68
85 119 68
85 119 68
85 119 68
85 119 68
85 119 51
85 119 51
85 119 68
85 119 68
85 119 68
85 102 51
85 119 68
85 119 68
85 102 51
68 85 51
68 68 51
51 68 51
51 68 51
68 85 51
85 102 68
102 119 68
85 119 68
85 102 51
68 102 51
68 102 51
68 102 51
68 102 51
68 102 51
68 102 51
68 102 51
85 102 51
85 102 51
85 119 51
85 102 51
85 102 51
85 102 51
85 102 51
85 119 51
102 119 68
102 119 68
102 119 68
102 119 68
102 119 68
102 119 68
102 119 85
119 119 85
119 119 85
119 119 85
102 102 68
68 85 51
85 102 51
102 102 68
102 119 68
85 119 68
102 119 68
102 119 68
102 119 68
102 119 68
102 119 68
102 119 68
102 119 68
102 119 68
85 102 68
85 102 51
85 102 51
68 102 51
68 102 51
85 102 51
85 102 51
85 102 51
85 102 51
85 102 51
85 119 68
85 102 68
85 102 51
85 102 51
85 102 68
85 102 68
85 102 51
85 102 68
102 119 68
102 119 68
102 119 68
102 119 68
85 102 68
85 102 68
102 102 68
102 119 85
102 119 85
102 119 85
102 119 85
119 119 85
119 119 85
119 136 85
119 136 102
119 136 102
119 136 85
119 136 85
119 136 85
119 136 85
221 221 221
221 221 221
221 221 221
221 221 221
221 221 221
221 221 221
221 221 221
221 221 221
221 221 221
221 221 221
221 221 221
221 221 221
221 221 221
221 221 221
221 221 221
221 221 221
221 221 221
221 221 221
221 221 221
221 221 221
221 221 221
221 221 221
221 221 221
221 221 221
221 221 221
221 221 221
221 221 221
221 238 221
221 221 221
221 238 221
221 238 221
221 238 221
221 238 221
221 238 221
221 238 221
221 238 221
221 238 238
221 238 238
221 238 238
221 238 221
221 238 238
221 238 238
221 238 238
221 238 238
238 238 238
238 238 238
238 238 238
238 238 238
238 238 238
238 238 238
238 238 238
238 238 238
204 221 204
119 136 119
34 51 34
34 51 34
34 51 34
34 51 34
68 85 68
102 119 119
136 136 136
153 153 153
153 170 153
153 170 170
170 170 170
170 170 170
170 170 170
170 170 170
170 187 170
187 187 170
187 187 170
170 170 170
153 170 153
153 153 153
153 153 136
136 136 136
136 136 136
136 136 119
119 136 119
119 136 119
119 136 119
119 136 119
119 136 119
119 136 136
136 136 136
136 136 136
119 136 136
119 136 136
119 119 119
102 102 85
85 85 68
85 85 85
102 119 102
119 136 119
136 136 136
136 136 136
136 136 136
136 136 136
119 136 136
119 136 136
119 136 136
119 136 136
119 136 136
119 136 136
119 136 136
119 136 136
119 136 136
119 136 136
119 136 136
119 136 136
136 136 136
136 136 136
153 153 153
153 153 170
153 153 170
136 153 170
153 170 170
153 170 170
153 153 170
136 136 153
136 153 153
153 170 170
170 170 187
187 187 204
187 187 204
204 204 204
187 187 204
170 170 170
136 153 136
136 136 119
153 153 136
153 153 136
153 153 136
153 136 136
136 136 119
136 136 119
119 119 102
119 119 102
102 102 85
119 119 102
136 136 136
170 170 153
187 187 170
187 187 170
170 170 153
153 170 153
153 153 153
153 153 153
136 136 136
136 136 136
136 136 136
136 136 136
136 136 136
136 153 136
136 153 153
136 153 136
136 153 136
136 153 153
153 153 153
153 153 153
153 153 153
153 153 153
153 153 153
153 153 153
153 153 153
153 153 153
170 170 170
187 204 204
170 170 170
153 153 153
153 153 153
136 153 136
136 136 136
187 187 170
187 187 187
187 187 170
153 153 136
153 153 136
170 170 153
153 170 153
153 153 136
170 170 153
153 153 153
136 153 136
119 119 102
102 102 85
85 85 68
68 68 68
68 68 51
51 68 51
51 68 51
51 68 51
51 68 51
51 68 51
68 85 51
68 85 51
68 85 51
51 68 51
51 68 34
51 68 51
68 85 51
68 102 68
85 102 68
85 102 68
85 102 68
102 119 85
102 119 85
85 119 68
68 102 51
68 102 51
68 102 51
68 102 51
68 85 51
68 85 51
68 85 51
68 102 51
68 102 51
85 102 51
68 102 51
68 102 51
85 102 51
85 119 68
85 102 51
85 102 51
85 102 68
85 102 51
85 102 51
85 102 51
85 119 51
85 119 68
85 102 51
85 102 68
85 119 51
85 102 51
68 85 51
51 68 51
51 51 51
51 68 51
68 85 51
85 102 68
102 119 68
85 119 68
85 102 51
68 102 51
68 102 51
68 102 51
68 102 51
68 102 51
68 102 51
68 102 51
68 102 51
85 102 51
85 102 51
85 102 51
85 102 51
85 102 51
85 102 51
85 102 51
85 102 51
102 119 51
102 119 68
102 119 68
102 119 68
102 119 68
102 119 68
119 119 85
119 136 102
119 136 102
102 119 68
85 102 51
85 102 68
85 102 68
85 102 68
85 102 68
85 102 68
102 119 68
102 119 68
102 119 68
102 119 68
102 102 68
102 119 68
102 119 68
85 119 68
85 102 68
68 102 51
68 85 51
68 85 51
68 102 51
85 102 51
85 102 51
85 102 51
85 102 51
85 102 68
85 102 68
85 102 68
85 102 51
85 102 51
85 102 51
85 102 51
85 102 68
85 102 68
102 119 68
102 119 68
102 119 68
102 119 68
102 102 68
102 119 68
102 119 85
119 119 85
119 119 85
119 119 85
119 136 85
119 119 85
119 136 85
119 136 102
119 136 102
119 136 85
119 136 85
119 136 85
119 136 85
221 221 221
221 221 221
221 221 221
221 221 221
221 221 221
221 221 221
221 221 221
221 221 221
221 221 221
221 221 221
221 221 221
221 221 221
221 221 221
221 221 221
221 221 221
221 221 221
221 221 221
221 221 221
221 221 221
221 221 221
221 221 221
221 221 221
221 221 221
221 221 221
221 221 221
221 221 221
221 221 221
221 221 221
221 221 221
221 238 221
221 238 221
221 221 221
221 238 221
221 238 221
221 238 221
221 238 221
221 238 221
221 238 221
221 238 238
221 238 238
221 238 238
221 238 238
221 238 238
221 238 221
238 238 238
238 238 238
238 238 238
238 238 238
238 238 238
238 238 238
238 238 238
238 238 238
238 238 238
187 187 187
68 85 68
34 51 34
34 51 34
51 68 51
85 102 85
136 136 136
153 170 153
187 187 170
187 187 170
187 187 187
187 204 187
204 204 187
204 204 187
204 204 187
204 204 187
204 204 204
204 204 187
187 187 170
170 170 153
170 170 153
170 170 153
153 153 136
153 153 136
153 153 136
153 153 136
153 153 136
153 153 136
153 153 136
153 153 136
153 153 136
153 153 153
153 153 153
153 153 153
153 153 136
136 136 119
102 102 102
85 85 68
85 85 85
119 119 119
136 136 136
153 153 153
153 153 153
153 153 153
153 153 153
153 153 153
136 153 153
136 153 136
136 153 136
136 153 136
136 153 153
136 153 153
136 153 153
136 153 153
136 153 153
136 153 153
136 153 153
153 153 153
136 153 153
153 153 153
136 153 170
136 153 170
136 136 153
153 170 170
153 170 170
136 153 153
119 136 136
136 153 153
153 153 170
170 170 187
170 187 187
187 187 204
187 187 204
187 187 204
170 170 170
170 170 153
170 170 153
170 170 153
170 170 153
170 153 136
153 153 136
136 136 119
119 119 102
119 119 85
119 119 102
136 136 119
153 153 136
170 170 153
187 187 170
187 187 170
170 170 170
153 170 153
153 170 153
153 153 153
153 153 153
136 136 136
136 136 136
136 136 136
136 136 136
136 153 136
153 153 153
153 170 170
153 153 153
153 153 153
153 153 153
153 153 153
153 153 153
153 153 153
153 153 153
153 153 153
153 153 153
153 153 153
153 170 170
187 187 187
187 204 204
153 170 153
170 170 170
170 170 170
153 153 153
136 153 136
170 170 153
187 187 170
170 170 153
153 153 136
153 153 136
170 170 170
153 153 136
136 153 119
170 170 153
170 170 153
153 153 153
136 136 119
119 119 102
102 102 85
85 85 68
68 68 68
51 68 51
51 68 51
51 68 34
51 68 34
51 68 51
51 68 51
68 85 51
51 68 51
51 68 34
51 68 51
68 85 51
68 85 51
85 102 68
85 102 68
85 102 68
85 102 68
85 102 68
85 119 68
85 102 68
68 85 51
68 85 51
68 102 51
68 85 51
68 85 51
68 85 51
68 85 51
68 102 51
68 102 51
68 102 51
68 85 51
68 85 51
68 102 51
85 102 51
85 102 51
68 102 51
85 102 51
68 102 51
68 102 51
85 102 51
85 102 51
85 102 68
85 102 68
85 102 51
85 102 51
68 85 51
68 68 51
51 51 51
51 51 51
51 51 51
68 85 51
85 102 68
102 119 85
102 119 68
85 102 51
68 102 51
68 102 51
68 102 51
68 102 51
68 102 51
68 102 51
68 102 51
68 102 51
85 102 51
85 102 51
68 102 34
85 102 51
85 102 51
85 102 51
85 102 51
85 102 51
85 102 51
85 102 51
102 119 68
102 119 68
102 119 68
85 102 68
119 119 85
119 136 85
119 136 85
119 119 85
102 119 68
102 119 68
102 119 68
102 119 68
85 119 68
85 119 68
102 119 68
85 119 68
85 119 68
85 102 68
85 102 68
85 102 51
85 102 68
85 102 51
85 102 51
68 85 51
68 85 51
68 85 51
68 102 51
68 85 51
85 102 51
85 102 51
85 102 68
85 102 68
85 102 68
85 102 51
85 102 51
85 102 51
68 102 51
85 102 51
85 102 68
102 119 68
85 102 68
102 119 68
102 119 68
102 119 68
102 119 68
102 119 68
119 119 85
119 136 85
119 136 85
119 119 85
119 136 85
119 136 85
119 136 85
119 136 85
119 136 85
119 119 85
119 119 85
119 119 85
119 119 85
221 221 221
221 221 221
221 221 221
221 221 221
221 221 221
221 221 221
221 221 221
221 221 221
221 221 221
221 221 221
221 221 221
221 221 221
221 221 221
221 221 221
221 221 221
221 221 221
221 221 221
221 221 221
221 221 221
221 221 221
221 221 221
221 221 221
221 221 221
221 221 221
221 221 221
221 221 221
221 221 221
221 221 221
221 238 221
221 238 221
221 221 221
221 238 221
221 238 221
221 238 221
221 238 221
221 238 221
221 238 221
221 238 221
221 238 238
221 238 238
221 238 238
238 238 238
221 238 238
238 238 238
238 238 238
221 238 221
238 238 238
238 238 238
238 238 238
238 238 238
238 238 238
238 238 238
238 238 238
204 221 221
119 136 119
51 51 34
51 68 51
85 85 85
119 119 119
153 153 153
187 187 170
187 187 187
204 204 187
204 204 187
204 204 187
204 204 187
204 204 187
204 204 187
204 204 204
221 221 204
204 204 187
187 187 170
187 170 153
170 170 153
170 170 153
170 170 153
170 170 153
170 170 153
170 170 153
170 170 153
170 170 153
170 170 153
170 170 153
170 170 153
170 170 170
170 170 170
170 170 170
170 170 153
153 153 136
119 119 102
85 85 68
85 85 85
119 136 119
153 153 153
170 170 170
187 187 170
187 187 170
187 187 170
187 187 170
170 170 170
170 170 170
170 170 170
170 170 170
170 170 170
170 170 170
153 170 170
153 170 170
153 170 170
170 170 170
170 170 170
170 170 170
153 153 153
153 170 170
153 153 170
136 153 170
136 136 153
153 153 170
153 153 170
136 153 153
119 136 136
136 153 153
136 153 153
170 170 170
170 170 187
187 187 204
187 187 204
187 187 187
187 187 187
170 170 170
170 170 170
170 170 153
170 170 153
153 153 136
136 136 119
119 119 102
119 119 85
119 119 102
119 119 102
136 136 136
170 170 153
187 187 170
187 187 170
170 170 153
153 153 153
153 153 153
153 170 153
153 170 153
153 153 153
136 153 136
136 136 136
136 136 136
153 153 153
136 153 153
153 153 153
170 170 170
170 187 187
170 170 170
170 170 170
153 170 153
153 153 153
153 153 153
153 153 153
153 153 153
153 153 153
153 153 153
170 187 187
170 170 170
187 187 187
170 187 187
187 187 187
170 170 170
153 153 153
153 153 153
153 170 153
187 187 170
170 170 153
153 153 119
153 153 119
153 153 136
136 136 119
136 136 119
153 153 136
170 170 170
153 170 153
153 153 153
119 136 102
119 119 102
102 102 85
85 85 68
68 68 51
51 68 51
51 51 34
51 68 51
51 68 51
51 68 51
51 68 51
51 68 51
51 68 51
68 85 51
68 85 51
85 102 68
85 102 68
85 102 68
85 102 68
68 85 51
68 85 51
68 102 51
68 85 51
51 85 51
51 85 51
68 85 51
68 102 51
68 85 51
68 85 51
68 102 51
68 102 51
68 102 51
68 102 51
68 85 51
68 85 51
85 102 51
85 119 68
85 119 68
85 119 68
85 102 51
85 102 51
68 102 51
85 102 51
85 102 68
85 102 68
85 102 68
85 102 68
85 102 68
68 85 51
51 68 51
51 51 34
51 51 34
51 51 34
68 85 51
85 102 68
102 119 85
102 119 68
85 119 68
85 102 51
85 102 51
68 102 51
68 102 51
68 102 51
68 102 51
68 102 51
68 102 51
68 102 51
68 102 34
68 102 34
68 102 34
85 102 51
85 102 51
85 102 51
85 102 51
68 102 51
85 102 51
85 102 51
85 102 51
85 102 51
85 102 51
102 119 68
119 119 85
119 136 85
102 119 68
102 119 68
102 119 68
102 119 68
102 119 68
102 119 68
102 119 68
102 119 68
102 119 68
85 102 51
85 102 51
85 102 51
85 102 51
85 102 51
85 102 51
68 102 51
68 85 51
68 85 51
68 102 51
68 102 51
68 85 51
85 102 51
85 102 68
85 102 68
85 102 68
102 102 68
85 102 68
68 85 51
68 85 51
68 102 51
85 102 51
85 102 68
102 119 68
102 119 68
102 119 68
102 119 68
102 119 68
102 119 68
119 119 85
119 119 85
119 119 85
119 119 85
119 119 85
119 136 85
119 136 85
119 136 85
119 136 85
119 119 85
102 119 68
102 119 68
102 119 68
102 119 68
221 221 221
221 221 221
221 221 221
221 221 221
221 221 221
221 221 221
221 221 221
221 221 221
221 221 221
221 221 221
221 221 221
221 221 221
221 221 221
221 221 221
221 221 221
221 221 221
221 221 221
221 221 221
221 221 221
221 221 221
221 221 221
221 221 221
221 221 221
221 221 221
221 221 221
221 221 221
221 221 221
221 221 221
221 238 221
221 238 221
221 221 221
221 221 221
221 238 221
221 238 221
221 238 221
221 238 221
221 238 221
221 238 221
221 238 221
221 238 238
221 238 238
221 238 238
221 238 238
238 238 221
221 238 238
221 238 221
221 238 221
238 238 238
238 238 238
238 238 238
238 238 238
238 238 238
238 238 238
221 238 238
170 187 187
85 85 68
85 85 68
119 119 119
153 153 153
187 187 170
187 187 170
204 204 187
204 204 187
204 204 187
204 204 187
204 204 187
204 204 187
204 204 204
221 221 204
221 221 204
204 204 187
204 187 170
187 187 170
187 187 170
187 187 170
187 187 170
187 187 170
187 187 170
187 187 170
187 187 170
170 170 170
187 170 170
187 187 170
187 187 170
187 187 170
187 187 170
187 187 170
187 187 170
170 170 153
136 136 119
85 85 85
85 85 68
136 136 119
170 170 153
187 187 170
187 187 187
204 204 187
204 204 187
204 204 187
204 204 187
187 187 187
187 187 187
187 187 187
187 187 170
187 187 187
187 187 170
187 187 170
187 187 170
187 187 170
187 187 170
187 187 170
170 170 170
170 170 170
153 153 170
153 153 170
136 136 153
153 153 170
153 170 170
136 153 170
136 153 153
153 153 170
136 153 170
170 170 170
170 187 187
187 187 187
187 187 204
187 187 187
187 187 170
170 170 170
170 170 170
170 170 170
170 170 153
153 153 136
136 136 119
119 119 102
119 119 102
136 136 119
136 136 119
153 153 153
170 170 170
187 187 170
170 170 170
153 153 153
153 153 153
153 153 153
153 170 153
153 153 153
153 153 153
136 153 153
136 153 136
153 170 153
204 221 221
187 187 187
170 170 170
187 187 187
187 204 204
187 187 187
170 170 170
170 187 187
170 170 170
170 170 170
153 153 153
153 153 153
153 153 153
153 170 153
187 187 187
153 170 170
187 187 187
187 187 187
187 187 187
153 153 153
153 153 153
153 153 153
153 153 153
170 170 170
153 153 153
153 153 136
153 153 136
153 153 153
136 136 136
153 153 153
153 153 153
170 170 153
170 187 170
170 187 170
153 153 153
136 136 119
119 119 102
102 102 85
68 85 68
68 68 51
51 68 51
51 68 51
51 68 51
51 68 51
51 68 51
51 68 51
68 85 51
85 85 68
85 102 68
85 102 68
85 102 68
85 102 68
68 85 51
68 85 51
68 85 51
68 85 51
51 85 51
51 85 34
51 85 51
68 85 51
68 102 51
68 102 51
68 102 51
68 102 51
85 102 51
85 102 51
68 102 51
68 102 51
68 102 51
85 102 51
102 119 68
102 119 68
102 119 68
85 119 51
85 119 51
85 102 51
85 119 68
102 119 68
102 119 68
102 119 68
102 119 68
102 119 68
85 85 51
51 68 51
51 51 34
51 51 34
51 51 34
68 85 51
85 102 68
102 119 85
102 136 85
102 119 68
85 119 68
85 102 51
68 102 51
68 102 51
68 85 34
68 85 51
68 102 51
68 102 51
68 85 34
68 85 34
68 85 34
68 85 34
85 102 51
85 102 51
85 102 51
68 102 51
68 102 51
68 85 34
68 85 34
68 85 51
68 102 51
85 102 51
85 102 51
102 119 68
102 119 68
102 119 51
102 119 68
102 119 68
102 119 68
102 119 68
102 119 68
85 102 51
85 119 51
102 119 68
85 102 51
85 102 51
85 102 51
85 102 51
85 102 51
85 102 51
68 102 51
68 85 51
68 102 51
68 102 51
68 102 51
68 85 51
85 102 68
85 102 68
85 102 68
102 119 85
102 119 85
85 102 68
68 85 51
68 85 51
85 102 68
85 102 68
85 102 68
85 102 68
102 119 68
102 119 85
102 119 85
102 119 68
102 119 68
102 119 68
102 119 85
102 119 85
102 119 68
102 119 68
119 136 85
119 136 85
119 136 85
119 136 85
119 119 85
102 119 68
102 119 68
102 119 68
102 119 68
221 221 221
221 221 221
221 221 221
221 221 221
221 221 221
221 221 221
221 221 221
221 221 221
221 221 221
221 221 221
221 221 221
221 221 221
221 221 221
221 221 221
221 221 221
221 221 221
221 221 221
221 221 221
221 221 221
221 221 221
221 221 221
221 221 221
221 221 221
221 221 221
221 221 221
221 221 221
221 221 221
221 221 221
221 221 221
221 238 221
221 221 221
221 221 221
221 238 221
221 238 221
221 238 221
221 238 221
221 238 221
221 238 221
221 238 221
221 238 221
221 238 221
221 238 221
221 238 221
238 238 238
221 238 238
238 238 238
238 238 238
238 238 238
238 238 238
238 238 238
238 238 238
238 238 238
238 238 238
238 238 238
204 221 221
153 153 136
102 119 102
153 153 136
170 170 170
187 187 170
187 187 187
187 204 187
204 204 187
204 204 187
204 204 187
204 204 187
204 204 204
221 221 204
221 221 204
221 221 204
204 204 187
204 204 170
204 187 170
187 187 170
187 187 170
187 187 170
204 187 187
204 204 187
187 187 187
187 187 187
187 187 170
187 187 170
187 187 170
187 204 187
204 204 187
204 204 187
204 204 187
204 204 187
170 170 153
136 136 119
102 102 85
85 85 68
136 136 119
170 170 153
187 187 170
187 187 170
187 187 170
187 187 170
187 187 170
204 204 187
204 204 187
204 204 187
204 204 187
204 204 187
204 204 187
204 204 187
204 204 187
187 187 187
187 187 187
187 187 187
187 187 187
187 187 170
170 170 170
153 170 170
153 153 170
136 153 153
136 153 170
153 170 187
153 170 170
136 153 153
153 153 170
136 153 153
170 170 170
170 187 170
187 187 187
187 187 187
187 187 187
187 187 170
187 187 170
170 187 170
170 170 170
170 170 153
153 153 136
136 136 119
136 119 119
136 136 119
153 136 136
153 153 136
170 170 153
170 170 170
170 187 170
170 170 153
153 153 153
153 153 153
153 170 153
170 170 170
153 170 153
153 153 153
153 153 153
136 153 136
153 153 153
221 238 238
238 238 238
221 221 221
238 255 255
238 255 255
221 238 238
221 221 221
187 204 204
187 187 187
170 187 187
153 170 170
153 153 153
136 153 153
153 170 170
170 187 187
153 170 170
187 204 204
187 187 187
187 204 204
153 170 153
153 153 153
153 153 153
153 153 153
170 170 153
170 170 170
170 170 170
187 187 187
204 221 221
204 204 221
204 204 204
170 187 187
170 187 170
204 221 204
187 187 187
153 153 153
136 136 136
136 136 119
119 119 102
85 102 85
68 85 68
68 68 51
68 68 51
51 68 51
51 68 51
51 68 34
68 68 51
68 85 51
85 102 68
85 102 68
85 102 68
85 102 68
68 85 51
68 85 51
68 85 51
68 85 51
68 85 51
68 85 51
68 85 51
68 85 51
68 85 51
68 102 51
68 102 51
68 102 51
85 102 51
85 102 51
85 119 51
85 102 51
85 102 51
85 102 51
85 119 51
102 119 68
85 119 68
85 119 51
85 119 51
85 119 51
85 119 51
85 119 68
102 119 68
102 119 68
102 119 68
102 119 68
102 119 85
85 102 51
51 68 34
34 51 34
51 51 34
51 51 34
68 85 51
102 102 68
102 119 85
102 119 85
102 119 68
102 119 68
85 119 68
85 102 51
68 102 51
68 85 34
68 85 34
68 85 51
68 85 34
51 85 34
51 85 34
51 85 34
68 85 34
68 85 51
68 102 51
85 102 51
68 102 51
68 85 51
68 85 34
68 85 51
68 102 51
68 102 51
68 102 51
68 102 51
85 102 51
85 102 51
85 102 51
102 102 68
102 119 68
102 119 68
119 119 85
102 119 68
85 102 68
85 102 68
85 102 68
85 102 68
68 85 51
68 85 51
68 85 51
85 102 51
85 102 51
85 102 51
85 102 51
85 102 51
68 102 51
68 102 51
85 102 51
85 102 68
102 102 68
102 102 68
102 119 85
102 102 68
85 102 68
68 85 51
68 85 51
85 102 68
102 119 85
102 102 68
85 102 68
119 119 85
119 119 85
102 119 85
102 119 85
102 119 68
102 119 85
102 119 85
102 119 68
102 119 68
102 119 85
119 119 85
119 136 85
119 136 85
119 136 85
119 119 85
102 119 68
102 119 68
102 119 68
119 119 85
221 221 221
221 221 221
221 221 221
221 221 221
221 221 221
221 221 221
221 221 221
221 221 221
221 221 221
221 221 221
221 221 221
221 221 221
221 221 221
221 221 221
221 221 221
221 221 221
221 221 221
221 221 221
221 221 221
221 221 221
221 221 221
221 221 221
221 221 221
221 221 221
221 221 221
221 221 221
221 221 221
221 221 221
221 221 221
221 221 221
221 221 221
221 221 221
221 238 221
221 238 221
221 238 221
221 238 221
221 238 221
221 238 221
221 238 221
221 238 221
221 238 221
221 238 221
221 238 221
221 238 238
238 238 238
238 238 238
238 238 238
238 238 238
238 238 238
238 238 238
238 238 238
238 238 238
238 238 238
238 238 238
238 238 238
187 204 187
136 153 136
170 170 153
187 187 170
187 187 170
187 187 187
187 187 187
204 204 187
204 204 187
204 204 187
204 204 187
204 204 187
204 204 187
204 204 187
204 204 187
204 187 170
204 187 170
204 187 170
187 187 170
187 187 170
204 187 187
204 204 187
204 204 187
204 204 187
204 204 187
204 204 187
204 204 187
204 204 187
204 204 187
204 204 187
204 204 187
204 204 187
204 204 187
187 187 170
153 153 136
102 102 85
85 85 68
119 119 119
153 153 136
187 187 170
187 187 170
187 187 170
187 187 170
187 187 170
204 204 187
204 204 187
204 204 187
204 204 187
204 204 187
204 204 187
204 204 187
204 204 187
204 204 187
204 204 187
204 204 187
187 204 187
187 187 170
170 170 170
153 170 170
153 170 187
153 153 170
153 153 170
153 170 170
153 170 187
153 153 170
153 153 170
136 153 153
170 170 170
170 170 170
187 187 187
187 204 187
187 187 187
187 187 187
187 187 170
187 187 170
187 187 170
170 170 153
153 153 136
153 136 136
153 153 136
153 153 136
170 170 153
170 170 153
170 170 170
170 170 170
170 170 153
153 170 153
153 170 153
170 170 153
170 170 170
170 170 170
153 170 153
153 170 153
153 170 170
153 153 153
153 170 153
204 221 204
238 255 238
238 238 238
204 221 221
238 238 238
255 255 255
238 238 238
221 221 238
221 238 238
204 221 221
187 187 187
170 170 170
153 153 153
170 170 170
170 187 187
170 170 170
204 204 204
187 204 204
204 204 204
170 170 170
153 170 170
153 170 153
170 170 170
170 187 170
204 204 204
221 221 221
238 238 238
238 238 238
238 238 238
238 238 238
238 238 238
221 221 221
187 204 204
153 170 153
153 170 153
153 153 153
136 136 136
119 136 119
102 102 85
85 85 68
68 68 51
68 68 51
51 68 51
51 68 34
51 68 34
68 68 51
68 85 51
68 85 51
68 85 51
68 85 51
68 85 51
68 85 51
51 68 51
51 68 51
68 85 51
68 102 51
68 102 51
85 102 68
85 102 68
85 102 68
85 102 51
85 102 51
68 102 51
85 102 51
85 102 51
85 102 51
85 119 51
85 102 51
85 102 51
85 102 51
85 102 51
85 102 51
85 102 51
85 102 51
85 102 51
85 102 51
85 119 51
102 119 68
102 119 68
102 119 68
102 119 68
102 119 68
85 85 51
51 68 34
34 51 34
34 51 34
51 68 34
68 85 51
102 119 68
102 119 85
102 119 68
102 119 68
102 119 68
85 119 68
85 102 68
68 102 51
68 102 51
68 85 51
68 85 34
68 85 34
51 85 34
51 68 34
51 68 34
51 85 34
68 85 34
68 102 51
68 102 51
68 102 51
68 85 34
68 85 51
85 102 51
85 102 68
85 102 51
85 102 51
68 85 51
68 85 51
68 85 51
85 102 68
102 102 68
85 102 68
102 102 68
102 119 68
102 119 68
102 119 68
102 119 68
85 102 68
85 102 51
68 85 51
68 85 51
68 85 51
85 102 51
85 102 68
85 102 68
85 102 68
85 102 68
85 102 68
85 102 68
85 102 68
102 102 68
102 119 85
102 119 68
102 119 68
102 119 68
85 102 68
85 102 68
85 102 68
102 119 85
102 119 85
102 119 85
102 119 85
119 119 85
119 119 85
119 119 85
119 119 85
119 119 85
119 119 85
119 119 85
119 119 85
102 119 85
119 119 85
119 119 85
119 119 85
119 136 85
136 136 102
119 136 85
119 119 85
102 119 85
102 119 68
119 119 85
221 221 221
221 221 221
221 221 221
221 221 221
221 221 221
221 221 221
221 221 221
221 221 221
221 221 221
221 221 221
221 221 221
221 221 221
221 221 221
221 221 221
221 221 221
221 221 221
221 221 221
221 221 221
221 221 221
221 221 221
221 221 221
221 221 221
221 221 221
221 221 221
221 221 221
221 221 221
221 221 221
221 221 221
221 221 221
221 238 221
221 221 221
221 221 221
221 238 221
221 238 221
221 238 221
221 238 221
221 238 221
221 238 221
221 238 221
221 238 221
221 238 221
221 238 221
221 238 238
238 238 238
221 238 238
238 238 238
238 238 238
238 238 238
238 238 238
238 238 238
238 238 238
238 238 238
238 238 238
238 238 238
238 238 238
221 221 221
170 187 170
170 170 153
187 187 170
187 187 187
187 204 187
204 204 187
204 204 187
204 204 187
204 204 187
204 204 187
204 204 187
204 187 170
204 187 170
204 187 153
187 187 153
204 187 153
187 187 153
187 187 153
187 187 170
204 187 187
204 204 187
204 204 187
204 204 187
204 204 187
204 204 187
204 204 187
204 204 187
204 204 187
204 204 187
204 204 187
204 204 187
204 204 187
187 187 170
153 153 136
119 119 102
85 85 68
119 119 102
153 153 136
187 187 170
187 187 170
187 187 170
187 187 170
204 204 187
204 204 187
204 204 187
204 204 187
204 204 187
204 204 187
204 204 187
204 204 187
204 204 187
204 204 187
204 204 187
204 204 187
204 204 187
187 187 170
170 170 170
153 170 170
153 153 170
136 153 170
153 153 170
153 170 170
153 153 170
153 153 170
153 170 170
153 153 153
170 170 170
170 170 170
187 204 187
204 204 187
204 204 187
187 187 187
187 187 187
187 187 170
170 170 170
170 170 153
153 153 136
153 153 136
170 153 136
170 153 153
170 170 170
170 170 170
170 170 170
170 170 170
153 170 153
153 170 153
153 170 153
170 170 153
170 170 153
170 170 153
153 170 153
153 170 153
170 187 170
170 187 187
170 170 170
187 204 204
238 238 238
221 238 221
204 221 221
221 238 238
255 255 255
255 255 255
238 255 255
204 221 221
204 221 221
204 221 221
187 204 204
170 170 170
170 187 187
187 187 187
170 170 170
204 221 221
204 221 221
204 221 221
170 187 187
153 170 170
170 170 170
187 204 187
204 221 221
238 238 238
238 238 238
238 238 238
238 238 255
238 238 238
238 255 255
238 255 255
238 255 255
238 238 238
204 221 221
204 221 221
170 170 170
153 153 153
136 136 119
102 102 102
85 85 68
68 68 51
68 68 51
68 68 51
51 68 51
51 68 34
51 68 34
51 68 51
51 68 51
51 68 51
68 85 51
68 85 51
51 68 51
51 68 51
68 85 51
68 85 51
85 102 68
85 102 68
85 119 68
85 102 68
85 102 68
85 102 51
68 102 51
68 102 51
68 102 51
68 102 51
68 102 51
68 102 51
68 102 51
68 102 51
68 102 51
68 102 51
85 102 51
85 102 51
68 102 51
68 102 51
68 102 34
85 102 51
85 102 51
85 119 51
102 119 51
102 119 68
102 119 68
68 85 51
51 51 34
34 51 34
34 51 34
51 68 34
68 85 51
102 119 85
102 119 85
102 119 68
85 119 68
85 119 68
85 119 68
85 119 68
85 102 51
68 102 51
68 102 51
68 85 51
68 85 34
51 85 34
51 85 34
51 68 34
51 85 34
68 85 34
68 85 34
68 102 51
68 85 34
68 85 34
68 85 51
85 102 51
85 119 68
85 102 51
85 102 51
68 85 51
68 85 51
68 85 51
85 102 51
85 102 51
85 102 51
85 102 51
85 102 51
85 102 51
85 102 51
85 102 51
85 102 51
68 85 51
68 85 51
68 85 51
85 85 68
85 102 68
85 102 68
85 102 68
85 102 68
85 102 68
102 119 68
85 102 68
85 102 68
102 119 85
119 119 85
102 119 68
102 119 68
102 119 68
85 102 68
85 102 68
85 102 68
102 119 85
119 119 85
119 119 85
119 119 85
119 136 102
119 136 102
119 119 85
119 119 85
119 136 85
119 136 102
119 119 85
119 119 85
119 119 85
119 119 85
119 119 85
119 136 85
119 136 85
119 119 85
119 119 85
119 119 85
119 119 85
119 119 85
119 119 85
221 221 221
221 221 221
221 221 221
221 221 221
221 221 221
221 221 221
221 221 221
221 221 221
221 221 221
221 221 221
221 221 221
221 221 221
221 221 221
221 221 221
221 221 221
221 221 221
221 221 221
221 221 221
221 221 221
221 221 221
221 221 221
221 221 221
221 221 221
221 221 221
221 221 221
221 221 221
221 221 221
221 221 221
221 221 221
221 221 221
221 221 221
221 221 221
221 238 221
221 238 221
221 238 221
221 238 221
221 238 221
221 238 221
221 238 221
221 238 221
221 238 221
221 238 221
221 238 221
221 238 238
238 238 238
238 238 238
221 238 238
238 238 238
238 238 238
238 238 238
238 238 238
238 238 238
238 238 238
238 238 238
238 238 238
238 238 238
204 204 204
170 187 170
187 187 170
187 204 187
204 204 187
204 204 187
204 204 187
204 204 187
204 204 187
204 204 187
204 204 187
204 187 170
187 187 153
187 187 153
187 187 153
187 187 153
204 187 170
187 187 170
204 187 170
204 204 187
204 204 187
204 204 187
204 204 187
204 204 187
204 204 187
204 204 187
204 204 187
204 204 187
204 204 187
204 204 187
204 204 187
204 204 187
204 187 187
170 153 153
119 119 102
85 85 68
119 119 102
170 170 153
204 187 187
204 204 187
204 204 187
204 204 187
204 204 187
204 204 187
204 204 187
204 204 187
204 204 187
204 204 187
204 204 187
204 204 187
204 204 187
204 204 187
204 204 187
204 204 187
204 204 187
187 187 187
170 170 170
170 170 170
153 170 170
153 153 170
153 170 170
153 170 187
153 170 170
153 153 170
153 170 170
153 153 170
170 170 170
170 170 170
187 204 187
204 204 187
204 204 187
204 204 187
204 204 187
187 187 170
170 170 170
170 170 153
170 170 153
170 153 136
170 153 136
170 170 153
170 170 170
170 170 170
170 170 170
153 170 153
153 153 153
153 170 153
153 170 153
153 170 153
170 170 153
170 170 153
153 170 170
170 170 170
187 204 204
204 221 221
221 221 221
221 221 221
238 238 238
238 238 238
238 238 238
238 238 238
255 255 255
255 255 255
255 255 255
238 255 255
221 238 238
221 238 238
204 221 221
187 204 204
187 187 204
187 204 204
170 170 170
204 221 221
221 238 238
204 221 221
204 204 204
170 170 170
187 187 187
221 238 238
238 255 255
238 238 238
238 238 238
255 255 255
255 255 255
238 238 238
238 238 238
221 238 221
238 238 238
238 238 238
221 238 238
204 221 221
170 187 170
153 153 153
136 153 136
102 119 102
85 85 68
85 85 68
68 85 68
68 68 68
68 68 51
51 68 51
51 68 34
51 68 34
51 68 34
51 68 51
51 68 51
51 68 51
51 68 34
51 68 51
68 85 51
85 102 51
85 102 68
85 102 68
85 102 68
85 102 51
68 102 51
68 85 51
68 85 51
68 85 34
68 85 51
68 85 51
68 85 51
68 85 51
68 85 51
68 85 34
68 85 51
68 85 51
68 102 51
68 102 51
68 102 51
68 102 51
68 102 34
68 102 51
68 102 51
85 102 51
85 102 51
85 102 51
85 102 51
68 85 34
51 51 34
34 51 34
34 51 34
51 68 34
68 85 51
102 119 85
102 119 85
102 119 68
85 119 68
85 119 68
85 119 68
85 119 68
85 119 68
85 102 51
68 102 51
68 85 51
51 85 34
51 68 34
51 85 34
51 68 34
68 85 34
51 85 34
68 85 34
68 85 51
68 85 34
68 85 34
68 85 34
85 102 51
85 102 51
85 102 51
68 85 51
68 85 51
68 85 51
68 85 51
68 85 51
68 85 51
68 85 51
68 85 51
68 102 51
68 102 51
68 102 51
85 102 51
85 102 51
85 102 68
85 102 68
85 102 68
85 102 68
85 102 68
102 102 68
102 119 68
102 119 85
102 119 68
102 119 68
85 119 68
102 119 68
102 119 68
119 119 85
102 119 85
102 119 68
102 119 85
102 119 68
102 102 68
102 102 68
102 119 85
119 119 85
119 119 85
119 136 85
119 136 102
119 136 85
119 119 85
119 119 85
119 136 102
119 136 102
119 119 85
119 119 85
119 119 85
119 136 85
119 136 85
119 136 102
119 136 102
119 119 85
119 119 85
119 136 85
119 136 85
119 119 85
119 119 85
221 221 221
221 221 221
221 221 221
221 221 221
221 221 221
221 221 221
221 221 221
221 221 221
221 221 221
221 221 221
221 221 221
221 221 221
221 221 221
221 221 221
221 221 221
221 221 221
221 221 221
221 221 221
221 221 221
221 221 221
221 221 221
221 221 221
221 221 221
221 221 221
221 221 221
221 221 221
221 221 221
221 221 221
221 221 221
221 221 221
221 221 221
221 221 221
221 238 221
221 238 221
221 238 221
221 238 221
221 238 221
221 238 221
221 238 221
221 238 221
221 238 221
221 238 221
221 238 221
221 238 238
238 238 238
221 238 238
221 238 238
221 238 238
238 238 238
238 238 238
238 238 238
238 238 238
238 238 238
238 238 238
238 238 238
238 238 238
221 221 221
204 204 187
187 187 170
187 204 187
204 204 187
204 204 187
204 204 187
204 204 187
204 204 187
204 204 187
204 204 170
204 187 170
204 187 170
204 187 170
204 187 170
204 187 170
187 187 170
187 187 170
187 187 187
204 204 187
204 204 187
204 204 187
204 204 187
204 204 187
204 204 187
204 204 187
204 204 187
204 204 187
204 204 187
204 204 187
204 204 187
204 204 187
204 204 187
170 170 153
119 119 102
85 85 68
119 119 102
170 170 153
187 204 187
204 221 204
221 221 204
221 221 204
221 221 187
204 221 204
204 204 187
204 204 187
204 204 187
204 204 204
204 204 187
204 204 187
204 204 187
204 204 187
204 204 187
204 204 187
204 204 187
204 204 187
170 187 170
153 170 170
153 170 170
153 170 170
153 170 170
153 170 170
153 170 170
153 170 170
153 170 170
153 153 170
170 170 170
187 187 170
204 204 187
204 204 187
204 204 187
204 204 187
204 204 187
187 187 170
187 187 170
170 170 170
170 170 170
170 170 153
170 170 153
170 170 153
170 170 170
187 187 170
170 170 170
153 170 153
153 170 153
170 170 153
170 170 153
170 170 170
170 170 170
170 170 170
170 170 170
187 187 187
187 187 187
187 187 187
187 187 187
204 221 221
238 238 238
238 238 238
238 238 238
238 255 238
238 255 255
255 255 255
255 255 255
255 255 255
238 255 255
221 238 238
221 238 238
204 221 221
204 204 204
204 204 204
153 170 170
187 204 204
238 255 255
204 221 221
204 221 221
187 204 204
221 238 238
221 238 221
238 238 238
238 238 238
238 255 255
238 255 255
238 238 238
238 238 238
221 221 221
187 204 187
187 204 187
221 221 221
238 238 238
204 204 204
187 187 187
153 170 153
153 153 153
119 119 119
85 102 85
85 85 85
85 102 85
85 85 68
68 68 68
51 68 51
51 68 51
51 68 34
51 68 51
51 68 51
51 68 34
51 51 34
51 68 34
51 85 51
68 85 51
85 102 68
85 102 68
85 102 51
68 102 51
68 85 51
68 85 51
51 68 34
51 68 34
51 85 34
68 85 34
68 85 34
68 85 34
68 85 34
51 85 34
68 85 34
68 85 51
68 85 51
68 85 51
68 85 51
68 85 34
68 85 34
68 85 34
68 85 34
68 85 34
68 85 51
68 102 51
68 102 51
68 102 51
51 68 34
34 51 34
34 51 34
34 51 34
51 68 51
68 85 51
85 102 68
102 119 68
85 102 51
85 102 68
85 102 51
85 119 68
102 119 68
85 119 68
85 102 68
68 102 51
51 85 34
51 68 34
51 68 34
51 68 34
51 68 34
51 85 34
51 85 34
68 85 51
68 85 51
68 85 34
51 85 34
68 85 51
68 85 51
68 102 51
68 85 51
68 85 51
68 85 51
68 85 51
68 85 51
68 85 34
68 85 51
68 85 51
68 85 51
68 85 51
68 102 51
68 85 51
85 102 51
85 102 68
102 102 68
102 102 68
102 102 85
102 102 85
102 119 68
102 119 68
119 119 85
119 119 85
102 119 85
102 119 85
85 102 68
102 119 68
102 119 68
102 119 85
102 119 68
102 119 85
102 119 85
102 119 85
102 119 85
102 119 85
119 119 85
119 119 85
119 119 85
119 136 85
119 136 85
119 119 85
119 136 85
119 136 102
119 136 85
119 136 102
119 119 85
119 136 85
119 119 85
119 119 85
119 119 85
136 136 102
119 136 85
119 136 85
119 136 85
119 136 102
119 136 102
119 136 85
119 119 85
221 221 221
221 221 221
221 221 221
221 221 221
221 221 221
221 221 221
221 221 221
221 221 221
221 221 221
221 221 221
221 221 221
221 221 221
221 221 221
221 221 221
221 221 221
221 221 221
221 221 221
221 221 221
221 221 221
221 221 221
221 221 221
221 221 221
221 221 221
221 221 221
221 221 221
221 221 221
221 221 221
221 221 221
221 221 221
221 221 221
221 221 221
221 221 221
221 238 221
221 238 221
221 238 221
221 238 221
221 238 221
221 238 221
221 238 221
221 238 221
221 238 221
221 238 221
221 238 221
221 238 238
238 238 238
238 238 238
238 238 238
238 238 238
238 238 238
238 238 238
238 238 238
238 238 238
238 238 238
238 238 238
238 238 238
238 238 238
238 238 238
221 221 204
204 204 187
204 204 187
204 204 187
204 204 187
204 204 187
204 204 187
204 204 187
204 204 187
204 204 170
204 204 170
204 204 170
204 204 170
204 204 170
187 187 187
187 187 187
187 187 187
187 204 187
187 204 187
204 204 187
204 204 187
204 204 187
204 204 187
204 204 187
204 204 187
204 204 187
204 204 187
204 204 187
204 204 187
204 204 187
204 204 187
204 204 187
170 170 153
136 136 119
85 85 85
102 102 102
153 153 153
187 204 187
204 221 204
221 221 204
221 221 204
204 221 204
204 204 187
204 204 187
204 204 187
204 221 187
204 204 187
204 204 187
204 204 187
204 204 187
204 204 187
204 204 187
204 204 187
204 204 187
204 204 187
187 187 170
153 170 153
136 153 153
153 153 153
153 153 153
153 153 153
153 153 153
153 153 153
153 170 153
153 153 153
170 170 153
187 187 170
204 204 187
204 204 187
204 204 187
204 204 187
187 187 187
187 187 170
187 187 170
187 187 170
187 187 170
187 187 170
187 187 170
187 187 170
187 187 170
187 187 170
187 187 170
187 187 170
187 187 170
187 187 187
187 187 170
170 187 170
187 187 187
204 221 221
221 221 221
221 238 238
238 238 238
238 238 238
221 238 238
221 238 221
221 238 221
238 238 238
238 238 238
238 238 238
238 255 238
255 255 255
255 255 255
238 255 255
255 255 255
238 255 255
238 238 238
221 238 238
204 221 221
204 221 221
187 187 187
187 187 187
238 255 238
221 238 238
204 221 221
221 238 238
204 221 204
221 221 221
238 238 238
255 255 255
255 255 255
238 238 238
238 255 255
238 238 238
221 238 238
238 238 238
238 238 238
238 238 238
238 238 238
204 221 221
187 204 187
187 204 187
170 187 187
136 153 136
102 119 102
102 119 102
102 102 102
102 102 102
85 102 85
68 85 68
68 68 51
51 68 51
68 68 51
68 85 68
51 68 51
51 51 34
51 68 34
68 85 51
68 85 51
68 102 51
68 102 51
68 85 51
68 85 51
51 68 34
51 68 34
51 68 34
51 68 34
51 68 34
51 68 34
51 85 34
51 85 34
51 85 34
51 85 34
51 85 34
51 85 34
68 85 34
68 85 51
68 85 51
51 85 34
51 85 34
51 85 34
51 85 34
68 85 34
68 85 51
68 102 51
85 102 51
85 102 51
51 68 34
34 51 34
34 51 34
34 51 34
51 68 51
68 85 51
85 102 68
85 102 68
85 102 51
68 102 51
68 102 51
85 102 51
85 102 68
85 119 68
85 102 68
68 102 51
51 85 34
51 68 34
51 68 34
51 68 34
51 68 34
51 68 34
51 68 34
68 85 51
68 85 51
68 85 51
51 85 34
68 85 51
68 85 51
68 85 51
68 85 51
68 85 51
68 85 51
68 85 51
68 85 51
51 68 51
51 85 51
68 85 51
68 85 51
68 85 51
68 85 51
85 102 68
85 102 68
85 102 68
102 119 85
102 119 85
102 119 85
102 119 85
119 119 85
119 119 85
119 119 85
119 136 85
119 136 85
119 119 85
102 119 85
102 119 68
102 119 68
102 119 85
102 119 85
102 119 85
102 119 85
102 119 85
102 119 85
119 119 85
119 119 85
119 119 85
119 119 85
119 136 85
119 119 85
119 119 85
119 136 85
119 136 102
119 119 85
119 119 85
119 119 85
119 119 85
119 119 85
119 119 85
119 119 85
119 119 85
119 119 85
119 136 85
136 136 102
136 136 102
136 136 102
136 136 102
119 119 85
221 221 221
221 221 221
221 221 221
221 221 221
221 221 221
221 221 221
221 221 221
221 221 221
221 221 221
221 221 221
221 221 221
221 221 221
221 221 221
221 221 221
221 221 221
221 221 221
221 221 221
221 221 221
221 221 221
221 221 221
221 221 221
221 221 221
221 221 221
221 221 221
221 221 221
221 221 221
221 221 221
221 221 221
221 221 221
221 221 221
221 221 221
221 221 221
221 238 221
221 238 221
221 221 221
221 238 221
221 238 221
221 238 221
221 238 221
221 238 221
221 238 221
221 238 221
221 238 238
221 238 238
238 238 238
238 238 238
238 238 238
238 238 238
238 238 238
238 238 238
238 238 238
238 238 238
238 238 238
238 238 238
238 238 238
238 238 238
238 238 238
221 221 221
204 204 204
204 204 187
204 204 187
204 204 204
204 204 204
204 204 204
204 204 187
204 204 187
204 204 170
204 204 170
204 204 187
204 204 170
204 204 170
187 204 187
187 204 187
187 204 187
204 204 187
204 204 187
204 204 187
204 204 187
204 204 187
204 204 187
204 204 187
204 204 187
204 204 204
204 204 204
204 204 187
204 204 204
204 204 204
204 204 187
204 204 187
170 170 153
136 136 119
85 102 85
102 102 85
153 153 136
187 187 170
204 204 187
204 221 204
221 221 204
204 221 204
204 221 187
204 221 187
204 221 204
204 204 187
204 204 204
204 204 187
204 204 187
204 204 187
204 204 187
187 187 170
187 187 170
187 187 170
204 204 187
187 187 170
170 170 170
153 153 153
153 170 153
170 170 170
170 170 153
170 170 153
170 170 170
170 170 170
170 170 153
170 170 170
187 187 170
204 204 187
204 204 187
187 187 187
187 187 187
187 187 170
187 187 170
187 187 170
187 187 187
204 204 187
204 204 187
187 187 187
187 187 187
187 187 170
187 187 170
187 187 170
187 187 187
204 204 187
204 204 204
204 204 204
204 204 204
221 221 221
238 238 238
238 255 238
255 255 255
255 255 255
255 255 255
238 255 238
238 238 238
221 221 221
221 238 238
255 255 255
238 255 238
238 238 238
238 255 255
255 255 255
255 255 255
255 255 255
255 255 255
255 255 255
238 238 238
221 221 221
221 238 238
221 221 221
204 204 204
238 238 238
221 238 238
221 221 221
238 238 238
221 238 221
238 238 238
238 255 255
255 255 255
255 255 255
255 255 255
255 255 255
255 255 255
238 255 255
255 255 255
255 255 255
255 255 255
255 255 255
238 255 255
238 238 238
221 238 238
221 221 221
187 187 187
153 153 153
136 136 136
153 153 153
170 170 170
153 153 136
119 119 102
85 85 68
68 85 68
102 119 102
119 136 119
68 68 68
51 51 34
51 68 34
68 85 51
68 85 51
68 85 51
68 85 51
51 68 51
51 68 34
51 68 34
51 51 34
34 51 34
34 51 34
51 68 34
51 68 34
51 68 34
51 85 34
51 85 34
51 85 34
51 85 34
51 85 34
51 85 51
51 85 51
68 85 51
51 85 34
51 85 34
51 85 34
51 85 34
68 85 51
68 85 51
68 102 51
85 102 51
85 102 51
68 68 51
34 51 34
34 51 34
34 51 34
51 68 51
68 85 51
85 102 68
85 102 68
85 102 51
68 85 51
68 85 51
68 85 51
68 102 51
85 102 68
85 102 51
68 102 51
51 85 34
51 68 34
51 68 34
51 68 34
51 68 34
51 68 34
51 68 34
68 85 51
68 85 51
68 85 51
68 85 51
68 85 51
68 85 51
68 85 51
68 85 51
68 85 51
68 85 51
68 68 51
68 85 51
51 68 51
68 68 51
68 85 51
68 85 51
85 102 68
85 102 68
102 102 85
102 119 85
102 119 85
102 119 85
119 119 85
119 136 102
119 119 85
119 136 85
119 136 85
136 136 102
136 136 102
136 136 102
119 136 102
119 136 102
119 119 85
119 119 85
119 119 85
102 119 85
102 119 85
102 119 85
102 119 85
102 119 85
119 119 85
119 136 85
119 119 85
119 119 85
119 119 85
119 119 85
119 119 85
119 136 85
119 136 102
119 136 102
119 119 85
119 119 85
119 119 85
119 119 85
119 119 85
119 119 85
119 136 102
119 119 85
136 136 102
136 136 102
136 136 102
136 136 102
136 136 102
119 119 102
221 221 221
221 221 221
221 221 221
221 221 221
221 221 221
221 221 221
221 221 221
221 221 221
221 221 221
221 221 221
221 221 221
221 221 221
221 221 221
221 221 221
221 221 221
221 221 221
221 221 221
221 221 221
221 221 221
221 221 221
221 221 221
221 221 221
221 221 221
221 221 221
221 221 221
221 221 221
221 221 221
221 221 221
221 221 221
221 221 221
221 221 221
221 221 221
221 221 221
221 221 221
221 221 221
221 238 221
221 238 221
221 238 221
221 238 221
221 238 221
221 238 221
221 238 238
221 238 221
221 238 238
221 238 238
221 238 238
238 238 238
221 238 238
238 238 238
238 238 238
238 238 238
238 238 238
238 238 238
238 238 238
238 238 238
238 238 238
238 238 238
238 238 238
221 221 204
204 204 187
204 204 187
204 204 187
204 204 187
204 204 187
204 204 187
204 204 187
204 204 187
204 204 187
204 204 187
204 204 187
204 204 187
204 204 187
204 204 187
204 204 187
204 204 187
204 204 187
204 204 187
204 204 187
204 204 187
204 204 187
204 204 204
204 204 204
204 221 204
204 221 204
221 221 204
221 221 204
221 221 204
221 221 204
204 204 187
187 170 153
136 136 119
102 102 85
102 102 85
153 153 136
187 187 170
204 204 204
221 221 204
221 221 204
221 221 204
221 221 204
221 221 204
221 221 204
204 221 187
204 204 187
204 204 187
204 204 187
204 204 187
204 204 187
170 170 153
170 170 153
170 170 153
204 204 187
187 187 170
187 187 170
170 170 170
187 187 170
187 187 187
187 187 170
187 187 170
187 187 187
187 187 187
170 170 170
170 187 170
187 187 170
187 187 170
187 187 170
170 187 153
187 187 170
187 187 170
187 187 170
187 187 170
204 204 187
204 204 187
204 204 187
204 204 187
204 204 187
187 204 187
187 187 187
204 204 187
204 204 187
204 204 187
204 204 187
204 221 204
221 238 221
238 238 238
238 238 238
238 238 238
238 238 238
238 238 238
238 238 238
255 255 255
255 255 255
238 238 238
238 238 238
238 255 238
255 255 255
238 255 238
255 255 255
255 255 255
255 255 255
255 255 255
255 255 255
255 255 255
255 255 255
238 255 255
238 255 255
221 238 238
221 221 221
238 238 238
221 238 238
221 238 238
238 238 238
238 255 255
255 255 255
255 255 255
255 255 255
255 255 255
255 255 255
255 255 255
238 255 255
255 255 255
255 255 255
255 255 255
255 255 255
255 255 255
255 255 255
255 255 255
255 255 255
238 238 238
204 221 221
221 221 221
204 221 221
153 170 153
136 136 119
119 119 102
119 119 102
102 119 102
102 102 102
153 153 153
153 170 170
85 85 85
51 68 51
51 68 51
51 68 51
68 68 51
51 68 51
51 68 51
51 68 51
51 68 34
51 68 34
34 51 34
34 51 34
34 51 34
51 68 34
51 68 34
51 68 51
51 85 34
51 85 34
51 68 34
51 85 34
51 85 34
51 85 34
51 85 34
51 85 34
51 85 34
51 85 34
51 85 34
68 85 51
68 85 51
68 85 51
85 102 51
85 119 68
85 102 68
68 85 51
34 51 34
34 51 34
34 51 34
51 68 51
85 85 68
102 119 68
85 102 68
85 102 51
68 85 51
68 85 51
68 85 51
68 85 51
68 85 51
68 102 51
68 102 51
68 85 51
51 68 34
51 68 34
51 68 34
51 68 34
51 68 34
51 68 34
68 85 51
68 85 51
68 85 51
68 85 51
68 85 51
68 85 51
68 102 51
85 85 51
68 85 51
68 85 51
68 85 51
68 85 51
68 68 51
68 85 51
68 85 51
85 102 68
102 102 68
102 119 68
119 119 85
119 136 85
119 136 85
119 136 85
136 136 102
136 136 102
136 136 102
136 136 102
136 136 102
136 136 102
136 136 102
136 136 102
136 136 102
136 136 102
119 136 85
119 136 85
119 136 85
119 119 85
102 119 85
102 119 85
102 119 85
102 119 85
119 119 85
119 119 85
119 119 85
119 119 85
119 119 85
119 119 85
119 119 85
119 119 85
119 136 102
119 136 102
119 136 85
119 119 85
119 136 85
119 119 85
119 119 85
119 119 85
119 119 85
119 119 102
136 136 102
136 136 102
136 136 102
136 136 102
136 136 102
119 119 102
221 221 221
221 221 221
221 221 221
221 221 221
221 221 221
221 221 221
221 221 221
221 221 221
221 221 221
221 221 221
221 221 221
221 221 221
221 221 221
221 221 221
221 221 221
221 221 221
221 221 221
221 221 221
221 221 221
221 221 221
221 221 221
221 221 221
221 221 221
221 221 221
221 221 221
221 221 221
221 221 221
221 221 221
221 221 221
221 221 221
221 221 221
221 221 221
221 221 221
221 238 221
221 238 221
221 238 221
221 238 221
221 238 221
221 238 221
221 238 221
221 238 221
221 238 221
221 238 221
221 238 221
221 238 238
221 238 238
221 238 238
221 238 238
238 238 238
238 238 238
238 238 238
238 238 238
238 238 238
238 238 238
238 238 238
238 238 238
238 238 238
238 238 238
221 221 221
204 204 187
187 187 170
187 187 170
187 187 170
204 204 170
204 204 187
204 204 187
221 221 204
221 221 204
221 221 204
221 221 204
204 204 187
204 204 187
204 204 187
204 204 187
204 221 204
221 221 204
221 221 204
221 221 204
221 221 204
204 221 204
221 221 204
221 221 204
221 221 204
221 221 204
221 221 187
221 221 204
221 221 204
221 221 204
204 204 187
187 187 170
153 153 136
102 102 85
85 102 85
153 153 136
187 187 170
204 204 204
221 221 204
221 221 204
204 221 204
221 221 204
204 221 204
204 204 187
204 204 187
204 204 187
204 204 187
204 204 187
204 204 187
204 204 187
170 170 153
153 170 136
153 170 136
204 204 187
187 187 170
187 187 170
187 187 170
204 204 187
204 204 187
204 204 187
204 204 187
204 204 187
204 204 187
187 187 170
170 170 153
153 170 136
170 170 136
153 153 136
153 170 136
170 170 153
187 187 170
187 187 170
187 187 170
204 204 187
204 204 187
204 204 187
204 204 187
187 204 187
187 187 170
187 204 187
204 204 204
204 221 204
221 221 221
238 238 238
238 238 238
238 255 238
238 255 238
238 255 238
238 255 238
238 255 255
255 255 255
255 255 255
238 238 238
238 238 238
221 238 221
238 238 238
238 238 238
238 238 238
238 255 255
255 255 255
238 255 238
238 255 238
238 238 238
238 238 238
238 238 238
255 255 255
255 255 255
255 255 255
238 255 255
238 238 238
238 238 238
238 238 238
238 238 238
238 255 255
255 255 255
255 255 255
255 255 255
255 255 255
255 255 255
238 255 255
238 255 255
255 255 255
255 255 255
255 255 255
255 255 255
255 255 255
255 255 255
255 255 255
255 255 255
255 255 255
255 255 255
238 255 255
238 238 238
204 204 204
153 153 153
136 153 136
136 153 136
136 136 136
136 136 136
170 187 187
221 221 238
170 187 187
85 102 85
68 68 68
51 68 51
51 68 51
51 68 51
51 68 51
51 68 51
51 68 51
51 68 51
51 51 34
34 51 34
34 51 34
34 51 34
51 68 34
51 68 34
51 68 34
51 68 34
51 68 34
51 68 34
51 85 34
51 85 34
51 85 34
51 85 34
51 85 34
51 85 34
68 85 51
68 85 34
68 85 51
68 85 51
68 102 51
85 102 51
102 119 51
85 102 51
68 68 34
34 51 34
34 51 34
34 51 34
68 68 51
85 102 68
102 119 85
102 119 68
85 102 51
68 85 51
68 85 51
68 85 51
68 85 51
68 85 51
68 85 51
68 85 51
68 85 51
51 68 51
51 68 34
51 68 34
51 68 34
51 68 34
51 68 34
51 68 51
68 85 51
51 68 51
68 85 51
68 85 51
68 85 51
85 85 51
85 102 68
85 102 68
68 85 51
68 68 51
51 68 51
68 68 51
68 85 51
85 102 68
102 102 68
102 119 85
102 119 85
119 119 85
119 136 85
119 136 85
136 136 102
136 136 102
153 153 119
153 153 102
136 136 102
153 153 119
153 153 119
153 153 102
136 136 102
136 136 102
136 136 102
119 136 102
119 136 102
119 136 85
119 119 85
102 119 85
102 119 85
102 119 85
102 119 85
102 119 85
102 119 85
119 119 85
119 119 85
119 119 85
119 119 102
119 119 102
119 136 102
136 136 102
119 136 102
119 136 85
119 136 102
119 136 102
119 119 85
119 119 85
119 119 85
119 119 85
119 119 85
119 119 102
119 136 102
136 136 102
136 136 102
136 136 102
119 119 102
221 221 221
221 221 221
221 221 221
221 221 221
221 221 221
221 221 221
221 221 221
221 221 221
221 221 221
221 221 221
221 221 221
221 221 221
221 221 221
221 221 221
221 221 221
221 221 221
221 221 221
221 221 221
221 221 221
221 221 221
221 221 221
221 221 221
221 221 221
221 221 221
221 221 221
221 221 221
221 221 221
221 221 221
221 221 221
221 221 221
221 221 221
221 221 221
221 221 221
221 221 221
221 238 221
221 238 221
221 238 221
221 238 221
221 238 221
221 238 221
221 238 221
221 238 221
221 238 238
221 238 221
221 238 221
238 238 238
221 238 238
221 238 238
221 238 238
238 238 238
238 238 238
238 238 238
238 238 238
238 238 238
238 238 238
238 238 238
238 238 238
238 238 238
238 238 238
204 221 204
170 187 153
153 170 119
170 170 136
187 187 153
187 187 170
187 187 170
204 204 187
221 204 187
221 221 204
221 221 204
204 204 187
204 204 187
204 204 187
204 204 204
221 221 204
221 221 204
221 221 204
221 221 204
221 221 204
221 221 204
221 221 204
221 221 204
221 221 204
221 221 204
221 221 187
221 221 204
221 221 204
221 221 204
221 221 204
187 187 170
153 153 136
102 102 85
85 102 85
136 153 136
187 187 170
204 204 187
204 221 204
221 221 204
204 221 204
204 221 187
204 204 187
204 204 187
204 204 187
204 204 187
204 204 187
204 204 187
204 204 187
204 204 187
170 170 153
170 170 136
153 170 136
204 204 187
187 187 170
187 187 170
187 187 170
204 204 187
204 204 187
204 204 187
204 204 187
204 204 187
204 204 187
170 170 153
153 170 136
136 153 119
136 153 119
136 153 119
153 170 153
170 187 170
187 204 187
187 187 187
187 187 187
187 187 170
204 204 187
187 204 187
187 187 187
187 187 170
187 187 170
204 204 204
221 221 221
238 238 238
255 255 255
255 255 238
238 238 238
238 238 238
238 238 238
238 238 238
238 255 238
255 255 255
238 238 238
238 238 221
238 238 221
221 238 221
221 238 221
221 238 221
238 238 238
238 238 238
238 238 238
238 238 238
238 238 238
238 238 238
238 238 238
238 238 238
238 238 238
238 238 238
238 238 238
238 238 238
238 255 255
238 255 255
238 238 238
238 255 238
238 255 255
255 255 255
255 255 255
238 255 255
238 255 238
238 255 255
238 255 255
238 255 238
255 255 255
255 255 255
238 255 238
238 255 255
255 255 255
255 255 255
238 255 255
238 255 255
238 238 238
238 255 238
238 255 238
238 255 255
255 255 255
238 255 255
221 238 238
221 221 221
221 221 221
187 204 204
204 204 204
238 238 255
238 238 255
204 221 221
170 170 170
119 119 119
68 85 68
68 68 51
51 68 51
51 68 51
51 68 51
68 68 51
51 68 51
51 51 34
51 51 34
34 51 34
34 51 34
51 51 34
51 68 34
51 68 34
51 68 34
51 68 34
51 68 34
51 68 34
51 85 34
51 85 34
51 68 34
51 85 34
51 85 34
51 85 34
51 85 34
68 85 51
68 102 51
85 102 51
85 102 51
85 119 51
85 102 51
51 68 34
34 51 34
34 51 34
34 51 34
68 68 51
85 102 68
102 119 85
102 119 85
85 102 68
68 102 51
68 102 51
68 85 51
68 85 51
68 85 51
68 85 51
68 85 51
68 85 51
68 85 51
51 68 34
51 68 34
51 68 34
51 68 34
51 68 34
51 68 34
51 68 51
51 68 34
68 85 51
68 85 51
68 85 51
85 85 51
85 102 68
85 85 68
68 85 51
51 68 51
51 68 51
68 68 51
68 85 51
85 102 68
102 119 85
102 119 85
119 136 85
119 136 85
136 136 102
119 136 102
136 136 102
136 136 102
153 153 119
153 153 119
136 136 102
153 153 119
153 153 119
153 153 119
136 136 102
136 136 102
119 136 85
119 136 102
119 136 85
119 119 85
119 119 85
102 119 85
102 119 85
102 119 85
102 119 85
102 119 85
119 119 85
119 119 85
136 136 102
136 136 102
136 136 102
136 136 102
119 136 102
119 136 102
136 136 102
136 136 102
119 136 102
136 136 102
119 136 102
119 119 85
119 119 85
119 119 85
119 119 85
119 119 85
119 119 102
119 136 102
136 136 102
136 119 102
119 119 85
221 221 221
221 221 221
221 221 221
221 221 221
221 221 221
221 221 221
221 221 221
221 221 221
221 221 221
221 221 221
221 221 221
221 221 221
221 221 221
221 221 221
221 221 221
221 221 221
221 221 221
221 221 221
221 221 221
221 221 221
221 221 221
221 221 221
221 221 221
221 221 221
221 221 221
221 221 221
221 221 221
221 221 221
221 221 221
221 221 221
221 221 221
221 221 221
221 221 221
221 221 221
221 221 221
221 238 221
221 238 221
221 238 221
221 238 221
221 238 221
221 238 221
221 238 221
221 238 221
221 238 221
221 238 238
221 238 238
221 238 238
221 238 238
221 238 238
238 238 238
238 238 238
238 238 238
238 238 238
238 238 238
238 238 238
238 238 238
238 238 238
238 238 238
238 238 238
221 221 221
170 170 153
119 136 85
136 136 85
153 153 119
153 170 119
170 170 136
187 187 153
204 204 170
204 204 187
204 204 187
204 204 187
204 204 187
204 204 187
204 204 187
221 221 204
221 221 204
221 221 204
204 204 187
204 204 187
221 221 204
221 221 204
221 221 204
221 221 204
221 221 204
221 221 204
221 221 204
221 221 204
221 221 204
221 221 204
204 187 170
170 153 136
102 119 85
85 85 68
136 136 119
170 170 153
204 204 187
204 204 187
204 204 187
204 204 187
204 204 187
204 204 187
204 204 187
204 204 187
204 204 187
204 204 187
204 204 187
204 204 187
204 204 187
170 170 153
170 170 136
170 170 136
204 204 187
187 187 170
187 187 170
187 187 170
204 204 187
204 204 187
204 204 187
204 204 187
204 204 187
187 187 170
170 170 153
136 153 119
119 136 102
119 136 102
153 170 136
170 187 187
204 204 204
204 221 204
204 204 187
187 187 170
187 187 170
187 187 170
187 187 170
187 187 170
187 187 170
204 204 204
238 238 238
238 238 238
238 238 238
221 221 221
204 204 204
221 221 204
238 238 238
255 255 238
255 255 255
255 255 255
238 238 238
238 238 221
221 238 221
221 238 221
221 238 221
221 238 221
238 238 238
238 238 238
238 238 238
238 238 238
238 238 238
238 238 238
238 238 238
238 238 238
238 238 238
238 238 238
238 238 238
238 238 238
238 238 238
238 238 238
238 238 238
238 238 238
255 255 255
255 255 255
255 255 255
238 255 255
238 255 238
238 238 238
238 238 238
238 238 238
238 255 255
238 255 238
238 238 238
238 238 238
238 255 238
238 255 238
238 255 238
238 238 238
238 238 238
238 238 238
238 238 221
238 238 238
238 255 238
255 255 255
255 255 255
255 255 255
255 255 255
255 255 255
238 255 255
238 255 255
238 255 255
238 238 238
221 238 221
204 221 204
187 187 187
119 136 119
85 85 68
68 68 51
51 68 51
51 68 51
51 68 51
51 68 51
51 51 34
51 51 34
34 51 34
34 51 34
34 51 34
51 51 34
51 51 34
51 68 34
51 68 34
51 68 34
51 68 34
51 68 34
51 68 34
51 68 34
51 85 34
51 85 34
51 85 34
51 85 34
68 85 51
85 102 51
85 102 51
85 102 51
85 102 51
68 85 51
51 68 34
34 51 34
34 51 34
34 51 34
68 68 51
85 102 68
102 119 68
102 119 68
85 102 68
85 102 51
85 102 51
68 102 51
68 85 51
68 85 51
68 85 51
68 85 51
68 85 51
68 85 51
51 68 51
51 68 34
51 68 34
51 68 34
51 68 34
51 68 34
51 68 34
51 68 34
51 68 51
68 85 51
68 85 51
85 85 68
85 85 68
68 85 68
68 68 51
51 68 34
68 68 51
68 85 51
85 102 68
85 102 68
102 119 85
102 119 85
119 136 85
119 136 102
136 136 102
136 136 102
136 136 102
136 136 102
153 153 102
153 153 119
136 136 102
153 136 102
153 136 102
136 136 102
119 136 85
119 136 85
119 136 102
136 136 102
136 136 102
119 136 102
119 136 85
102 119 85
102 119 85
102 119 85
102 119 85
119 119 85
119 136 102
119 136 102
136 136 102
153 153 119
136 136 119
153 153 119
136 136 102
119 136 102
136 136 102
136 136 119
136 136 102
136 136 102
136 136 102
119 119 85
119 119 85
119 119 85
119 119 85
119 119 102
119 119 102
119 119 102
119 119 85
119 119 85
119 119 85
221 221 204
221 221 221
221 221 221
221 221 221
221 221 221
221 221 221
221 221 221
221 221 221
221 221 221
221 221 221
221 221 221
221 221 221
221 221 221
221 221 221
221 221 221
221 221 221
221 221 221
221 221 221
221 221 221
221 221 221
221 221 221
221 221 221
221 221 221
221 221 221
221 221 221
221 221 221
221 221 221
221 221 221
221 221 221
221 221 221
221 221 221
221 221 221
221 221 221
221 221 221
221 221 221
221 221 221
221 238 221
221 238 221
221 238 221
221 238 221
221 238 221
221 238 221
221 238 221
221 238 221
221 238 221
221 238 238
221 238 238
221 238 238
221 238 238
238 238 238
238 238 238
238 238 238
238 238 238
238 238 238
238 238 238
238 238 238
238 238 238
238 238 238
238 238 238
238 238 221
187 187 170
102 119 68
85 102 51
102 119 51
119 136 68
136 136 85
153 153 102
170 170 136
187 187 153
187 187 170
204 204 170
187 187 170
204 204 170
204 204 187
204 204 187
204 204 187
204 204 170
204 187 170
204 204 170
187 204 170
204 204 187
204 204 187
204 204 187
221 221 204
221 221 204
221 221 204
221 221 204
238 238 221
238 221 204
204 204 187
170 170 153
119 119 102
85 85 68
136 136 119
170 170 153
204 204 187
204 204 187
204 204 187
204 204 187
204 204 187
204 204 187
204 204 187
204 204 187
204 204 187
204 204 187
204 204 187
204 204 187
204 204 187
187 187 170
170 170 136
170 170 136
204 204 187
187 204 187
187 187 170
187 187 170
204 204 187
221 221 204
221 221 204
204 204 187
204 204 187
187 187 170
170 170 153
119 136 102
102 119 85
102 119 85
136 153 136
187 204 187
204 221 204
221 221 204
204 204 187
187 187 170
187 187 170
187 187 170
187 187 170
187 187 170
170 170 170
187 187 187
204 204 204
221 221 204
204 204 187
204 204 187
221 221 221
238 238 238
238 255 238
238 238 238
238 238 238
238 238 238
238 238 221
221 238 221
221 238 221
221 238 221
221 238 221
238 238 238
238 238 238
238 238 238
221 238 221
221 238 221
221 238 221
238 238 238
238 238 238
221 238 238
238 238 238
238 238 238
238 238 238
238 238 238
221 238 221
221 238 221
238 238 238
238 238 238
238 255 255
238 255 255
238 255 255
238 255 238
238 238 238
238 238 238
238 238 238
238 238 238
238 238 238
238 238 238
238 238 238
238 238 238
238 238 238
238 238 238
238 238 238
238 238 238
238 238 221
221 238 221
221 238 221
238 238 238
238 238 238
238 238 238
238 255 238
255 255 255
255 255 255
238 255 255
238 238 238
221 238 221
221 221 204
204 204 187
153 170 153
119 119 102
119 119 102
102 102 85
85 85 68
68 68 51
68 68 51
51 68 51
51 51 34
51 51 51
51 51 34
51 51 34
34 51 34
34 51 34
34 51 34
34 51 34
51 51 34
51 51 34
51 68 34
51 68 34
51 68 34
51 68 34
51 68 34
51 68 34
68 85 51
68 85 51
68 85 51
68 85 34
68 102 51
85 102 51
85 102 68
85 102 51
85 102 51
68 85 34
51 68 34
34 51 17
34 51 34
34 51 34
68 68 51
85 102 68
85 102 68
102 102 68
85 102 68
85 102 51
85 102 51
85 102 51
85 102 68
85 102 68
85 102 68
68 85 51
68 85 51
68 85 51
51 68 51
51 68 34
51 51 34
51 51 34
51 68 34
51 68 34
51 68 34
51 68 34
51 68 51
68 68 51
68 85 51
68 85 51
68 85 51
68 85 51
68 68 51
51 68 51
68 68 51
68 85 68
85 102 68
85 102 68
102 119 85
102 119 85
119 136 85
136 136 102
136 136 102
153 153 102
136 136 102
136 136 102
136 136 102
153 136 102
153 153 119
153 153 119
136 136 102
136 136 102
119 119 85
119 119 85
119 136 102
136 136 102
136 136 102
136 136 102
119 136 85
119 119 85
119 119 85
119 119 85
119 119 85
119 136 102
136 136 102
136 136 119
153 153 119
153 153 119
153 153 119
153 153 119
136 136 119
136 136 102
136 136 102
136 136 119
153 136 119
136 136 119
136 136 102
119 119 85
119 119 85
119 119 85
119 119 85
119 119 102
119 119 102
119 119 102
119 119 102
119 119 85
119 119 85
221 221 204
204 221 204
221 221 221
221 221 221
221 221 221
221 221 221
221 221 221
221 221 221
221 221 221
221 221 221
221 221 221
221 221 221
221 221 221
221 221 221
221 221 221
221 221 221
221 221 221
221 221 221
221 221 221
221 221 221
221 221 221
221 221 221
221 221 221
221 221 221
221 221 221
221 221 221
221 221 221
221 221 221
221 221 221
221 221 221
221 221 221
221 221 221
221 221 221
221 221 221
221 221 221
221 221 221
221 238 221
221 238 221
221 238 221
221 238 221
221 238 221
221 238 221
221 238 221
221 238 221
221 238 221
221 238 221
221 238 238
221 238 238
221 238 238
221 238 238
221 238 238
238 238 238
238 238 238
238 238 238
238 238 238
238 238 238
238 238 238
238 238 238
238 238 238
238 238 238
204 204 204
136 153 119
68 85 34
68 85 34
68 85 34
85 102 34
85 102 51
119 119 68
136 136 85
153 153 102
153 153 102
153 153 119
170 170 136
170 170 136
187 187 153
187 170 153
170 170 136
153 170 119
170 170 119
170 170 136
170 187 153
187 187 153
204 204 170
204 204 187
204 204 187
221 221 187
221 221 187
221 221 204
221 221 204
221 204 187
170 170 153
119 119 102
85 85 68
119 136 119
170 170 153
204 204 187
204 204 187
204 204 187
204 204 187
204 204 187
204 204 187
221 221 204
221 221 204
221 221 204
204 204 187
204 204 187
204 204 170
187 187 170
170 170 153
170 170 136
170 170 136
187 187 170
187 187 170
187 187 170
187 187 170
204 204 187
221 221 204
221 221 204
221 221 204
204 204 187
187 187 170
170 170 136
119 136 102
85 102 68
102 119 68
119 136 102
153 170 153
187 204 187
204 221 204
204 204 187
187 187 170
187 187 170
187 187 170
187 187 170
170 187 170
170 170 153
170 170 170
170 170 170
187 187 170
204 204 204
238 238 238
238 238 238
238 238 238
238 238 221
221 221 221
221 221 221
221 221 221
221 238 221
238 238 221
221 238 221
221 221 221
221 221 221
221 238 221
238 238 238
238 238 238
221 238 221
221 238 221
221 238 238
221 238 238
221 238 238
221 238 221
221 221 221
238 238 238
238 238 238
221 238 221
221 238 221
221 238 221
221 238 221
238 238 238
238 238 238
238 238 238
238 238 238
238 238 238
221 238 221
238 238 238
221 221 221
221 221 221
221 221 204
221 221 221
221 221 221
221 221 221
221 221 221
221 221 221
221 221 221
238 238 238
238 238 221
238 238 221
238 238 238
238 238 238
238 255 238
238 238 238
238 238 238
238 238 238
238 238 238
238 238 238
204 204 204
170 170 153
153 170 136
136 153 119
119 119 102
102 102 85
102 102 85
102 102 85
85 85 68
85 85 68
68 68 51
68 68 51
51 68 51
51 51 34
34 51 34
34 51 34
34 34 34
34 51 34
34 51 34
34 51 34
51 51 34
51 51 34
51 51 34
51 51 34
51 51 34
51 68 34
51 68 34
51 68 34
68 85 51
68 85 51
68 102 51
68 102 51
68 102 51
85 102 51
85 102 51
85 102 51
68 85 51
68 85 34
34 51 34
34 51 17
34 51 34
34 51 34
68 68 51
85 102 68
85 102 68
85 102 68
85 85 51
68 85 51
85 102 51
85 102 51
85 102 68
85 102 68
85 102 68
85 102 68
68 85 51
68 85 51
51 68 51
51 68 51
51 51 34
51 51 34
51 68 34
51 68 51
51 68 51
51 68 51
68 68 51
68 68 51
68 85 51
68 85 51
68 85 51
68 85 51
68 68 51
68 68 51
68 85 51
85 102 68
102 102 68
102 119 68
102 119 85
119 119 85
119 136 85
119 136 102
136 136 102
136 136 102
153 153 119
136 136 102
136 136 102
153 136 102
153 153 119
153 153 119
153 136 119
136 136 102
119 119 85
119 119 85
119 136 85
136 136 102
136 136 102
119 119 85
102 119 85
119 119 85
119 136 85
119 136 102
119 136 85
136 136 102
136 136 102
153 153 119
153 153 119
153 153 119
153 153 119
153 153 119
136 136 102
136 136 102
136 136 102
136 136 102
136 136 102
136 136 102
119 119 85
119 119 85
119 119 85
119 119 102
119 119 85
119 119 102
136 136 102
136 136 102
119 119 102
119 119 85
119 119 85
221 221 204
221 221 204
221 221 221
221 221 221
221 221 221
221 221 221
221 221 221
221 221 221
221 221 221
221 221 221
221 221 221
221 221 221
221 221 221
221 221 221
221 221 221
221 221 221
221 221 221
221 221 221
221 221 221
221 221 221
221 221 221
221 221 221
221 221 221
221 221 221
221 221 221
221 221 221
221 221 221
221 221 221
221 221 221
221 221 221
221 221 221
221 221 221
221 221 221
221 221 221
221 221 221
221 221 221
221 238 221
221 238 221
221 238 221
221 238 221
221 238 221
221 238 221
221 238 221
221 238 221
221 238 221
221 238 221
221 238 238
221 238 221
221 238 238
221 238 238
238 238 238
238 238 238
238 238 238
238 238 238
238 238 238
238 238 238
238 238 238
238 238 238
238 238 238
238 238 238
221 238 221
170 187 170
85 102 51
51 68 34
68 85 34
68 85 34
68 85 34
68 102 34
85 102 51
102 102 51
102 119 68
119 119 68
119 119 68
119 136 85
136 136 85
136 136 85
119 136 85
119 119 68
119 119 68
119 136 85
136 136 102
153 153 102
170 170 119
170 170 136
170 187 136
187 187 153
187 187 153
204 187 170
204 204 170
187 187 170
170 170 136
119 119 102
85 85 68
119 119 102
153 170 136
187 187 153
204 204 170
187 187 170
187 187 153
187 187 170
204 204 170
221 221 187
221 221 204
221 221 204
204 204 187
187 187 170
187 187 153
170 170 153
170 170 153
153 153 119
153 153 119
170 170 153
187 187 170
187 187 170
204 204 187
204 204 187
221 221 204
221 221 204
221 221 204
204 221 204
187 187 170
153 153 136
119 119 85
85 102 68
85 102 51
85 102 68
136 153 136
170 187 170
204 204 187
204 204 187
187 187 170
204 204 187
204 204 187
187 204 187
187 187 170
170 170 170
170 170 170
187 187 170
204 204 204
238 238 238
238 238 238
238 238 238
238 238 221
221 221 204
204 204 187
221 204 204
221 221 204
221 238 221
238 238 238
238 238 221
221 221 221
221 221 221
221 221 221
221 238 221
221 238 221
221 221 221
221 221 221
221 221 221
221 221 221
221 221 221
221 221 221
221 221 221
221 238 221
221 238 221
221 221 221
221 221 221
221 221 221
221 238 221
238 238 238
238 238 238
238 238 238
238 238 238
221 238 221
221 238 221
221 221 221
204 221 204
204 221 204
204 221 204
204 204 204
204 204 204
204 221 204
221 221 204
221 221 221
221 221 221
221 221 221
238 238 221
238 238 238
238 238 238
238 238 238
238 255 238
238 238 238
238 238 238
238 238 238
238 238 238
238 238 238
238 238 238
170 187 170
136 136 119
119 119 102
119 119 85
102 102 85
102 102 85
85 85 68
85 85 68
85 85 68
68 68 51
68 68 51
51 68 51
51 51 34
34 51 34
34 51 34
34 34 34
34 34 34
34 51 34
34 51 34
51 51 34
51 68 34
51 51 34
34 51 34
51 51 34
51 68 34
51 68 34
51 68 34
68 85 51
68 85 51
68 102 51
68 102 51
68 102 51
85 102 51
85 102 51
85 102 51
85 102 51
51 68 34
34 51 34
34 51 17
34 51 34
51 51 34
68 68 51
85 85 68
85 102 68
85 102 68
68 85 51
68 85 51
68 85 51
85 102 51
85 102 68
85 102 68
85 102 68
85 102 68
68 85 51
68 85 68
68 68 51
68 68 51
51 68 51
51 68 51
51 68 51
68 68 51
68 68 51
68 68 51
68 68 51
68 85 51
85 85 68
85 85 68
68 85 51
68 68 51
68 68 51
85 85 68
85 85 68
102 102 85
119 119 85
102 119 85
102 119 68
119 119 85
119 136 102
136 136 102
119 119 85
136 136 102
136 136 102
136 136 102
136 136 102
136 136 102
153 136 119
153 136 119
153 136 119
136 136 102
119 119 85
119 119 85
119 136 85
136 136 102
136 136 102
102 119 85
102 119 68
102 119 85
119 136 85
119 136 85
136 136 102
136 136 102
136 136 102
136 136 102
153 153 102
153 153 119
153 153 119
153 153 119
136 136 102
136 136 102
136 136 102
153 136 119
136 136 102
136 136 102
119 136 102
119 119 102
136 136 102
136 136 102
119 136 102
119 136 102
136 136 102
136 136 102
136 136 102
136 136 102
136 136 102
221 221 221
221 221 204
221 221 221
221 221 221
221 221 221
221 221 221
221 221 221
221 221 221
221 221 221
221 221 221
221 221 221
221 221 221
221 221 221
221 221 221
221 221 221
221 221 221
221 221 221
221 221 221
221 221 221
221 221 221
221 221 221
221 221 221
221 221 221
221 221 221
221 221 221
221 221 221
221 221 221
221 221 221
221 221 221
221 221 221
221 221 221
221 221 221
221 221 221
221 221 221
221 221 221
221 238 221
221 238 221
221 221 221
221 238 221
221 238 221
221 238 221
221 238 221
221 238 238
221 238 221
221 238 221
221 238 221
221 238 221
221 238 238
221 238 238
238 238 238
221 238 238
221 238 238
238 238 238
238 238 238
238 238 238
238 238 238
238 238 238
238 238 238
238 238 238
238 238 238
238 238 238
204 204 204
136 136 119
68 68 34
68 85 34
68 85 34
68 85 34
68 85 34
68 102 51
85 102 51
85 102 51
102 102 51
102 102 51
102 102 68
102 102 68
102 102 68
102 102 68
102 102 68
102 102 51
102 102 68
102 119 68
102 119 68
119 119 68
119 136 68
119 136 85
136 136 85
136 136 85
136 153 102
153 153 102
153 153 119
136 136 102
102 102 85
85 85 68
102 102 85
136 136 102
153 153 119
170 170 136
170 170 136
153 153 119
153 153 119
170 170 136
187 187 153
204 204 170
204 204 170
187 187 170
187 170 153
170 170 136
170 170 136
153 153 136
153 153 119
136 136 102
170 153 136
187 187 170
187 187 170
187 187 170
204 204 187
221 221 204
221 221 204
221 221 204
204 204 187
187 187 170
153 153 119
102 119 85
68 85 51
68 85 51
85 102 51
119 136 102
170 170 153
187 187 170
204 204 170
187 187 170
204 204 187
204 204 187
187 204 187
187 187 187
187 187 187
204 204 204
221 221 204
238 238 221
238 238 238
238 238 238
221 221 221
221 221 204
204 204 170
204 187 170
204 204 187
204 204 204
221 238 221
238 238 238
238 238 238
238 238 238
238 238 238
221 238 221
221 221 221
221 221 221
221 221 221
204 221 204
204 221 204
204 221 204
204 221 204
221 221 221
221 221 221
221 238 221
221 238 221
221 221 221
221 221 221
221 221 221
221 238 221
238 238 238
221 238 221
221 238 221
221 238 221
221 238 221
221 221 221
204 221 204
204 221 204
204 221 204
204 204 204
204 204 204
204 204 204
204 221 204
221 221 204
221 221 221
221 221 221
221 221 221
221 221 221
221 238 221
238 238 238
238 238 238
238 238 238
238 238 238
238 238 238
238 238 238
238 238 238
238 238 238
238 238 238
238 238 238
170 170 170
119 136 102
102 119 85
102 102 85
102 102 85
85 85 68
85 85 68
85 85 68
85 68 68
68 68 68
68 68 51
51 51 51
51 51 34
34 51 34
34 34 34
34 51 34
34 51 34
51 51 34
51 51 34
51 51 34
34 51 34
34 51 34
51 51 34
51 51 34
51 68 34
51 68 34
68 85 51
68 85 51
68 85 51
68 85 51
85 102 51
85 102 68
85 102 68
85 102 68
85 85 51
51 68 34
34 51 34
34 51 17
34 51 34
51 51 34
68 68 51
85 85 68
85 102 68
85 102 68
68 85 51
68 85 51
85 85 68
85 102 68
102 119 85
102 102 68
85 102 68
85 85 68
68 85 68
68 85 68
68 85 68
68 68 51
68 68 51
68 68 68
85 85 68
102 102 85
85 85 68
85 85 68
68 85 68
85 85 68
85 102 68
85 102 68
85 85 68
68 85 68
85 85 68
102 102 85
102 102 85
119 119 85
119 119 85
102 119 85
102 119 68
119 119 85
119 136 102
119 136 102
119 119 85
119 136 85
136 136 102
136 136 102
136 136 102
136 136 102
136 136 102
136 136 102
136 136 102
136 136 102
119 136 102
119 119 85
119 136 102
136 136 102
119 136 102
102 119 85
102 119 68
102 119 68
119 119 85
119 119 85
119 136 85
119 136 85
119 136 85
119 136 85
136 136 102
136 136 102
136 136 102
136 136 102
136 136 102
136 136 102
136 136 102
136 136 102
136 136 102
136 136 102
119 136 102
136 136 102
136 136 119
136 136 119
136 136 102
119 119 102
136 136 102
136 136 102
136 136 102
136 136 102
136 136 102
221 221 204
221 221 204
221 221 221
221 221 204
221 221 221
221 221 221
221 221 221
221 221 221
221 221 221
221 221 221
221 221 221
221 221 221
221 221 221
221 221 221
221 221 221
221 221 221
221 221 221
221 221 221
221 221 221
221 221 221
221 221 221
221 221 221
221 221 221
221 221 221
221 221 221
221 221 221
221 221 221
221 221 221
221 221 221
221 221 221
221 221 221
221 221 221
221 221 221
221 221 221
221 221 221
221 221 221
221 221 221
221 221 221
221 238 221
221 238 221
221 238 221
221 238 221
221 238 221
221 238 221
221 238 221
221 238 221
221 238 221
221 238 221
221 238 238
221 238 238
221 238 238
221 238 238
238 238 221
221 238 238
238 238 238
238 238 238
238 238 238
238 238 238
238 238 238
238 238 238
238 238 238
221 238 238
170 187 170
85 102 51
51 85 34
51 85 34
51 85 34
68 85 34
68 85 51
85 102 51
85 102 51
85 102 51
85 102 51
102 102 51
102 102 68
102 102 68
102 102 51
85 102 51
85 102 51
102 102 68
102 102 68
102 102 68
102 102 68
102 102 68
102 102 68
102 102 68
102 119 68
102 102 68
102 119 68
102 119 68
102 102 68
85 85 68
85 85 68
85 102 85
102 102 85
119 119 85
119 119 85
119 119 85
119 119 85
119 119 85
136 136 85
153 153 102
153 153 119
153 153 119
170 170 136
153 153 119
153 153 102
153 153 119
153 153 119
136 136 102
119 119 85
136 136 102
153 153 136
170 170 136
170 170 136
187 187 153
187 187 153
204 187 170
204 204 170
187 187 170
170 170 136
136 136 102
85 102 68
68 85 51
68 85 51
68 85 51
102 119 68
136 153 119
170 170 136
187 187 153
187 187 170
187 187 170
187 187 170
187 187 170
187 187 170
187 187 187
221 221 204
221 221 221
238 238 238
238 238 221
221 221 204
221 204 187
204 187 170
204 187 170
187 187 170
187 187 170
204 204 204
221 221 221
221 238 221
238 238 238
221 238 221
221 221 221
221 221 221
221 221 221
204 221 204
204 221 204
204 204 204
204 204 204
204 204 204
204 221 204
221 221 221
221 221 221
221 221 221
221 238 238
221 238 221
221 221 221
221 221 221
221 238 221
238 238 238
221 238 221
221 238 221
221 238 221
221 221 221
221 221 221
221 221 204
204 221 204
204 221 204
204 204 204
204 204 204
204 204 204
204 204 204
204 204 204
221 221 221
221 221 221
221 221 221
221 221 221
221 221 221
238 238 238
238 238 238
238 238 221
221 238 221
221 238 221
238 238 221
238 238 221
238 238 238
238 238 238
238 255 238
238 238 238
187 204 187
136 153 136
119 119 102
102 119 102
102 102 85
102 102 85
85 85 85
85 85 68
85 85 68
68 68 68
68 68 51
68 68 51
51 51 51
51 51 51
51 51 34
34 51 34
51 51 34
51 51 34
51 51 34
34 51 34
34 51 34
51 51 34
51 68 34
51 68 34
51 68 34
68 85 51
68 85 51
68 85 51
68 85 51
85 102 68
102 102 85
102 102 85
102 102 68
85 102 51
51 68 34
34 51 34
34 34 17
34 34 17
51 51 34
68 85 51
102 102 85
102 102 68
85 102 68
68 85 51
68 85 51
85 85 68
102 102 68
102 119 85
102 102 85
102 102 68
85 102 68
85 85 68
68 85 68
85 85 68
68 85 68
85 85 68
85 85 68
102 102 85
119 119 102
102 102 85
85 102 85
85 85 68
85 102 68
102 102 85
102 102 85
102 102 85
102 102 85
102 102 85
119 119 102
119 119 102
119 136 102
119 119 85
102 119 68
102 119 68
119 119 85
119 136 102
119 136 85
119 119 85
119 136 102
136 136 102
136 136 102
136 136 102
136 136 102
136 136 102
119 119 102
136 136 102
136 136 102
119 136 102
119 119 85
119 119 85
119 136 102
119 136 85
102 119 85
102 119 68
102 119 85
119 119 85
119 119 85
119 119 85
119 119 85
119 119 85
119 119 85
119 119 85
119 136 85
136 136 85
136 136 102
119 136 85
119 119 85
119 119 85
136 136 102
136 136 102
136 136 102
119 136 102
136 136 102
153 136 119
153 153 119
136 136 119
136 136 102
136 136 102
136 136 102
136 136 102
136 136 102
136 136 102
221 221 204
221 221 221
221 221 204
221 221 221
221 221 221
221 221 221
221 221 204
221 221 221
221 221 221
221 221 221
221 221 221
221 221 221
221 221 221
221 221 221
221 221 221
221 221 221
221 221 221
221 221 221
221 221 221
221 221 221
221 221 221
221 221 221
221 221 221
221 221 221
221 221 221
221 221 221
221 221 221
221 221 221
221 221 221
221 221 221
221 221 221
221 221 221
221 221 221
221 221 221
221 221 221
221 221 221
221 221 221
221 221 221
221 221 221
221 238 221
221 238 221
221 238 221
221 238 221
221 238 221
221 238 221
221 238 221
221 238 238
221 238 238
238 238 238
238 238 238
238 238 238
238 238 221
238 238 238
238 238 238
238 238 238
238 238 238
238 238 238
238 238 238
238 238 238
238 238 238
238 238 238
238 238 238
204 221 204
136 153 119
51 68 34
51 68 34
51 85 34
68 85 34
85 85 51
85 102 51
85 102 51
85 102 51
85 102 51
85 102 51
102 102 68
85 102 51
85 102 51
85 102 51
85 102 68
102 102 68
102 102 68
102 102 68
102 102 68
102 102 68
102 102 68
102 102 68
102 102 68
102 102 68
102 102 68
102 102 68
102 102 68
85 85 68
85 85 68
85 102 85
102 102 85
102 102 85
102 102 68
102 102 68
102 102 68
102 102 68
102 102 68
119 119 85
119 119 85
119 119 85
119 119 85
119 119 85
119 119 85
136 136 102
136 136 102
119 119 85
119 119 85
119 119 85
119 119 85
136 136 85
136 136 85
136 136 102
153 153 102
153 153 102
153 153 119
153 153 119
136 136 102
119 119 85
85 102 51
68 85 51
68 85 51
68 85 51
85 102 51
119 119 68
153 153 102
170 170 119
187 187 153
187 187 153
187 187 170
187 187 170
187 187 170
204 204 187
221 221 221
238 238 238
238 238 221
221 221 204
221 204 187
204 204 170
204 204 187
204 204 187
187 187 187
204 204 187
204 221 204
221 221 221
221 238 221
221 238 221
221 221 221
221 221 221
221 221 221
204 221 204
204 204 204
204 204 204
204 204 187
204 204 204
204 204 204
204 221 204
204 221 204
204 221 221
221 221 221
221 238 221
238 238 221
221 221 221
221 221 221
221 221 221
221 238 221
221 221 221
221 221 221
221 221 221
221 221 221
221 221 204
204 221 204
204 204 204
204 204 204
204 204 187
204 204 187
204 204 204
204 204 204
204 204 204
204 204 204
221 221 204
221 221 221
221 221 221
221 221 221
238 238 221
238 238 238
238 238 221
221 238 221
221 238 221
221 221 204
221 221 221
221 221 221
238 238 221
238 238 238
238 255 238
238 238 238
221 221 221
187 204 187
153 153 153
119 119 102
102 119 102
102 102 85
102 102 85
102 102 85
85 85 85
85 85 68
68 68 68
68 68 68
68 68 51
51 68 51
68 68 51
51 68 51
51 68 51
51 68 34
51 51 34
51 51 34
51 68 51
51 68 51
51 68 51
51 85 34
68 85 51
68 85 51
85 102 51
102 119 68
102 102 68
119 119 85
119 119 85
102 102 68
102 102 68
51 68 34
34 51 34
34 34 34
34 34 17
51 68 34
85 85 68
102 102 85
102 102 85
85 102 68
68 85 51
68 85 51
85 85 68
102 102 68
102 102 85
102 102 85
102 119 85
119 119 85
102 102 85
102 102 85
85 102 85
85 85 68
85 85 68
102 102 85
119 119 85
136 119 102
119 119 102
102 102 85
102 119 85
119 119 102
119 119 102
119 119 102
119 119 102
119 119 102
136 136 102
136 136 102
136 136 102
136 136 102
119 136 85
119 119 68
119 119 85
119 136 85
119 136 85
119 136 85
119 119 85
136 136 85
136 136 102
136 136 102
136 136 102
136 136 102
136 136 102
119 136 102
119 136 102
136 136 102
119 136 102
119 136 85
102 119 85
102 119 85
102 119 68
102 119 68
102 119 68
119 119 85
102 119 85
102 119 85
102 119 68
102 119 85
119 119 85
119 119 85
119 119 85
119 119 85
119 119 85
119 119 85
119 119 85
119 119 85
119 119 85
119 119 85
119 119 85
119 136 85
119 119 85
119 136 102
136 136 102
153 153 119
136 136 102
136 136 102
136 136 102
136 136 102
136 136 102
136 136 102
136 136 102
221 221 204
204 221 204
221 221 204
221 221 204
221 221 221
221 221 221
221 221 221
221 221 221
221 221 221
221 221 221
221 221 221
221 221 221
221 221 221
221 221 221
221 221 221
221 221 221
221 221 221
221 221 221
221 221 221
221 221 221
221 221 221
221 221 221
221 221 221
221 221 221
221 221 221
221 221 221
221 221 221
221 221 221
221 221 221
221 221 221
221 221 221
221 221 221
221 221 221
221 221 221
221 221 221
221 221 221
221 221 221
221 221 221
221 221 221
221 238 221
221 238 221
221 238 221
221 238 221
221 238 221
221 238 221
221 238 221
221 238 221
221 238 238
221 238 238
221 238 238
238 238 238
238 238 238
238 238 238
238 238 238
238 238 238
238 238 238
238 238 238
238 238 238
238 238 238
238 238 238
238 238 238
238 238 238
221 238 221
170 187 170
68 85 51
51 68 34
51 68 34
68 85 34
85 85 51
85 102 51
85 102 51
85 102 51
102 102 68
102 102 68
102 102 68
102 102 68
102 102 68
102 102 68
102 102 68
102 102 68
102 119 68
102 119 68
102 102 68
102 102 68
102 102 68
102 119 68
102 119 68
102 119 68
102 102 68
102 102 68
102 102 68
85 85 85
85 85 68
85 102 85
102 102 85
102 102 85
102 102 85
102 102 68
102 102 68
102 102 68
119 119 85
119 119 85
119 119 85
119 119 85
119 119 85
119 119 85
119 119 85
119 119 85
119 119 85
119 119 85
102 102 68
119 119 68
119 119 85
119 119 68
119 119 68
102 119 68
119 119 68
119 119 85
119 119 85
119 119 85
119 119 85
102 102 68
85 85 51
68 85 34
68 85 51
85 102 51
85 102 51
85 102 51
119 119 68
136 136 85
153 153 119
170 170 136
170 170 136
170 170 153
187 187 170
187 187 187
238 238 221
238 238 221
221 221 204
221 204 187
204 204 187
204 187 170
204 204 187
221 221 204
221 221 221
221 221 204
204 204 204
204 204 204
204 221 204
221 221 204
221 221 221
221 221 221
221 221 221
204 221 204
204 204 204
204 204 204
204 204 187
204 204 204
204 204 204
204 204 187
204 204 204
204 221 204
204 221 204
221 221 221
221 238 221
238 238 238
221 238 221
221 221 221
221 221 221
221 221 221
221 221 221
221 221 204
204 221 204
204 221 204
204 204 204
204 204 204
204 204 187
204 204 187
204 204 187
204 204 204
204 204 204
204 204 204
204 204 204
204 221 204
221 221 221
221 221 221
221 221 221
221 221 221
221 238 221
238 238 221
221 221 221
221 238 221
238 238 221
221 221 221
221 221 221
221 221 204
238 238 221
238 238 238
238 238 238
238 238 238
221 238 238
204 221 221
187 187 187
136 136 136
119 119 102
102 102 102
102 102 85
85 85 85
85 85 85
85 85 68
85 85 68
85 85 68
85 68 68
85 85 68
85 85 68
68 68 51
68 68 51
51 68 34
68 68 51
68 68 51
68 85 51
68 68 51
68 85 51
85 102 68
102 102 68
102 119 85
119 119 85
119 119 85
119 119 85
102 119 85
102 119 68
102 119 68
68 85 51
34 51 34
34 34 17
34 34 17
51 68 34
85 85 68
102 102 85
102 119 85
102 102 68
85 102 68
85 102 68
85 102 68
102 102 85
102 102 85
102 119 85
119 119 85
119 136 102
119 119 102
119 119 102
102 119 85
102 102 85
102 102 85
119 119 102
136 119 102
136 136 119
136 136 102
119 136 102
119 119 102
136 136 119
136 136 119
136 119 102
119 119 102
136 136 102
136 136 102
153 153 102
153 153 102
136 136 102
136 136 102
119 136 85
119 136 85
119 136 85
136 136 85
136 136 85
119 136 85
119 136 85
119 136 85
136 136 102
136 136 102
136 136 102
119 136 102
119 119 85
119 119 85
119 136 85
119 136 85
119 119 85
102 119 85
102 119 68
102 119 68
85 102 68
85 102 68
102 119 85
102 119 85
102 119 85
102 119 68
102 119 68
102 119 68
102 119 68
102 119 68
119 119 85
119 119 85
119 119 85
119 119 85
119 119 85
119 119 85
119 119 85
119 119 85
119 119 85
119 119 85
119 119 85
136 136 102
136 136 102
136 136 102
136 136 102
136 136 102
136 136 102
136 136 102
136 136 102
136 119 102
221 221 221
204 221 204
221 221 204
221 221 204
221 221 204
221 221 221
221 221 221
221 221 221
221 221 221
221 221 221
221 221 221
221 221 221
221 221 221
221 221 221
221 221 221
221 221 221
221 221 221
221 221 221
221 221 221
221 221 221
221 221 221
221 221 221
221 221 221
221 221 221
221 221 221
221 221 221
221 221 221
221 221 221
221 221 221
221 221 221
221 221 221
221 221 221
221 221 221
221 221 221
221 221 221
221 221 221
221 221 221
221 221 221
221 221 221
221 238 221
221 238 221
221 238 221
221 238 221
221 238 221
221 238 221
221 238 221
221 238 221
221 238 221
221 238 238
221 238 238
238 238 238
238 238 238
238 238 238
238 238 238
238 238 238
238 238 238
238 238 238
238 238 238
238 238 238
238 238 238
238 238 238
238 238 238
238 238 238
204 204 204
119 136 102
51 68 34
68 85 34
68 85 51
85 102 51
85 102 51
85 102 51
85 102 68
102 102 68
102 102 68
102 102 68
102 102 68
102 102 68
102 102 68
102 102 68
102 102 68
102 102 68
102 119 85
102 119 85
102 119 68
102 102 68
102 119 68
102 119 68
102 119 68
102 119 68
102 102 68
102 102 68
85 102 85
85 102 85
85 102 85
102 102 85
102 119 85
102 119 85
102 102 68
102 102 68
102 102 85
119 119 85
119 102 85
119 119 85
119 119 85
119 119 85
119 119 85
119 119 85
119 119 85
119 119 85
119 119 85
102 102 68
102 102 68
102 102 51
102 102 51
102 102 68
102 102 68
102 102 68
102 102 68
119 119 85
119 119 85
119 119 68
102 102 51
85 102 51
85 102 34
85 102 51
85 102 51
85 102 51
85 102 51
102 119 51
102 119 68
119 119 68
136 136 102
153 153 136
170 170 153
187 187 187
238 221 221
238 238 221
238 221 204
221 204 187
221 204 187
204 204 187
204 204 170
204 204 187
204 221 204
221 238 221
238 238 238
238 238 238
221 221 221
204 221 204
221 221 204
221 238 221
238 238 238
221 238 221
221 221 221
204 221 204
204 204 204
187 204 187
187 204 187
204 204 204
204 204 204
204 204 204
204 221 204
204 221 221
221 221 221
221 221 221
221 238 221
221 238 221
221 238 221
221 221 221
221 221 221
204 221 204
204 221 204
204 221 204
204 221 204
204 204 204
204 204 204
204 204 187
204 204 187
204 204 204
204 204 204
204 204 204
204 204 204
204 204 204
204 204 204
204 221 204
221 221 204
221 221 204
221 221 221
221 238 221
238 238 238
221 221 221
221 221 204
221 221 221
221 238 221
238 238 221
221 221 204
221 221 204
238 238 221
238 238 238
238 238 238
238 238 238
238 238 238
204 221 204
170 170 170
119 119 119
119 119 102
102 102 85
102 102 85
102 102 85
102 102 85
102 102 85
102 85 85
102 102 85
102 102 85
85 85 68
85 85 68
68 85 51
68 68 51
85 85 68
85 85 51
85 85 68
68 85 51
85 85 51
102 102 68
119 119 85
136 136 102
136 136 102
136 136 102
119 136 102
119 119 85
102 119 68
102 119 68
68 85 51
34 51 34
34 34 17
34 34 17
51 68 51
85 102 68
119 119 85
119 136 85
119 119 85
102 119 85
102 119 85
102 119 68
102 119 85
102 119 68
102 119 85
119 119 85
119 136 102
119 136 102
119 136 102
119 136 102
119 119 102
119 119 102
136 136 102
136 136 119
153 153 119
136 136 119
136 136 119
136 136 119
136 136 119
136 136 119
136 136 102
136 136 102
136 136 102
136 136 102
136 136 102
136 136 102
136 136 102
136 136 102
119 136 85
119 136 85
119 136 85
119 136 85
119 136 85
119 136 85
119 119 85
119 119 85
119 136 85
119 136 85
119 136 85
119 119 85
102 119 85
119 119 85
119 119 85
119 119 85
102 119 85
119 119 85
102 119 85
102 119 68
85 102 68
102 102 68
102 119 68
102 119 68
102 119 68
85 102 68
85 102 68
85 102 68
85 102 68
102 102 68
102 119 68
119 119 85
119 119 85
119 119 85
102 119 68
102 119 85
119 119 85
119 119 85
102 119 85
102 119 85
119 119 85
136 136 102
136 136 102
136 136 102
136 136 102
119 119 102
119 119 102
136 136 102
136 136 102
136 119 102
221 221 204
204 221 204
221 221 204
204 221 204
221 221 204
221 221 204
221 221 221
221 221 221
221 221 221
221 221 221
221 221 221
221 221 221
221 221 221
221 221 221
221 221 221
221 221 221
221 221 221
221 221 221
221 221 221
221 221 221
221 221 221
221 221 221
221 221 221
221 221 221
221 221 221
221 221 221
221 221 221
221 221 221
221 221 221
221 221 221
221 221 221
221 221 221
221 221 221
221 221 221
221 221 221
221 221 221
221 221 221
221 221 221
221 221 221
221 221 221
221 238 221
221 238 221
221 238 221
221 238 221
221 238 221
221 238 221
221 238 221
221 238 238
221 238 238
221 238 238
221 238 238
238 238 238
238 238 238
238 238 238
238 238 238
238 238 238
238 238 238
238 238 238
238 238 238
238 238 238
238 238 238
238 238 238
238 238 238
221 238 221
170 170 153
68 85 51
68 85 34
85 102 51
85 102 51
102 102 68
102 102 68
102 102 68
102 102 68
102 102 68
102 102 68
102 119 68
102 102 68
102 102 68
85 102 68
102 102 68
102 102 68
102 102 68
102 119 85
102 119 68
102 102 68
102 119 68
102 119 68
102 119 68
102 119 68
102 102 68
102 102 68
102 102 85
85 102 85
102 102 85
119 119 102
119 119 102
119 119 85
102 102 68
102 102 68
119 102 85
119 119 85
119 119 85
119 119 85
119 119 85
119 119 85
119 119 85
119 119 102
119 119 102
119 119 102
119 119 85
102 102 68
102 102 68
85 102 51
85 102 51
85 102 51
85 102 51
102 102 68
102 119 68
119 119 85
119 119 85
119 119 68
102 102 68
85 102 51
85 102 51
85 102 51
85 102 51
85 102 51
102 119 68
102 119 85
102 119 68
119 136 102
170 170 136
187 187 170
204 204 204
238 238 221
238 238 221
238 221 204
221 204 187
204 204 187
221 221 204
204 204 187
187 187 170
187 187 170
204 204 204
221 221 221
221 221 221
221 221 221
221 221 204
204 221 204
221 221 221
221 238 221
221 221 221
221 221 221
221 221 221
221 221 221
204 221 204
204 204 204
187 204 187
204 204 187
204 204 204
204 204 204
204 221 204
221 221 221
204 221 221
221 221 221
221 221 221
221 238 221
221 221 221
221 221 221
221 221 221
204 221 204
204 204 204
204 221 204
204 221 204
204 204 204
204 204 204
204 204 187
204 204 187
204 204 204
204 204 187
187 204 187
187 187 170
187 204 187
204 204 204
204 204 204
204 221 204
204 221 204
221 221 204
221 221 221
221 238 221
238 238 238
221 221 221
221 221 204
221 221 204
221 221 221
221 238 221
221 221 204
221 221 204
238 238 238
238 238 238
238 238 238
238 238 221
238 238 221
221 221 221
170 170 170
119 119 119
119 119 102
119 119 102
119 102 85
102 102 85
119 102 102
119 102 85
119 119 102
119 102 85
102 102 85
85 85 68
85 85 68
85 85 68
85 85 68
85 102 68
85 85 68
85 85 68
85 102 68
102 119 68
119 136 85
136 136 102
119 136 85
119 136 85
119 136 85
119 119 85
102 119 68
102 119 68
68 85 51
34 51 34
34 51 17
34 51 17
51 68 51
102 102 68
119 119 85
119 136 85
119 136 85
119 119 85
119 119 85
119 119 85
102 119 85
102 119 68
119 119 85
119 119 85
119 136 85
119 136 85
119 136 85
136 136 102
136 136 102
119 136 102
136 136 102
136 136 102
136 136 102
136 136 102
153 153 119
136 153 119
136 136 102
136 136 102
136 136 85
119 136 85
119 136 85
119 136 85
119 136 85
119 136 85
136 153 102
136 153 102
136 136 85
119 136 85
102 119 68
102 119 68
119 119 68
102 119 68
102 119 68
119 119 85
119 119 85
119 136 85
119 136 85
119 119 85
102 119 68
102 119 85
119 119 85
102 119 85
102 119 68
119 119 85
119 136 85
119 119 85
102 119 85
102 119 85
102 119 68
85 102 68
85 102 68
85 102 68
85 102 68
85 102 51
85 102 51
85 102 51
85 102 68
102 119 68
102 119 85
102 119 68
102 102 68
102 119 68
102 119 85
102 119 85
102 119 85
102 119 85
119 119 85
119 136 102
119 119 85
119 119 85
119 119 85
119 119 85
119 119 85
136 136 102
136 136 102
119 119 85
221 221 204
221 221 204
221 221 204
221 221 204
221 221 221
221 221 204
221 221 221
221 221 221
221 221 221
221 221 221
221 221 221
221 221 221
221 221 221
221 221 221
221 221 221
221 221 221
221 221 221
221 221 221
221 221 221
221 221 221
221 221 221
221 221 221
221 221 221
221 221 221
221 221 221
221 221 221
221 221 221
221 221 221
221 221 221
221 221 221
221 221 221
221 221 221
221 221 221
221 221 221
221 221 221
221 221 221
221 221 221
221 221 221
221 238 221
221 221 221
221 238 221
221 238 221
221 238 221
221 238 221
221 238 221
221 238 221
221 238 221
221 238 238
221 238 221
221 238 238
238 238 238
221 238 238
221 238 238
238 238 238
238 238 238
238 238 238
238 238 238
238 238 238
238 238 238
238 238 238
238 238 238
238 238 238
238 238 238
238 238 238
204 204 204
119 136 102
68 85 34
85 102 51
85 102 51
102 119 68
102 119 68
102 119 68
102 119 68
102 102 68
102 102 68
102 102 68
102 102 68
102 102 68
85 102 68
85 85 68
102 102 68
102 119 85
102 119 85
102 119 68
102 119 68
119 119 68
119 119 68
102 119 68
102 102 68
102 102 68
102 102 68
85 102 68
85 102 85
102 119 102
119 119 102
119 119 102
119 119 85
102 119 85
119 119 85
119 119 85
119 119 85
119 119 85
119 119 85
119 119 85
119 119 85
119 119 85
136 136 102
136 136 102
136 136 102
119 119 85
119 119 85
102 102 68
85 102 51
85 85 34
68 85 34
85 85 34
85 102 51
102 102 51
119 119 68
119 119 85
119 119 85
102 119 68
102 102 51
85 102 51
85 102 51
85 102 68
102 119 68
136 136 102
153 170 136
170 187 153
204 204 187
221 221 204
238 238 221
238 238 221
238 238 221
238 221 204
204 204 187
204 187 170
221 204 187
221 221 204
204 204 187
204 204 187
204 204 204
221 221 204
221 221 221
204 221 204
204 204 204
204 204 204
204 221 204
221 221 221
221 221 221
204 221 204
204 221 204
204 204 204
204 204 204
204 204 187
187 204 187
187 187 187
187 204 187
187 204 187
204 204 187
204 204 204
204 204 204
204 204 204
204 221 204
221 221 204
221 221 221
221 221 221
221 221 221
221 221 221
204 221 204
204 204 204
204 204 204
204 204 204
204 204 204
204 204 187
204 204 187
204 204 187
187 204 187
170 170 170
170 170 153
187 170 153
187 187 187
204 204 187
204 221 204
204 221 204
204 221 204
221 221 204
221 221 204
221 221 221
221 221 221
221 221 221
204 204 204
204 204 204
204 221 204
221 221 204
221 221 204
221 221 221
238 238 221
238 238 238
238 238 238
221 221 221
204 187 187
187 187 170
204 204 187
187 187 170
136 136 119
119 119 102
119 119 102
119 119 102
119 119 102
119 119 102
136 119 102
119 119 102
119 102 85
102 102 85
102 102 85
102 102 85
102 102 85
119 119 85
102 102 68
102 102 68
85 102 68
102 119 68
119 136 85
119 136 85
119 136 85
119 119 85
119 136 85
102 119 68
102 119 68
102 119 68
68 85 34
34 51 34
34 51 17
34 51 17
51 68 51
102 102 68
119 119 85
119 136 85
119 136 85
102 119 85
119 119 85
119 119 85
119 119 85
119 119 85
136 136 102
136 136 102
136 136 102
119 136 85
119 136 85
136 136 85
136 136 102
119 136 85
119 136 85
119 136 85
119 136 85
119 136 85
136 136 102
136 136 102
136 136 85
119 119 85
119 136 85
119 119 68
119 119 85
119 119 85
102 119 68
119 119 85
136 136 102
136 136 102
136 136 85
102 119 68
102 119 68
102 119 68
102 119 68
102 119 68
102 119 68
102 119 68
102 119 85
119 119 85
119 119 85
119 119 85
102 119 85
119 119 85
119 136 85
119 119 85
102 119 85
119 119 85
119 136 85
119 136 85
119 136 85
119 136 102
102 119 85
102 119 68
85 102 68
85 102 68
85 102 68
85 102 51
85 102 51
85 102 51
85 102 51
85 102 68
102 119 68
102 102 68
102 102 68
102 119 85
102 119 85
102 119 85
102 119 85
102 119 85
119 119 85
119 119 85
119 119 85
119 119 85
119 119 85
119 119 85
119 119 85
119 119 102
119 119 85
119 119 85
221 221 204
221 221 204
204 221 204
221 221 204
221 221 204
221 221 204
221 221 221
221 221 221
221 221 221
221 221 221
221 221 221
221 221 221
221 221 221
221 221 221
221 221 221
221 221 221
221 221 221
221 221 221
221 221 221
221 221 221
221 221 221
221 221 221
221 221 221
221 221 221
221 221 221
221 221 221
221 221 221
221 221 221
221 221 221
221 221 221
221 221 221
221 221 221
221 221 221
221 221 221
221 221 221
221 221 221
221 221 221
221 221 221
221 221 221
221 221 221
221 238 221
221 238 221
221 238 221
221 238 221
221 238 221
221 238 221
221 238 221
221 238 221
221 238 221
221 238 238
221 238 238
238 238 238
238 238 238
238 238 238
238 238 238
238 238 238
238 238 238
238 238 238
238 238 238
238 238 238
238 238 238
238 238 238
238 238 238
238 238 238
221 221 221
170 170 153
85 102 51
85 102 51
85 102 68
102 119 68
102 119 68
102 119 68
102 119 68
102 119 68
102 102 68
102 102 68
102 102 68
102 102 68
102 102 68
85 102 68
85 102 68
102 102 68
102 119 68
119 119 68
119 119 68
119 119 68
119 119 68
119 119 68
102 119 68
102 102 68
102 102 68
85 102 68
85 85 68
102 102 85
102 119 102
119 119 102
119 119 85
119 119 85
119 119 85
119 119 85
119 119 85
119 119 85
119 119 85
119 119 85
119 119 85
119 119 85
136 136 102
136 136 102
136 136 102
136 119 85
119 119 85
119 119 68
102 102 51
85 102 51
85 85 51
85 85 51
85 102 51
102 102 68
119 119 85
119 119 85
119 119 85
102 119 68
102 119 68
119 119 85
136 136 102
136 136 119
170 170 153
187 187 170
170 170 170
187 204 187
221 221 221
238 238 221
255 238 238
238 238 221
221 221 204
204 204 187
204 187 170
204 187 170
221 221 204
204 204 187
187 187 170
204 204 187
204 204 204
221 221 204
204 221 204
204 204 187
204 204 187
204 204 187
204 204 204
221 221 221
204 221 204
204 204 204
204 204 187
187 187 187
187 187 170
187 187 170
187 187 170
187 187 170
187 187 170
187 187 187
204 204 187
204 204 187
204 204 187
204 204 187
204 204 204
204 204 204
204 221 204
221 221 221
221 221 204
221 221 204
204 221 204
204 204 204
204 204 204
204 204 204
204 204 187
204 204 187
204 204 187
187 187 187
187 187 170
170 170 153
170 170 153
187 187 170
187 187 187
204 204 204
204 204 204
221 221 204
221 221 221
221 221 221
221 221 221
221 221 221
204 204 204
204 204 187
204 204 187
204 204 187
204 204 187
204 204 187
204 204 187
221 221 204
221 221 221
238 238 221
238 238 238
238 238 238
221 221 204
187 187 170
153 153 136
153 153 136
153 153 136
136 136 119
136 136 119
136 136 119
136 119 102
136 119 102
136 119 102
119 119 102
119 119 85
119 102 85
119 119 85
119 119 102
119 119 85
119 119 102
102 119 85
102 119 68
102 119 68
102 119 68
102 119 68
119 119 85
119 119 85
102 119 68
102 119 68
102 119 68
102 119 68
85 102 51
68 68 34
34 51 34
34 51 34
34 51 34
51 68 51
85 102 68
102 119 85
119 119 85
119 119 85
102 119 85
119 119 85
102 119 68
119 136 85
119 136 85
136 136 102
136 136 102
136 136 102
119 119 85
119 136 85
119 136 85
119 136 85
119 119 85
119 119 85
119 136 85
119 136 85
119 136 85
136 136 85
119 136 85
119 136 85
119 119 68
119 119 68
102 119 68
119 119 85
119 119 85
119 119 85
119 119 85
136 136 102
136 153 102
136 136 102
102 119 68
85 102 68
85 102 51
85 102 68
102 102 68
102 119 68
102 119 68
102 119 68
102 119 68
102 119 68
102 119 68
102 119 68
102 119 85
119 119 85
119 119 85
102 119 85
119 136 85
119 136 85
119 136 102
136 136 102
136 136 102
119 119 85
102 119 68
102 102 68
102 119 85
102 119 68
85 102 68
85 102 68
85 102 68
85 102 68
85 102 68
102 119 68
102 119 85
102 119 85
119 119 85
119 119 85
119 119 85
102 119 85
102 119 85
102 119 85
102 119 85
119 119 85
102 119 85
102 119 85
102 119 85
119 119 85
119 119 85
119 119 85
119 119 85
204 221 204
221 221 204
221 221 204
221 221 204
221 221 204
221 221 204
221 221 204
221 221 221
221 221 221
221 221 221
221 221 221
221 221 221
221 221 221
221 221 221
221 221 221
221 221 221
221 221 221
221 221 221
221 221 221
221 221 221
221 221 221
221 221 221
221 221 221
221 221 221
221 221 221
221 221 221
221 221 221
221 221 221
221 221 221
221 221 221
221 221 221
221 221 221
221 221 221
221 221 221
221 221 221
221 221 221
221 221 221
221 221 221
221 221 221
221 238 221
221 221 221
221 238 221
221 238 221
221 238 221
221 238 221
221 238 221
221 238 221
221 238 221
221 238 221
221 238 238
221 238 238
238 238 238
238 238 238
238 238 238
238 238 238
238 238 238
238 238 238
238 238 238
238 238 238
238 238 238
238 238 238
238 238 238
238 238 238
238 238 238
238 238 238
187 204 187
119 136 102
85 102 51
102 119 68
102 119 68
102 119 68
102 102 68
102 102 68
85 102 68
102 102 68
102 102 68
102 119 68
102 119 68
102 102 68
102 102 68
102 102 68
102 102 68
102 102 68
102 119 68
102 119 68
102 119 68
102 119 68
102 119 68
102 119 68
102 102 68
102 102 68
85 102 68
85 85 68
85 85 68
85 102 85
102 102 85
119 119 85
119 119 85
119 119 85
119 119 85
119 119 85
119 119 85
119 119 85
119 119 85
119 119 85
119 119 85
136 136 102
136 136 102
136 136 102
119 119 85
119 119 85
119 119 68
102 102 68
102 102 68
102 102 68
102 102 68
102 102 68
119 119 85
136 119 85
136 136 102
136 119 85
119 119 85
102 119 85
102 119 85
119 136 102
153 153 119
153 153 136
170 170 153
204 204 204
221 221 221
238 238 221
238 238 221
238 238 221
221 221 204
204 204 187
204 204 170
204 187 170
204 187 170
204 204 187
204 187 170
187 170 153
187 187 170
187 204 187
204 204 204
204 204 204
204 204 187
204 204 187
187 204 187
204 204 204
221 221 204
204 204 187
187 187 170
170 170 153
170 170 153
170 170 153
170 170 153
170 170 153
170 170 170
187 187 170
187 187 170
187 187 170
187 187 170
187 204 187
204 204 187
204 204 187
204 204 187
204 204 204
204 204 204
204 204 204
204 221 204
204 204 204
204 204 204
204 204 204
204 204 204
204 204 187
204 204 187
187 204 187
187 187 170
187 187 170
187 187 170
187 204 187
204 204 204
204 204 204
204 204 204
204 204 204
204 221 204
204 221 204
221 221 221
221 221 221
221 221 204
204 204 204
204 204 187
204 204 187
204 204 187
204 204 187
204 204 187
204 204 187
221 221 204
221 221 204
221 221 221
238 221 221
238 238 238
238 238 238
221 238 221
204 204 204
170 170 170
170 170 153
136 136 136
136 136 119
136 136 119
136 136 119
136 119 102
136 119 102
119 119 102
119 119 102
119 119 85
119 119 85
119 119 102
119 119 102
119 119 102
119 119 85
102 119 85
102 119 68
102 119 68
102 119 68
102 119 68
102 119 68
102 119 68
102 119 68
102 119 68
85 119 51
85 102 51
51 68 34
34 51 34
34 51 34
34 51 34
51 68 51
85 102 68
102 119 85
119 119 85
102 119 85
102 119 85
119 119 85
119 119 85
119 136 85
119 136 85
136 136 102
119 136 85
119 119 85
102 119 68
119 119 85
119 119 68
102 119 68
102 119 68
102 119 85
119 119 85
102 119 68
119 136 85
119 136 85
119 136 85
119 136 68
119 119 68
119 136 85
119 119 85
119 136 85
119 136 85
119 136 85
119 136 85
119 136 102
136 153 102
136 136 102
102 119 85
85 102 68
85 102 51
85 102 51
85 102 68
85 102 68
85 102 68
102 102 68
85 102 68
85 102 68
102 102 68
85 102 68
85 102 68
102 102 68
102 119 68
102 119 85
119 136 85
119 136 85
136 136 102
136 136 102
136 136 102
119 136 85
102 119 85
102 119 85
119 119 85
102 119 85
102 119 68
102 119 85
102 119 68
102 119 68
102 119 68
102 102 68
119 119 85
119 119 85
119 136 102
119 136 102
119 119 85
119 119 85
102 119 85
102 119 85
102 119 68
102 119 68
102 102 68
102 102 68
102 102 68
102 119 85
102 119 85
102 102 85
102 102 68
221 221 221
204 221 204
221 221 204
204 221 204
221 221 204
221 221 204
221 221 204
221 221 204
221 221 221
221 221 221
221 221 221
221 221 221
221 221 221
221 221 221
221 221 221
221 221 221
221 221 221
221 221 221
221 221 221
221 221 221
221 221 221
221 221 221
221 221 221
221 221 221
221 221 221
221 221 221
221 221 221
221 221 221
221 221 221
221 221 221
221 221 221
221 221 221
221 221 221
221 221 221
221 221 221
221 221 221
221 221 221
221 221 221
221 221 221
221 221 221
221 221 221
221 238 221
221 238 221
221 238 221
221 238 221
221 238 221
221 238 221
221 238 221
221 238 238
221 238 238
221 238 238
238 238 238
238 238 238
238 238 238
238 238 238
238 238 238
238 238 238
238 238 238
238 238 238
238 238 238
238 238 238
238 238 238
238 238 238
238 238 238
238 238 238
221 221 221
170 170 153
102 119 68
102 119 68
102 102 68
85 102 51
85 102 51
102 102 68
102 102 68
102 102 68
102 119 68
102 119 68
102 119 68
102 102 68
102 102 68
102 102 68
102 102 68
102 102 68
102 102 68
102 102 68
102 119 68
102 119 68
102 119 68
102 102 68
102 102 68
102 102 68
102 102 68
85 102 68
68 85 68
68 85 68
85 85 68
102 119 85
119 119 85
119 119 85
102 102 68
119 119 68
119 119 68
119 119 85
119 119 85
119 119 85
119 119 85
136 136 102
136 136 102
136 119 102
119 119 85
119 119 85
119 119 85
119 119 85
136 136 102
119 119 85
119 119 85
119 102 68
136 119 85
136 136 102
153 136 102
153 136 102
119 119 85
119 119 85
136 136 102
136 136 102
153 153 119
170 170 153
204 204 187
238 221 221
238 238 221
238 238 221
238 238 221
238 221 204
221 204 187
221 204 187
204 187 170
187 187 153
187 187 170
204 204 187
187 187 153
170 170 153
170 170 153
187 187 170
187 187 187
187 204 187
187 187 187
187 187 170
187 187 187
204 204 187
204 204 187
187 187 170
170 170 153
170 170 153
170 170 153
170 170 153
170 170 153
170 170 153
170 170 153
170 170 153
170 170 170
187 170 170
170 170 153
187 187 170
187 187 187
187 187 170
187 187 170
187 187 187
204 204 187
204 204 187
204 204 187
204 204 204
204 204 204
204 204 187
204 204 187
204 204 187
204 204 187
187 204 187
187 204 187
187 187 170
187 187 187
187 204 187
187 204 187
187 204 187
187 204 187
204 204 187
204 204 187
204 204 204
204 221 204
221 221 204
204 204 204
204 204 187
187 187 187
187 187 187
204 187 187
204 204 187
204 204 187
204 187 170
204 204 187
221 221 204
238 238 221
221 221 204
238 238 221
238 238 221
238 238 238
238 238 221
238 221 221
221 221 204
170 170 170
136 136 119
119 119 102
136 136 119
136 136 119
136 136 119
136 119 102
119 119 102
119 119 102
119 119 102
119 119 102
136 136 102
136 136 102
119 119 85
119 119 85
102 119 68
102 119 68
102 119 68
102 119 68
85 102 68
85 102 51
85 102 51
85 102 51
85 102 51
85 85 51
51 68 34
34 51 34
34 51 34
34 51 34
51 68 51
85 102 68
102 119 85
119 119 85
102 119 85
119 119 85
119 136 85
119 136 85
119 136 85
136 136 102
119 136 85
119 119 85
102 119 85
102 119 68
102 119 68
102 119 68
102 119 68
102 119 68
119 119 85
119 119 85
119 119 85
119 136 85
119 136 85
119 136 85
102 119 68
102 119 68
119 136 85
119 136 85
119 136 102
119 136 85
119 136 85
119 136 85
119 136 85
119 136 102
119 136 85
102 119 68
85 102 68
85 102 51
85 102 51
85 102 68
85 102 68
85 102 68
85 102 68
85 102 68
85 102 68
85 102 68
85 102 68
85 102 68
85 102 68
102 102 68
102 119 85
102 119 85
119 119 85
119 136 102
119 136 102
119 136 85
119 136 85
119 136 85
119 136 102
119 119 85
102 119 85
102 119 85
119 119 85
119 136 85
119 136 102
102 119 85
102 119 85
119 119 85
119 136 102
119 136 102
119 119 102
102 119 85
102 119 85
102 119 85
102 119 68
102 119 68
102 119 68
85 102 68
85 102 68
85 102 68
102 102 68
102 102 68
102 102 68
85 102 68
221 221 204
221 221 204
221 221 204
221 221 221
221 221 204
221 221 204
221 221 204
221 221 204
221 221 204
221 221 221
221 221 221
221 221 221
221 221 221
221 221 221
221 221 221
221 221 221
221 221 221
221 221 221
221 221 221
221 221 221
221 221 221
221 221 221
221 221 221
221 221 221
221 221 221
221 221 221
221 221 221
221 221 221
221 221 221
221 221 221
221 221 221
221 221 221
221 221 221
221 221 221
221 221 221
221 221 221
221 221 221
221 238 221
221 221 221
221 221 221
221 238 221
221 238 221
221 238 221
221 238 221
221 238 221
221 238 221
221 238 221
221 238 221
221 238 238
221 238 238
221 238 238
221 238 238
221 238 238
221 238 238
238 238 238
238 238 238
238 238 238
238 238 238
238 238 238
238 238 238
238 238 238
238 238 238
238 238 238
238 238 238
238 238 238
238 238 238
204 204 187
136 153 102
102 119 68
85 102 51
85 102 51
85 102 51
102 102 68
102 119 68
102 119 68
102 102 68
102 102 68
102 102 68
102 102 68
102 102 51
85 102 68
85 102 51
102 102 51
102 102 51
102 102 51
102 119 68
102 119 68
102 102 68
102 102 68
102 102 68
102 119 68
102 102 68
85 102 68
68 85 68
68 85 68
85 85 68
102 102 85
119 119 85
119 119 68
102 102 68
102 102 68
102 102 68
102 102 68
119 119 85
119 119 85
119 119 85
136 136 102
136 136 102
136 119 85
119 119 85
119 119 85
136 119 85
136 136 102
153 136 102
136 136 102
136 119 85
119 119 85
136 119 85
153 136 102
170 153 119
153 153 119
136 136 102
136 136 102
136 136 102
136 136 119
170 170 136
221 221 204
238 238 221
238 221 204
221 221 204
238 238 221
238 238 221
221 204 187
221 204 187
204 187 170
187 170 153
187 170 153
204 187 170
187 187 153
170 170 136
170 170 136
187 187 170
187 187 170
187 187 170
187 187 170
187 187 170
187 187 170
187 204 187
204 204 187
187 187 187
187 187 170
170 170 170
170 170 153
170 170 153
170 170 153
153 170 153
170 170 153
170 170 153
170 170 153
170 170 153
170 170 153
170 170 153
170 170 153
187 170 170
187 187 170
187 187 170
187 187 170
187 187 170
187 187 187
204 204 187
204 204 187
204 204 187
187 187 187
187 187 187
187 187 187
187 187 187
187 187 187
187 187 170
187 187 170
187 187 170
187 187 170
187 187 170
187 187 187
187 204 187
187 204 187
204 204 204
204 204 204
204 204 204
204 204 204
204 204 204
204 204 204
204 204 187
204 204 187
204 204 187
187 187 170
204 187 170
204 204 187
187 187 170
204 204 187
221 221 204
221 221 204
221 221 204
238 238 221
238 238 238
238 238 238
238 238 221
238 221 204
221 221 204
187 187 170
153 153 136
136 136 119
136 136 102
136 136 102
136 119 102
119 119 102
119 119 102
119 119 102
136 136 102
136 136 102
136 136 102
119 119 85
102 119 85
102 102 68
102 119 68
85 102 68
85 102 68
85 102 51
85 102 51
68 85 51
85 102 51
85 102 51
85 85 51
51 68 34
34 51 34
34 51 34
34 51 34
68 68 51
102 102 68
102 119 85
102 119 68
102 119 68
119 119 85
119 119 85
119 136 85
119 136 85
119 136 85
119 136 85
119 136 85
102 119 85
102 119 85
102 119 68
102 119 68
102 119 68
119 119 85
119 136 85
119 136 85
119 136 85
119 136 85
119 136 85
119 136 85
102 119 85
102 119 68
119 119 85
119 136 85
136 136 102
119 136 102
119 136 85
119 136 85
119 119 85
119 119 85
119 119 85
102 119 85
85 102 68
85 102 68
85 102 51
85 102 68
85 102 68
102 102 68
85 102 68
102 102 85
85 102 68
85 102 68
85 102 68
85 102 68
102 102 85
102 119 85
102 119 85
102 119 85
102 119 85
119 119 85
119 119 85
119 136 85
102 119 85
119 119 85
119 119 85
119 119 85
102 119 85
119 119 85
119 136 85
119 136 102
119 136 102
119 119 85
119 119 85
119 119 85
119 119 85
119 119 85
119 119 85
102 119 68
102 119 68
102 119 85
102 119 68
102 119 85
102 119 68
85 102 68
85 102 68
102 102 68
85 102 68
102 102 68
85 102 68
85 102 68
221 221 204
204 221 204
221 221 204
221 221 204
221 221 204
221 221 204
204 221 204
221 221 204
221 221 204
221 221 221
221 221 221
221 221 221
221 221 221
221 221 221
221 221 221
221 221 204
221 221 221
221 221 221
221 221 221
221 221 221
221 221 221
221 221 221
221 221 221
221 221 221
221 221 221
221 221 221
221 221 221
221 221 221
221 221 221
221 221 221
221 221 221
221 221 221
221 221 221
221 221 221
221 221 221
221 221 221
221 221 221
221 221 221
221 221 221
221 221 221
221 238 221
221 238 221
221 238 221
221 238 221
221 238 221
221 238 221
221 238 221
221 238 221
221 238 238
221 238 238
221 238 238
221 238 238
221 238 238
238 238 238
221 238 238
238 238 238
238 238 238
238 238 238
238 238 238
238 238 238
238 238 238
238 238 238
238 238 238
238 238 238
238 238 238
238 238 238
221 221 221
170 170 153
102 119 68
85 102 51
85 102 51
85 102 51
102 119 68
102 119 68
102 119 68
102 119 68
102 102 68
102 102 68
102 119 68
102 119 68
102 102 68
102 102 68
85 102 51
85 102 51
85 102 51
102 102 51
102 119 68
102 102 68
102 102 68
102 102 68
102 119 68
102 102 68
85 102 68
68 85 68
68 68 68
85 85 68
102 102 85
119 119 85
102 119 68
102 102 68
102 102 68
102 102 68
102 102 68
102 119 68
119 119 85
119 119 85
119 119 85
119 119 102
119 119 85
119 119 85
119 119 85
136 136 85
153 136 102
153 136 119
153 136 102
136 119 102
136 119 85
136 136 102
153 136 102
170 153 119
153 153 119
153 153 119
136 136 102
153 153 119
170 170 153
221 221 204
238 238 221
221 221 187
221 204 187
238 221 204
238 238 221
221 221 204
221 204 187
204 204 170
187 187 153
170 170 136
170 170 136
204 187 170
170 170 136
170 170 136
170 170 153
187 187 170
187 187 170
187 187 153
170 170 153
170 153 136
187 187 170
187 204 187
187 204 187
187 187 187
187 187 170
170 170 153
170 170 153
170 170 153
170 170 153
153 153 136
153 153 136
170 153 153
170 153 153
170 170 153
170 170 153
170 153 153
170 170 153
170 170 153
170 170 153
170 170 153
170 170 153
187 170 170
187 187 170
187 187 170
187 187 170
187 187 170
187 187 170
187 187 187
187 187 170
170 170 170
170 170 170
170 170 153
170 170 153
170 170 153
170 170 153
170 170 170
187 187 170
204 204 187
204 204 204
204 204 204
204 221 204
204 221 221
221 221 221
204 204 204
204 204 204
204 204 204
204 204 187
187 187 170
187 187 170
187 187 170
204 187 170
204 204 170
204 187 170
221 204 187
221 221 204
221 221 204
238 221 221
238 238 221
238 238 221
238 238 238
221 221 204
221 221 187
221 221 204
187 187 170
153 153 136
136 136 119
119 119 102
119 119 102
119 119 85
119 119 102
119 119 102
119 136 102
136 136 102
119 136 102
119 119 85
102 119 68
85 102 68
85 102 68
85 102 68
85 102 51
68 85 51
68 85 51
68 85 51
85 102 51
85 102 51
68 85 51
51 68 34
34 51 34
34 51 34
51 51 34
68 68 51
102 102 85
102 119 85
102 119 85
102 119 85
102 119 85
102 119 68
102 119 85
102 119 68
119 136 85
119 136 85
119 136 85
119 136 85
119 119 85
102 119 85
102 119 68
102 119 68
119 136 85
119 136 102
119 136 102
119 119 85
119 119 85
119 119 85
119 136 85
119 136 85
102 119 85
102 119 85
119 119 85
119 136 102
119 136 85
119 136 85
119 119 85
119 119 85
119 119 85
119 119 85
102 119 85
102 119 85
85 102 68
85 102 68
102 102 68
102 102 68
102 102 68
85 102 68
102 102 85
102 102 68
102 102 68
85 102 68
85 102 68
102 119 85
119 119 85
119 119 85
102 119 85
102 102 68
119 119 85
119 119 85
119 136 85
102 119 85
102 119 85
102 119 85
102 119 85
119 119 85
119 136 85
119 136 85
119 119 85
119 119 85
119 119 85
119 119 85
119 119 85
102 119 85
102 119 85
102 119 85
102 102 68
102 119 68
102 119 85
102 119 85
119 136 85
102 119 85
85 102 68
85 102 68
85 102 68
85 102 68
85 102 68
85 102 68
85 102 68
221 221 204
221 221 204
221 221 204
221 221 204
221 221 204
221 221 204
221 221 204
221 221 204
221 221 204
221 221 204
221 221 221
221 221 221
221 221 221
221 221 221
221 221 221
221 221 221
221 221 221
221 221 221
221 221 221
221 221 221
221 221 221
221 221 221
221 221 221
221 221 221
221 221 221
221 221 221
221 221 221
221 221 221
221 221 221
221 221 221
221 221 221
221 221 221
221 221 221
221 221 221
221 221 221
221 221 221
221 221 221
221 221 221
221 221 221
221 221 221
221 221 221
221 238 221
221 238 221
221 238 221
221 238 221
221 238 221
221 238 221
221 238 221
221 238 221
221 238 238
238 238 238
221 238 238
221 238 238
221 238 238
238 238 238
238 238 238
238 238 238
238 238 238
238 238 238
238 238 238
238 238 238
238 238 238
238 238 238
238 238 238
238 238 238
238 238 238
238 238 238
204 204 187
119 136 85
85 102 51
85 102 51
85 102 51
102 119 68
102 119 68
102 119 68
102 119 68
102 119 68
102 102 68
102 119 68
102 119 68
102 119 68
102 102 68
102 102 51
85 102 51
85 102 51
85 102 51
102 119 68
102 102 68
102 119 68
102 119 68
119 119 68
102 102 68
85 102 68
68 85 68
68 68 68
85 85 68
102 119 85
119 119 85
119 119 85
102 119 68
102 102 68
102 119 68
102 119 68
119 119 68
102 119 68
119 119 85
119 119 85
119 119 85
136 136 102
136 136 85
136 136 85
136 136 102
153 136 102
153 136 119
153 136 102
136 136 102
136 119 102
136 136 102
153 136 102
153 136 102
153 136 102
136 136 102
153 153 119
187 187 170
221 221 204
238 238 221
221 204 187
204 187 170
221 221 204
238 238 221
238 221 204
221 204 187
204 204 170
204 187 153
187 170 153
170 153 136
187 170 153
170 170 136
170 153 136
170 153 136
170 170 136
170 170 153
187 187 170
170 170 153
153 136 119
170 170 153
204 204 187
187 187 187
187 204 187
187 187 170
170 170 153
170 170 153
170 170 153
170 153 153
153 153 136
153 153 136
153 153 136
153 153 136
153 153 136
153 153 136
153 153 136
153 153 136
153 153 136
170 153 136
170 170 153
170 170 153
170 170 153
170 170 153
187 187 170
187 187 170
170 170 153
170 170 153
187 187 170
187 187 170
170 170 170
170 170 153
170 170 153
170 153 153
153 153 136
170 153 136
170 170 153
170 170 153
187 187 170
187 187 170
187 204 187
204 204 204
221 221 221
221 221 221
221 238 238
221 221 221
204 221 204
204 204 204
204 204 187
187 187 170
187 187 170
187 187 153
187 187 170
204 187 170
187 187 153
204 187 170
221 221 204
221 221 204
221 221 204
238 238 221
238 238 221
238 238 221
238 238 221
221 221 204
221 204 187
221 221 204
187 187 170
136 136 119
119 119 102
119 119 85
119 119 85
102 119 85
119 119 85
119 119 85
119 119 85
119 119 85
119 119 85
102 119 68
85 102 68
85 102 68
85 102 51
68 85 51
68 85 51
85 85 51
85 85 51
85 85 51
85 85 51
68 85 51
51 68 34
34 51 34
34 51 34
51 68 34
68 68 51
85 102 68
102 119 85
102 119 85
119 119 85
102 119 85
102 119 85
102 119 68
102 119 68
119 136 85
119 136 85
119 136 85
119 136 85
136 136 102
119 136 85
119 119 85
102 119 85
119 136 85
119 136 102
136 136 102
119 119 85
102 119 85
119 119 85
119 119 85
119 119 85
102 119 85
102 119 85
119 136 85
119 136 85
119 136 85
119 136 85
119 136 85
119 136 85
119 136 85
119 136 85
119 119 85
102 119 85
85 102 68
102 119 68
102 119 85
102 119 85
102 119 85
102 102 85
102 102 85
102 102 68
85 102 68
85 102 68
102 102 85
102 102 85
119 119 85
102 119 85
102 119 85
102 119 85
119 119 85
119 119 85
119 136 85
119 136 85
119 136 85
102 119 85
119 119 85
119 119 85
119 119 85
119 119 85
102 119 85
102 119 85
102 119 85
102 119 85
102 119 85
102 119 68
102 102 68
102 119 68
102 119 68
102 119 68
102 119 85
119 136 85
119 136 85
102 119 85
85 119 68
85 102 68
85 102 68
85 102 68
85 102 68
85 102 68
85 102 68
204 221 204
221 221 204
221 221 204
221 221 204
221 221 204
221 221 204
221 221 204
221 221 204
221 221 221
221 221 221
221 221 221
221 221 221
221 221 221
221 221 221
221 221 221
221 221 221
221 221 221
221 221 221
221 221 221
221 221 221
221 221 221
221 221 221
221 221 221
221 221 221
221 221 221
221 221 221
221 221 221
221 221 221
221 221 221
221 221 221
221 221 221
221 221 221
221 221 221
221 221 221
221 221 221
221 221 221
221 221 221
221 221 221
221 221 221
221 221 221
221 221 221
221 238 221
221 238 221
221 238 221
221 238 221
221 238 221
221 238 221
221 238 221
221 238 221
221 238 238
221 238 238
238 238 238
221 238 238
221 238 238
238 238 238
238 238 238
238 238 238
238 238 238
238 238 238
238 238 238
238 238 238
238 238 238
238 238 238
238 238 238
238 238 238
238 238 238
238 238 238
221 221 221
153 170 136
85 102 51
85 102 51
85 102 51
85 102 51
102 119 68
102 119 68
102 119 68
102 119 68
102 119 68
102 119 68
102 119 68
102 119 68
102 102 51
85 102 51
85 102 51
85 102 51
85 102 51
102 102 68
102 102 68
102 102 68
102 119 68
102 119 68
102 102 68
85 102 68
85 85 68
85 85 68
102 102 85
102 119 85
119 119 85
119 119 85
119 119 68
119 119 68
119 119 68
119 119 68
119 119 85
102 119 85
119 119 85
119 136 102
136 136 102
136 136 102
136 136 102
136 136 102
153 136 102
153 153 119
170 153 119
153 136 119
136 119 102
136 119 85
153 136 102
153 153 119
153 136 102
153 136 102
153 153 119
187 187 153
221 221 204
238 238 221
221 221 187
204 187 153
221 204 187
238 238 221
221 221 204
221 221 187
221 204 170
204 187 153
187 187 153
170 170 136
170 153 136
187 170 153
153 153 119
170 170 136
170 153 136
153 153 119
170 153 136
170 170 136
153 136 119
153 153 136
204 204 204
204 204 204
187 187 187
187 187 170
170 170 170
170 170 153
170 153 153
153 153 136
153 153 136
153 153 136
153 153 136
136 136 119
136 136 119
153 136 119
153 136 119
153 153 119
153 136 119
153 136 119
153 153 136
170 153 153
170 170 153
170 170 153
170 170 153
170 170 153
170 170 153
170 170 153
170 170 153
170 170 153
170 170 153
170 170 153
153 153 136
153 153 136
153 153 136
153 136 119
153 153 136
153 153 136
170 170 153
170 170 153
187 187 170
187 187 170
187 204 187
204 204 204
204 221 204
221 238 221
238 238 238
221 221 221
204 221 204
204 204 187
187 187 170
187 187 170
170 170 153
187 187 153
187 170 153
187 170 153
187 170 153
221 204 187
221 221 204
221 204 187
221 221 204
238 238 221
238 238 221
238 238 221
238 238 221
221 204 187
221 204 187
238 221 204
170 170 153
119 136 102
119 119 85
119 119 85
102 119 85
102 119 68
102 119 68
102 119 68
102 119 68
102 119 68
85 102 68
85 102 68
85 102 51
85 102 51
68 85 51
68 85 51
85 102 51
85 102 68
85 85 68
68 85 51
68 68 51
51 68 34
34 51 34
34 51 34
51 68 34
68 85 51
85 102 68
102 119 85
119 119 85
102 119 85
119 119 85
102 119 85
119 119 85
119 136 85
119 136 85
119 136 85
119 136 85
119 136 85
136 153 102
136 153 102
119 136 85
119 136 85
119 136 85
136 136 102
136 153 102
119 136 102
119 119 85
119 119 85
119 136 102
119 119 85
102 119 68
102 119 85
136 136 102
136 136 102
119 136 102
119 136 85
119 136 85
119 136 85
119 136 85
119 136 85
119 119 85
102 119 68
102 119 68
102 119 85
119 119 85
119 119 85
102 119 85
102 119 85
102 119 85
102 102 85
102 102 85
102 102 85
119 119 85
119 119 85
119 119 85
119 119 85
119 119 85
119 119 85
119 119 85
119 136 85
119 119 85
119 119 85
119 136 85
119 119 85
119 136 85
119 136 85
119 119 85
102 119 85
102 119 68
102 119 68
102 119 68
102 119 68
102 102 68
85 102 68
102 119 68
102 119 68
102 119 85
102 119 85
102 119 85
119 136 85
119 136 85
102 136 85
102 119 68
85 102 68
102 119 68
102 119 85
102 119 68
85 102 68
85 102 68
221 221 204
204 221 204
221 221 204
221 221 204
204 221 204
221 221 204
221 221 204
221 221 204
221 221 204
221 221 204
221 221 204
221 221 221
221 221 221
221 221 221
221 221 221
221 221 221
221 221 221
221 221 221
221 221 221
221 221 221
221 221 221
221 221 221
221 221 221
221 221 221
221 221 221
221 221 221
221 221 221
221 221 221
221 221 221
221 221 221
221 221 221
221 221 221
221 221 221
221 221 221
221 221 221
221 221 221
221 221 221
221 221 221
221 221 221
221 221 221
221 221 221
221 238 221
221 238 221
221 238 221
221 238 221
221 238 221
221 238 221
221 238 221
221 238 221
221 238 221
221 238 221
221 238 221
221 238 221
221 238 238
221 238 238
238 238 238
238 238 238
238 238 238
238 238 238
238 238 238
238 238 238
238 238 238
238 238 238
238 238 238
238 238 238
238 238 238
238 238 238
238 238 238
187 204 187
119 136 85
85 85 51
85 85 51
85 102 51
102 119 51
102 119 51
102 119 51
102 119 51
102 102 51
102 119 51
102 119 51
102 102 51
85 102 51
85 102 51
85 102 51
85 102 51
85 102 51
85 102 68
85 102 51
102 102 51
102 102 51
102 102 51
85 102 68
85 102 68
85 85 68
85 85 85
102 119 85
119 119 85
119 136 85
119 136 68
119 119 68
119 119 68
119 136 85
119 136 68
119 119 85
102 119 85
119 119 85
119 136 102
136 153 102
153 153 119
153 153 119
153 153 119
153 153 102
153 153 119
170 153 119
153 136 102
136 119 85
136 119 85
153 136 102
153 153 119
153 153 119
153 136 102
187 187 153
221 204 187
238 221 204
238 221 204
204 187 170
204 187 170
238 221 204
238 221 204
221 204 187
221 204 187
204 204 170
187 187 153
187 170 136
170 153 119
170 153 119
170 153 136
153 153 119
170 170 136
153 153 136
153 136 119
153 136 119
153 153 136
153 153 136
187 187 170
204 204 204
187 204 187
187 187 170
170 170 170
170 170 153
170 170 153
153 153 153
153 153 136
153 136 119
136 136 119
136 136 119
136 136 119
136 136 102
136 136 119
136 136 119
153 136 119
136 136 119
153 136 119
153 153 136
170 153 136
170 153 136
170 153 136
170 153 153
170 153 153
170 153 136
170 153 136
170 153 136
170 153 153
170 153 153
170 153 136
153 153 136
153 153 136
153 153 136
153 136 119
153 136 119
153 136 119
153 153 119
153 153 136
170 170 153
170 170 153
187 187 170
204 204 187
204 221 204
204 221 221
238 238 238
221 238 221
204 204 204
204 204 187
187 187 187
187 187 170
170 170 153
170 170 153
187 170 153
170 153 136
187 170 136
204 204 170
221 221 204
221 221 204
221 204 187
238 221 204
238 221 221
238 221 221
238 238 221
221 221 204
204 187 170
221 204 187
238 221 204
170 170 153
119 119 85
102 119 85
102 102 68
85 102 68
85 102 68
85 102 68
85 102 68
85 102 51
85 102 51
85 102 51
85 102 51
68 85 51
68 85 51
68 85 51
85 85 51
85 85 68
85 85 68
85 85 51
68 68 51
51 68 34
51 51 34
51 51 34
51 68 34
68 85 51
85 102 68
102 119 85
102 119 85
102 119 85
119 119 85
119 119 85
119 136 85
136 136 102
119 136 102
136 136 102
119 136 85
119 119 85
136 136 102
136 153 102
136 153 102
119 136 85
119 136 85
136 153 102
153 153 119
136 153 102
136 136 102
119 136 102
136 136 102
119 119 85
102 119 85
102 119 85
119 136 102
136 136 102
136 136 102
119 136 85
119 136 85
119 136 85
119 119 85
102 119 85
102 119 85
102 119 68
119 119 85
119 136 85
119 136 85
119 136 85
119 119 85
119 119 85
102 119 85
102 119 85
102 119 85
102 119 85
119 119 85
119 119 85
119 136 102
119 119 85
119 119 85
119 119 85
119 119 85
119 119 85
119 119 85
102 119 85
102 119 68
119 119 85
119 136 85
119 119 85
102 119 68
102 119 68
102 119 68
102 119 68
102 119 68
102 119 68
85 102 68
85 102 68
85 102 68
102 119 68
119 119 85
119 136 85
119 136 85
102 119 68
119 136 85
102 136 85
102 119 68
102 119 68
102 119 68
102 136 85
102 119 85
102 119 68
102 119 68
221 221 204
221 221 204
221 221 204
221 221 204
221 221 204
221 221 204
221 221 204
221 221 204
221 221 204
221 221 204
221 221 204
221 221 221
221 221 221
221 221 221
221 221 221
221 221 221
221 221 221
221 221 221
221 221 221
221 221 221
221 221 221
221 221 221
221 221 221
221 221 221
221 221 221
221 221 221
221 221 221
221 221 221
221 221 221
221 221 221
221 221 221
221 221 221
221 221 221
221 221 221
221 221 221
221 221 221
221 221 221
221 221 221
221 221 221
221 221 221
221 221 221
221 221 221
221 238 221
221 238 221
221 238 221
221 238 221
221 238 221
221 238 221
221 238 221
221 238 221
221 238 221
221 238 221
238 238 221
221 238 221
221 238 238
238 238 238
238 238 238
238 238 238
238 238 238
238 238 238
238 238 238
238 238 238
238 238 238
238 238 238
238 238 238
238 238 238
238 238 238
238 238 238
221 221 221
153 170 136
85 102 51
68 85 34
85 102 51
85 102 51
102 119 51
102 102 51
85 102 51
85 102 51
102 119 51
85 102 51
85 102 51
85 102 51
85 102 51
85 102 51
85 102 51
85 102 51
85 102 51
85 102 51
85 102 51
102 102 51
85 102 51
85 102 51
85 102 68
85 102 68
85 102 85
102 119 102
119 136 102
119 136 85
119 136 68
119 136 68
119 119 68
119 136 85
119 136 85
119 119 85
102 119 68
119 119 85
119 119 85
136 153 102
153 153 102
153 153 102
153 153 102
153 153 102
153 153 102
170 153 119
153 136 102
136 119 85
136 119 102
153 136 102
153 136 102
153 136 102
153 153 119
204 204 170
238 221 204
238 221 204
221 204 170
187 170 153
204 204 187
238 221 204
221 204 187
221 204 187
204 204 170
204 187 153
187 170 153
187 170 136
153 136 119
170 153 136
153 153 119
153 153 119
170 170 136
153 153 119
136 136 102
136 136 119
153 153 136
170 170 170
204 204 187
204 204 204
187 187 187
170 170 170
170 170 153
153 153 136
153 153 136
153 153 136
153 136 119
136 136 119
136 119 102
136 136 119
136 136 119
119 119 102
119 119 102
136 119 102
136 136 119
136 136 119
153 136 119
153 153 136
153 153 136
153 153 136
170 153 136
170 153 136
153 153 136
153 153 136
153 153 136
153 153 136
153 153 136
153 153 136
153 153 136
153 136 119
153 136 119
153 153 136
136 136 102
136 119 102
136 136 119
136 136 119
153 153 136
153 153 136
170 170 153
170 170 153
187 187 170
204 204 187
204 221 204
221 221 221
238 238 238
221 221 221
204 204 204
187 187 170
204 204 187
187 187 170
170 153 136
170 170 153
170 153 136
170 170 136
187 187 153
221 204 187
238 221 204
221 221 204
221 221 204
238 238 221
221 221 204
238 221 204
238 221 221
204 204 187
204 187 153
221 204 187
221 204 187
136 153 119
102 102 68
85 102 68
85 102 51
85 102 51
85 102 51
85 102 51
85 102 51
85 102 51
68 85 51
85 102 51
68 85 51
68 85 51
68 85 51
85 85 51
85 85 68
85 85 68
85 85 68
68 85 51
51 68 34
34 51 34
51 68 34
51 68 51
68 85 51
85 102 68
102 119 85
102 119 85
102 119 85
119 136 85
119 136 85
119 136 85
136 153 102
136 153 102
136 153 102
119 136 85
119 119 85
119 136 85
136 136 102
136 153 102
136 136 102
119 136 85
136 136 102
153 153 119
153 153 119
136 153 102
136 136 102
136 136 102
119 136 102
119 136 85
119 119 85
119 136 85
119 136 85
119 136 102
119 136 85
119 136 85
119 119 85
119 119 85
102 119 85
102 119 85
102 119 68
119 119 85
119 136 85
119 136 85
119 136 85
119 136 85
119 136 85
119 119 85
102 119 85
119 119 85
119 119 85
119 136 85
119 136 85
119 136 85
119 136 102
119 136 85
119 119 85
102 119 85
102 119 85
102 119 68
102 119 68
102 119 68
102 119 68
119 119 85
102 119 85
102 119 68
102 119 68
102 119 68
102 119 68
102 119 68
102 119 68
85 102 68
102 119 68
102 119 68
102 119 68
119 136 85
119 136 85
119 136 85
119 136 85
119 136 85
102 136 85
102 119 68
102 119 68
102 119 85
119 136 85
102 136 85
102 136 85
102 119 85
221 221 204
221 221 204
204 221 204
221 221 204
221 221 204
221 221 204
221 221 204
221 221 221
221 221 204
221 221 204
221 221 204
221 221 204
221 221 221
221 221 221
221 221 221
221 221 221
221 221 221
221 221 221
221 221 221
221 221 221
221 221 221
221 221 221
221 221 221
221 221 221
221 221 221
221 221 221
221 221 221
221 221 221
221 221 221
221 221 221
221 221 221
221 221 221
221 221 221
221 221 221
221 221 221
221 221 221
221 221 221
221 221 221
221 221 221
221 221 221
221 221 221
221 221 221
221 238 221
221 238 221
221 238 221
221 238 221
221 238 221
221 238 221
221 238 221
221 238 221
221 238 221
221 238 221
221 238 221
221 238 221
238 238 238
238 238 238
238 238 238
238 238 238
238 238 238
238 238 238
238 238 238
238 238 238
238 238 238
238 238 238
238 238 238
238 238 238
238 238 238
238 238 238
238 238 238
187 187 170
102 119 68
68 85 34
85 102 34
85 102 51
85 102 51
85 102 51
85 102 51
85 102 51
85 102 51
85 102 51
85 102 51
85 102 51
85 102 51
85 102 51
102 102 68
102 102 68
85 102 68
85 102 68
85 102 51
85 102 51
85 102 51
85 102 51
85 85 68
85 85 68
102 102 85
102 119 102
119 119 85
119 119 85
102 119 68
119 119 68
119 136 68
119 136 85
119 136 85
119 136 85
102 119 85
102 119 85
119 119 85
119 136 85
136 136 85
136 136 85
136 136 85
153 136 102
153 136 102
170 153 119
153 136 102
136 119 85
136 119 85
153 136 102
153 136 102
153 136 102
187 170 153
204 204 170
221 204 187
221 204 187
204 187 153
187 170 153
221 204 187
221 221 187
204 204 170
204 187 170
204 204 170
187 187 153
187 170 136
170 153 119
153 136 119
170 153 119
153 136 119
170 153 136
170 153 136
153 153 119
136 136 102
153 153 136
187 170 170
187 187 187
204 204 204
204 204 187
187 187 170
170 170 153
170 153 136
153 153 119
153 136 119
136 136 119
136 136 119
136 136 119
136 136 119
136 119 102
119 119 102
119 119 102
119 119 102
136 119 102
136 136 119
136 136 119
153 136 119
153 136 136
153 153 136
153 136 136
153 153 136
153 153 136
153 153 136
153 153 136
153 153 136
153 153 136
153 136 136
153 153 136
153 136 136
136 136 119
136 136 102
136 136 119
119 119 102
119 119 102
136 119 102
136 136 119
153 136 119
153 153 136
170 153 136
170 170 153
170 170 153
187 187 170
187 187 187
204 204 204
221 221 221
221 238 221
204 204 187
170 170 153
187 187 170
204 187 170
170 170 153
170 170 136
170 153 119
170 153 136
187 170 153
204 204 170
221 204 187
238 221 204
221 221 204
221 221 204
221 221 204
221 204 187
238 238 221
221 204 187
187 170 153
204 187 170
238 221 204
187 187 170
119 136 102
85 102 51
68 102 51
68 85 51
68 85 51
68 85 51
68 85 51
68 102 51
68 85 51
68 85 51
68 85 51
68 85 51
68 85 51
85 102 68
85 85 68
85 85 68
85 102 68
68 85 51
51 68 34
51 68 34
51 68 34
51 68 51
68 85 51
85 102 68
119 119 85
119 119 85
102 119 68
119 119 85
119 136 85
119 136 85
136 136 102
136 136 102
136 136 102
119 136 85
119 136 85
119 136 85
119 136 85
136 153 102
136 153 102
119 136 85
119 136 85
136 136 102
136 153 102
136 153 102
136 153 102
136 136 102
136 136 102
119 136 85
119 136 85
119 119 85
119 136 85
119 136 85
119 136 85
119 136 85
102 119 85
119 119 85
102 119 85
102 119 68
102 119 68
119 119 85
119 136 85
119 136 85
119 136 85
119 136 85
119 136 85
119 119 85
119 119 85
119 119 85
119 136 85
119 136 85
119 136 85
119 136 85
119 136 85
119 136 85
119 119 85
119 119 85
102 119 85
102 119 68
102 119 85
102 119 68
102 119 85
102 119 85
102 119 85
102 119 68
102 119 68
102 119 68
102 119 68
102 119 68
102 119 68
102 119 85
102 119 68
102 119 68
102 119 68
102 119 85
119 136 85
119 136 85
102 119 68
119 136 85
119 136 85
102 136 85
102 119 68
102 119 68
119 136 85
119 136 85
119 136 85
119 136 85
221 221 221
221 221 204
204 221 204
221 221 204
221 221 204
221 221 221
221 221 204
221 221 204
221 221 204
221 221 204
221 221 204
221 221 221
221 221 204
221 221 221
221 221 221
221 221 221
221 221 221
221 221 221
221 221 221
221 221 221
221 221 221
221 221 221
221 221 221
221 221 221
221 221 221
221 221 221
221 221 221
221 221 221
221 221 221
221 221 221
221 221 221
221 221 221
221 221 221
221 221 221
221 221 221
221 221 221
221 221 221
221 221 221
221 221 221
221 221 221
221 221 221
221 221 221
221 221 221
221 238 221
221 238 221
221 238 221
221 238 221
221 238 221
221 238 221
221 238 221
221 238 221
221 238 221
221 238 221
221 238 221
221 238 221
221 238 221
238 238 238
238 238 238
238 238 238
238 238 238
238 238 238
238 238 238
238 238 238
238 238 238
238 238 238
238 238 238
238 238 238
238 238 238
238 238 238
204 221 204
136 153 119
68 85 34
68 85 34
85 102 34
85 102 34
85 102 51
85 102 51
85 102 51
85 102 51
85 102 51
85 102 51
85 102 51
85 102 51
85 102 51
102 102 51
102 102 68
102 102 68
102 102 68
85 102 68
85 102 68
85 102 51
85 102 51
85 85 68
85 85 68
102 102 102
119 119 102
119 119 102
119 119 68
102 119 68
102 119 68
119 119 68
119 136 85
119 136 85
119 136 85
119 119 85
102 119 85
102 119 68
119 119 68
119 119 68
119 119 68
119 119 68
136 136 85
136 136 85
153 136 102
136 119 85
119 119 85
102 102 68
119 119 85
136 119 85
153 136 102
187 187 153
204 204 170
221 204 187
221 204 170
187 170 136
187 170 136
221 221 187
221 204 187
187 187 153
204 187 170
204 187 170
187 170 153
187 170 136
153 136 119
170 153 119
153 136 119
153 136 102
170 153 136
170 153 136
153 136 119
136 136 119
170 170 153
187 187 170
204 204 187
204 204 204
187 187 187
170 170 170
170 153 136
153 153 119
136 136 119
136 119 102
119 119 102
119 102 85
102 102 85
102 102 85
119 102 85
102 85 85
119 102 85
119 119 102
136 136 119
136 119 102
136 119 102
136 136 119
153 136 136
153 153 136
153 136 136
153 153 136
153 153 136
153 136 119
153 136 119
153 136 119
153 136 119
153 136 119
153 136 136
153 136 119
136 119 102
119 119 102
119 102 85
102 102 85
102 102 85
102 102 85
119 119 102
136 119 102
153 136 119
153 153 119
170 153 136
170 170 153
187 187 170
187 187 187
204 204 187
204 221 204
221 238 221
221 221 221
187 187 170
170 170 153
187 170 170
187 170 153
170 153 136
153 153 119
170 153 119
170 170 136
187 187 153
204 204 170
221 221 204
221 221 187
221 221 204
221 221 204
221 204 187
221 221 204
221 221 204
187 170 153
204 187 153
221 204 187
221 204 187
153 170 136
85 102 68
68 85 51
68 85 51
68 85 51
68 85 51
68 85 51
68 85 51
68 85 51
68 85 51
68 85 51
68 85 51
85 85 51
85 102 68
85 102 68
85 102 68
85 102 68
68 85 51
51 68 34
51 68 34
51 68 34
51 68 51
68 85 51
85 102 68
119 119 85
119 119 85
102 119 68
102 119 68
102 119 85
119 136 85
119 136 85
119 136 85
119 136 85
119 119 85
119 119 85
119 119 85
119 136 85
119 136 85
119 136 85
119 136 85
119 136 85
136 136 85
136 136 102
136 153 102
136 153 102
136 136 102
136 136 102
136 136 102
119 136 85
119 136 85
119 136 85
119 136 85
119 136 85
119 136 85
119 136 85
119 136 85
102 119 85
102 119 85
119 136 85
119 136 85
119 136 85
119 136 85
119 119 85
119 119 68
119 119 85
119 119 85
102 119 68
102 119 68
119 119 68
119 136 85
119 136 85
119 136 85
119 119 85
119 136 85
119 119 85
119 119 85
102 119 85
102 119 68
102 119 68
102 119 68
102 119 68
102 119 68
102 119 68
102 119 68
102 119 68
102 119 68
102 119 68
102 119 68
102 102 68
102 119 68
102 119 68
102 119 68
102 119 68
102 119 68
102 119 68
102 119 68
102 119 68
102 119 68
119 136 85
102 119 68
102 119 68
102 119 68
102 119 68
102 119 68
119 136 85
119 136 85
221 221 204
204 221 204
221 221 221
221 221 204
221 221 204
221 221 204
221 221 204
221 221 221
221 221 204
221 221 221
221 221 221
221 221 221
221 221 221
221 221 221
221 221 221
221 221 221
221 221 221
221 221 221
221 221 221
221 221 221
221 221 221
221 221 221
221 221 221
221 221 221
221 221 221
221 221 221
221 221 221
221 221 221
221 221 221
221 221 221
221 221 221
221 221 221
221 221 221
221 221 221
221 221 221
221 221 221
221 221 221
221 221 221
221 221 221
221 221 221
221 221 221
221 221 221
221 238 221
221 238 221
221 238 221
221 238 221
221 238 221
221 238 221
221 238 221
221 238 221
221 238 221
221 238 221
221 238 221
221 238 221
221 238 221
221 238 221
221 238 238
238 238 238
238 238 238
238 238 238
238 238 238
238 238 238
238 238 238
238 238 238
238 238 221
238 238 238
238 238 238
238 238 238
238 238 238
238 238 238
170 187 170
85 102 68
68 85 34
85 102 34
85 85 51
68 85 51
68 85 51
68 85 51
85 102 51
85 102 51
85 102 51
85 85 51
85 85 51
85 85 51
85 102 51
85 102 51
102 102 68
85 102 68
85 102 68
85 102 51
85 102 51
85 102 51
85 85 68
102 102 85
136 119 102
153 119 119
136 119 102
102 119 68
85 102 51
102 102 68
102 119 68
119 119 68
119 119 68
119 136 85
102 119 85
102 119 68
102 102 68
102 102 68
102 119 51
102 119 68
102 119 68
119 119 68
119 119 68
136 119 85
119 119 85
102 102 68
68 85 51
102 102 68
102 102 68
136 136 102
170 170 136
204 187 170
221 204 170
204 187 153
187 170 136
204 187 153
221 221 204
204 187 170
170 170 136
204 187 170
187 187 153
187 170 153
170 170 136
170 153 119
170 153 119
153 136 102
153 136 119
153 153 119
153 153 119
136 136 102
153 136 119
187 187 170
187 187 187
204 204 204
187 204 187
187 170 170
170 153 153
153 153 136
153 136 119
136 119 102
119 119 102
102 85 68
68 68 51
68 51 51
68 51 51
68 51 51
85 85 68
102 85 85
119 119 102
136 119 102
119 119 102
136 119 102
136 119 119
153 136 119
153 153 136
153 136 136
153 153 136
153 153 136
136 136 119
153 136 119
153 136 119
153 136 119
136 136 119
153 136 136
136 136 119
136 119 102
119 102 85
102 85 68
85 85 68
102 85 68
102 85 68
85 85 68
102 85 68
119 102 85
119 119 102
153 136 119
170 153 136
170 170 153
187 170 170
187 187 187
204 204 187
221 221 204
221 238 221
204 204 187
187 187 170
170 187 170
187 187 170
170 170 136
153 136 119
170 153 119
170 153 136
187 170 153
204 187 170
221 204 187
221 221 187
221 204 187
238 221 204
204 187 170
204 187 170
221 221 204
187 187 153
170 153 136
221 187 170
221 221 187
187 187 170
102 119 85
68 85 51
68 85 51
68 85 51
68 85 51
68 85 51
68 85 51
68 85 51
68 85 51
68 85 51
68 85 51
85 85 51
85 102 68
85 102 68
102 102 68
85 102 68
68 85 51
51 68 34
51 68 34
51 68 34
51 68 51
68 85 51
102 102 68
119 119 85
102 119 85
102 119 85
102 119 68
102 119 68
102 119 68
119 136 85
119 119 85
119 136 85
102 119 85
119 136 85
102 119 68
119 119 85
102 119 68
119 136 85
119 136 85
136 136 102
136 136 102
136 136 85
119 136 85
136 136 85
136 136 85
136 136 85
136 136 102
119 136 85
119 136 85
119 136 68
119 136 85
119 136 85
136 136 102
136 136 102
119 136 85
119 136 85
119 136 85
136 136 102
136 136 102
136 136 102
119 136 85
119 136 85
119 136 85
119 136 85
119 119 68
102 119 68
102 119 68
102 119 68
119 119 85
119 136 85
119 136 85
119 119 85
119 119 85
102 119 85
102 119 85
102 119 85
102 119 68
102 119 68
102 119 68
102 102 68
102 102 68
102 119 68
102 119 68
102 102 68
85 102 68
102 102 68
102 102 68
102 102 68
102 102 68
102 102 68
102 102 68
85 102 68
85 102 68
85 119 68
102 119 68
102 119 68
102 119 68
102 119 68
102 119 68
102 119 68
102 119 68
102 119 68
102 119 68
119 136 85
119 136 85
221 221 204
221 221 204
221 221 204
221 221 204
221 221 204
221 221 204
221 221 204
221 221 204
221 221 204
221 221 204
221 221 221
221 221 204
221 221 221
221 221 221
221 221 221
221 221 221
221 221 221
221 221 221
221 221 221
221 221 221
221 221 221
221 221 221
221 221 221
221 221 221
221 221 221
221 221 221
221 221 221
221 221 221
221 221 221
221 221 221
221 221 221
221 221 221
221 221 221
221 221 221
221 221 221
221 221 221
221 221 221
221 221 221
221 221 221
221 221 221
221 221 221
221 221 221
221 238 221
221 221 221
221 238 221
221 238 221
221 238 221
221 238 221
221 238 221
221 238 221
221 238 221
221 238 221
221 238 221
221 238 221
221 238 221
238 238 221
221 238 221
238 238 238
238 238 238
238 238 238
238 238 238
238 238 238
221 238 221
221 238 221
221 238 221
221 238 221
238 238 238
238 238 238
238 238 238
238 238 238
204 204 204
136 153 119
68 85 34
85 85 34
68 85 51
68 85 51
68 85 51
68 85 51
85 85 51
85 102 51
85 102 51
85 85 51
85 85 51
85 85 51
85 85 51
85 102 51
85 102 68
85 102 68
85 102 68
85 102 68
85 102 68
85 102 68
85 85 68
102 102 85
136 102 102
136 119 119
119 102 102
102 102 85
85 102 68
85 102 68
102 102 68
102 102 68
102 119 68
102 119 68
102 102 68
85 102 68
85 102 68
102 102 68
102 102 68
102 102 51
102 102 51
102 119 68
102 102 68
102 102 68
85 85 51
68 85 51
51 68 34
68 68 34
85 85 51
136 136 119
187 187 153
204 187 153
221 204 170
204 170 153
187 170 136
221 204 170
221 204 187
187 170 153
170 153 136
187 170 153
187 170 153
187 170 136
170 153 136
170 153 136
170 153 136
153 136 119
153 136 119
153 153 119
153 136 119
136 119 102
153 153 136
187 187 170
204 204 187
187 204 187
187 187 170
170 170 153
170 153 136
153 136 119
136 119 102
119 119 85
119 102 85
85 85 68
51 51 34
34 17 17
34 17 17
34 34 17
68 51 51
85 68 68
102 85 85
119 119 102
119 102 102
136 136 119
136 136 119
136 136 119
170 153 153
153 153 136
153 153 136
153 153 136
136 136 119
153 136 119
153 136 119
136 136 119
136 136 119
136 136 119
136 119 119
119 119 102
102 85 85
85 85 68
85 68 68
85 68 68
68 51 34
68 51 34
85 68 51
85 85 68
119 102 85
136 119 102
153 153 136
170 170 153
170 170 153
187 187 170
187 187 187
204 204 204
221 221 221
204 221 204
187 187 170
187 187 170
187 187 170
170 170 153
153 136 119
153 136 119
153 153 119
170 170 136
187 187 153
204 187 170
221 204 187
221 204 187
238 221 204
221 204 187
204 170 153
221 204 187
204 187 170
153 136 119
204 187 153
221 204 170
221 204 187
136 136 119
85 85 68
68 85 51
68 85 51
68 85 51
68 85 51
68 85 51
68 85 51
68 85 51
68 85 51
68 85 51
85 85 51
85 102 68
85 102 68
102 102 68
85 102 68
68 85 51
51 68 34
51 68 34
51 68 34
68 68 51
68 85 51
102 102 68
102 119 85
102 119 85
102 119 85
102 119 68
102 119 68
102 119 68
102 119 85
102 119 68
102 119 68
102 119 68
119 136 85
102 119 68
119 136 85
102 119 68
119 119 68
119 136 85
136 136 102
136 136 102
119 136 85
102 119 68
119 136 85
119 136 85
119 136 85
119 136 85
119 136 85
119 136 68
119 136 68
119 136 68
119 136 85
136 136 102
136 136 102
119 136 85
119 136 85
119 136 85
136 136 102
136 153 102
136 136 85
119 136 85
119 136 85
119 136 85
119 136 85
119 119 85
119 136 85
119 136 85
102 119 85
102 119 68
119 119 85
119 119 85
119 119 85
102 119 85
102 119 68
102 119 85
102 119 68
102 119 68
102 102 68
102 102 68
85 102 68
102 119 68
102 119 68
102 119 68
85 102 68
85 102 51
102 119 68
102 119 68
102 102 68
85 102 68
85 102 68
85 102 68
102 119 68
102 119 68
102 119 68
102 119 68
102 119 68
102 119 68
102 119 68
102 119 68
102 119 68
102 136 68
102 136 68
102 136 68
119 136 85
119 119 85
221 221 204
221 221 204
221 221 204
221 221 204
221 221 204
221 221 221
221 221 221
221 221 221
221 221 204
221 221 204
221 221 204
221 221 221
221 221 221
221 221 221
221 221 221
221 221 221
221 221 221
221 221 221
221 221 221
221 221 221
221 221 221
221 221 221
221 221 221
221 221 221
221 221 221
221 221 221
221 221 221
221 221 221
221 221 221
221 221 221
221 221 221
221 221 221
221 221 221
221 221 221
221 221 221
221 221 221
221 221 221
221 221 221
221 221 221
221 221 221
221 221 221
221 221 221
221 221 221
221 221 221
221 238 221
221 238 221
221 238 221
221 238 221
221 238 221
221 238 221
221 238 221
221 238 221
221 238 221
221 238 221
238 238 221
221 238 221
238 238 221
221 238 221
238 238 238
238 238 238
221 238 238
238 238 238
221 238 221
221 238 221
221 238 221
221 238 221
238 238 238
238 238 238
238 238 238
238 238 238
221 238 221
170 187 170
85 102 51
68 85 34
68 85 34
68 85 51
68 85 51
68 85 51
85 85 51
85 102 51
85 85 51
85 85 51
85 85 51
85 85 51
85 85 51
85 85 51
85 102 68
85 102 68
85 102 68
85 102 68
85 102 68
85 102 68
85 85 68
85 85 85
102 85 85
119 102 85
102 102 85
102 102 85
102 102 85
102 102 85
102 102 85
102 102 85
85 102 85
85 102 85
85 102 68
85 102 68
85 102 68
85 102 68
85 102 68
85 102 68
85 102 51
85 102 68
85 85 68
85 85 51
68 68 51
51 68 34
34 51 34
51 51 34
68 85 51
170 170 136
153 153 119
204 204 170
204 187 153
187 170 136
187 170 153
204 204 170
221 204 170
187 170 136
170 153 136
187 170 136
187 170 136
170 170 136
170 153 119
170 153 136
170 153 136
153 136 119
153 136 119
153 153 119
153 136 102
136 119 102
170 153 136
187 187 170
187 187 187
187 187 170
187 170 170
153 153 136
153 136 119
136 119 102
119 119 102
119 102 85
85 85 68
17 17 0
0 0 0
0 0 0
0 0 0
0 0 0
34 34 17
51 51 51
68 68 51
136 119 102
136 119 102
136 136 119
153 153 136
136 136 119
170 153 153
153 153 136
153 153 136
153 153 136
153 136 119
153 153 136
153 153 136
136 136 119
136 136 119
136 119 102
119 119 102
119 119 102
102 85 85
85 68 68
68 51 51
51 34 34
34 34 17
17 17 17
34 34 34
68 68 51
102 85 68
119 102 85
136 119 102
153 153 119
170 153 136
187 170 153
187 187 170
204 204 187
221 221 204
221 221 204
187 187 170
170 170 153
170 170 153
187 187 170
170 153 136
153 136 119
153 136 119
170 153 136
187 170 153
204 187 170
221 204 187
221 204 187
221 221 204
221 221 204
187 187 153
204 187 153
204 187 153
153 136 102
187 170 136
221 204 170
221 204 187
170 170 153
85 102 68
68 85 51
68 85 51
68 85 51
68 85 51
68 85 51
68 85 51
68 85 51
68 85 51
68 85 51
68 85 51
85 102 51
85 102 51
102 102 68
85 102 68
68 85 51
51 68 34
51 68 34
51 68 34
68 85 51
68 85 68
102 102 85
102 119 85
102 119 68
102 119 68
102 119 68
102 119 85
102 119 68
102 119 68
102 119 68
102 119 68
102 119 68
119 119 85
119 136 85
119 136 85
102 119 68
102 119 68
119 136 85
119 136 85
119 136 85
102 119 68
102 119 68
102 119 68
102 136 68
119 136 68
119 136 85
102 136 68
102 136 68
102 136 68
102 136 68
119 136 85
136 136 85
136 136 85
119 136 85
119 119 68
119 136 85
119 136 85
119 136 85
119 136 85
119 136 85
119 136 85
119 136 85
119 136 85
119 119 85
119 136 85
119 136 85
119 136 85
119 119 85
119 119 85
119 119 85
102 119 68
102 119 85
102 119 68
102 119 85
102 119 68
102 119 68
102 102 68
102 102 68
102 102 68
102 119 68
102 119 68
102 119 68
102 119 68
85 102 68
102 119 68
102 119 85
102 119 85
102 119 68
102 102 68
102 119 68
102 119 68
102 119 68
102 119 68
102 119 68
102 119 85
102 119 68
102 119 68
102 119 68
102 119 68
119 136 68
102 136 68
102 119 68
119 136 85
119 136 85
221 221 204
221 221 204
221 221 204
221 221 204
221 221 204
221 221 221
221 221 204
221 221 204
221 221 221
221 221 204
221 221 204
221 221 221
221 221 204
221 221 221
221 221 221
221 221 221
221 221 221
221 221 221
221 221 221
221 221 221
221 221 221
221 221 221
221 221 221
221 221 221
221 221 221
221 221 221
221 221 221
221 221 221
221 221 221
221 221 221
221 221 221
221 221 221
221 221 221
221 221 221
221 221 221
221 221 221
221 221 221
221 221 221
221 221 221
221 221 221
221 221 221
221 221 221
221 221 221
221 221 221
221 238 221
221 238 221
221 238 221
221 238 221
221 238 221
221 238 221
221 238 221
221 238 221
221 238 221
221 238 221
221 238 221
238 238 221
221 238 221
221 238 221
221 238 221
238 238 221
221 238 221
221 238 221
221 238 221
221 238 221
238 238 221
238 238 221
238 238 238
238 238 238
238 238 238
238 238 238
238 238 238
204 204 204
136 136 102
68 85 51
68 85 34
68 85 51
68 85 51
68 85 51
68 85 51
85 85 51
85 85 68
85 85 68
85 85 68
85 85 68
85 85 68
85 85 68
85 102 68
85 102 85
102 102 85
102 119 102
102 119 102
102 102 102
85 102 102
85 85 85
85 85 85
85 85 68
85 85 85
102 102 102
102 119 119
119 136 136
102 119 119
102 119 119
102 119 102
102 119 102
102 119 102
102 102 102
85 102 102
85 102 85
85 102 85
85 102 85
85 102 85
85 102 85
85 102 85
68 85 68
51 68 51
51 68 34
34 51 34
34 51 34
102 102 85
136 136 102
153 136 119
204 187 170
187 170 136
170 153 136
187 170 153
204 187 170
204 204 170
170 170 136
170 153 136
170 153 136
187 170 136
170 170 136
170 153 119
170 170 136
170 153 119
136 119 102
153 136 119
153 153 119
136 136 102
153 136 119
170 170 153
187 187 187
187 187 187
187 187 170
170 153 136
136 136 119
136 136 119
136 119 102
119 119 102
102 85 68
17 17 0
0 17 17
17 17 17
0 17 17
17 17 17
17 34 34
17 17 17
34 34 34
51 51 51
119 102 102
153 136 119
136 119 119
187 170 153
153 153 136
170 153 153
170 153 153
170 153 153
170 153 153
170 153 136
170 153 153
153 136 136
153 136 119
136 136 119
119 119 102
119 102 85
119 102 102
102 85 85
68 51 51
51 34 34
17 17 17
0 0 0
0 0 0
0 0 0
17 17 0
68 68 68
119 102 85
119 102 85
136 119 102
153 136 119
170 153 136
187 170 153
204 187 170
204 204 204
204 221 204
204 204 187
170 170 153
153 153 136
153 136 119
170 170 153
170 153 136
153 153 136
170 153 136
187 170 153
187 187 153
204 187 170
221 204 187
221 221 204
238 221 204
204 187 170
204 187 153
204 187 153
153 136 102
187 153 136
204 187 153
221 204 187
204 187 170
119 119 102
85 85 68
68 85 51
85 85 68
68 85 51
68 85 51
68 85 51
68 85 51
68 85 51
68 85 51
68 85 51
85 85 51
85 85 51
85 102 68
85 102 51
68 85 51
51 68 34
51 68 34
51 68 34
68 85 51
85 85 68
102 102 85
102 119 85
102 119 68
102 119 68
102 119 68
102 119 68
102 119 68
102 119 68
85 102 68
85 102 51
85 102 51
102 119 68
119 119 85
119 136 85
119 119 68
102 119 68
102 119 68
119 136 68
102 119 68
102 119 68
102 119 68
102 119 68
119 136 85
102 136 68
102 136 68
102 136 68
102 136 68
102 136 68
119 136 85
119 136 85
119 136 85
119 136 85
119 136 85
119 136 85
119 136 85
119 136 85
119 136 85
119 136 85
119 136 85
136 153 102
119 136 85
119 136 85
119 119 85
102 119 85
119 136 85
119 119 85
119 136 85
119 136 85
119 119 85
102 119 68
102 119 68
102 119 68
102 119 68
102 119 68
102 119 68
102 119 68
102 102 68
102 119 68
102 119 68
102 119 85
102 119 85
102 119 68
102 119 68
102 119 85
119 119 85
119 119 85
102 119 68
102 119 68
102 119 68
102 119 68
102 119 68
119 136 85
119 136 85
102 119 85
102 119 68
102 119 68
102 136 68
119 136 68
119 136 68
119 136 68
102 136 68
119 136 68
119 136 85
221 221 204
204 221 204
204 221 204
221 221 204
221 221 204
221 221 204
221 221 204
221 221 221
221 221 204
221 221 221
221 221 204
221 221 204
221 221 221
221 221 221
221 221 221
221 221 221
221 221 221
221 221 221
221 221 221
221 221 221
221 221 221
221 221 221
221 221 221
221 221 221
221 221 221
221 221 221
221 221 221
221 221 221
221 221 221
221 221 221
221 221 221
221 221 221
221 221 221
221 221 221
221 221 221
221 221 221
221 221 221
221 221 221
221 221 221
221 221 221
221 221 221
221 221 221
221 221 221
221 221 221
221 221 221
221 221 221
221 238 221
221 238 221
221 238 221
221 238 221
221 238 221
221 238 221
221 238 221
221 238 221
221 238 221
221 238 221
221 238 221
221 238 221
221 238 238
238 238 238
238 238 238
221 238 221
221 238 221
238 238 238
238 238 238
238 238 238
238 238 238
238 238 238
238 238 238
238 238 238
238 238 238
221 221 221
170 170 153
85 102 68
68 85 51
68 85 51
68 85 51
68 85 68
85 85 68
85 102 68
85 85 68
85 102 68
85 102 85
85 102 85
85 102 85
85 102 85
102 102 102
102 119 102
119 119 119
119 136 136
136 136 136
119 136 136
119 136 136
102 119 119
85 102 85
68 85 85
85 102 102
119 119 136
136 136 136
136 153 153
136 153 153
119 136 136
119 136 136
119 136 136
119 136 136
119 136 136
119 119 119
119 119 119
102 119 119
102 119 119
102 119 119
102 102 102
85 102 102
85 102 85
68 85 68
51 68 51
51 68 34
34 51 34
102 102 85
85 85 68
153 153 119
204 187 153
170 153 119
187 170 136
187 170 153
187 187 153
204 187 170
170 170 136
153 153 119
170 153 119
187 170 136
170 170 136
170 153 119
170 153 136
153 136 102
136 119 85
153 136 119
153 153 119
153 136 119
153 153 136
187 187 170
187 187 187
187 187 170
170 170 153
153 136 119
136 136 119
136 119 102
119 102 85
102 85 68
34 17 17
0 0 0
17 17 17
17 17 17
17 17 34
17 17 34
17 34 34
17 17 17
17 17 17
34 34 34
85 68 68
153 136 136
153 136 136
170 153 153
187 170 170
170 153 153
170 170 153
187 170 170
170 170 153
187 170 170
170 170 153
153 153 136
153 153 136
136 119 102
119 119 102
119 102 102
102 102 85
68 68 51
34 34 34
34 17 17
0 17 17
34 34 34
17 34 34
17 34 34
0 17 17
0 0 0
68 68 51
119 119 102
119 119 102
136 119 102
153 153 119
170 153 136
187 187 170
204 204 187
204 204 204
204 204 187
170 170 153
153 153 119
136 136 119
136 136 119
170 153 136
170 153 136
170 153 136
187 170 153
187 170 153
204 187 153
204 187 170
221 204 187
238 238 221
204 204 170
204 187 153
204 187 153
153 136 119
170 153 119
204 187 153
221 204 170
221 204 170
136 136 119
85 85 68
68 85 51
68 85 51
68 85 51
68 85 51
68 85 51
68 85 51
68 85 51
68 85 51
68 85 51
68 85 51
85 85 51
85 85 51
68 85 51
68 68 34
51 68 34
51 68 34
51 68 34
68 85 51
85 85 68
102 102 85
102 119 85
102 119 68
85 119 68
85 102 68
85 102 68
85 102 51
85 102 68
85 102 68
85 102 51
85 85 51
85 102 68
102 119 68
102 119 68
102 119 68
102 119 68
102 119 68
102 119 68
102 119 68
102 119 68
102 119 68
102 136 68
119 136 85
119 136 85
119 136 68
119 136 85
119 136 85
119 136 85
119 136 85
119 136 85
119 136 85
119 136 85
119 136 85
119 136 85
119 136 85
119 136 85
119 136 85
136 136 85
136 136 85
136 153 102
136 136 102
136 136 102
119 136 85
119 136 85
119 119 85
119 136 85
119 136 85
119 136 85
102 119 85
102 119 68
102 119 68
102 102 68
85 102 68
85 102 68
102 102 68
102 119 68
102 119 85
102 119 68
102 119 68
119 119 85
119 136 85
119 119 85
102 119 85
102 119 68
102 119 85
102 119 85
102 119 85
102 119 85
102 119 85
102 119 68
102 119 68
119 136 85
119 136 85
102 119 68
102 119 68
102 119 68
119 136 68
119 136 85
119 136 85
119 136 68
119 136 85
102 119 68
119 119 85
221 221 204
204 221 204
221 221 221
221 221 204
221 221 204
221 221 204
221 221 204
221 221 221
221 221 221
221 221 204
221 221 204
221 221 204
221 221 204
221 221 221
221 221 221
221 221 221
221 221 221
221 221 221
221 221 221
221 221 221
221 221 221
221 221 221
221 221 221
221 221 221
221 221 221
221 221 221
221 221 221
221 221 221
221 221 221
221 221 221
221 221 221
221 221 221
221 221 221
221 221 221
221 221 221
221 221 221
221 221 221
221 221 221
221 221 221
221 221 221
221 221 221
221 221 221
221 221 221
221 221 221
221 238 221
221 221 221
221 238 221
221 238 221
221 238 221
221 238 221
221 238 221
221 238 221
221 238 221
221 238 221
221 238 221
221 238 221
221 238 221
221 238 221
221 238 221
238 238 221
238 238 221
221 238 221
238 238 238
238 238 238
238 238 238
238 238 238
238 238 238
238 238 238
238 238 238
238 238 238
238 238 238
238 238 238
204 204 187
119 136 102
68 85 51
85 85 68
85 102 85
85 102 68
85 102 85
85 102 85
85 102 85
85 102 102
102 102 102
102 119 119
102 119 119
119 136 136
119 136 136
136 153 153
136 153 153
153 153 170
153 153 170
136 153 153
136 136 153
102 119 119
85 102 102
85 85 85
102 119 119
119 136 136
136 136 136
136 136 153
136 153 153
136 153 153
136 153 153
136 153 153
136 153 153
136 153 153
136 153 153
119 136 136
119 136 136
119 136 136
119 136 136
119 136 136
119 119 119
102 119 119
85 102 102
68 85 68
51 68 51
51 68 51
68 85 68
68 85 68
170 153 136
204 187 153
170 153 136
187 170 153
187 170 136
187 170 153
204 187 153
170 153 136
153 136 102
153 136 119
187 170 136
170 170 136
170 153 119
170 153 136
136 136 102
136 119 85
153 136 119
153 136 119
170 170 153
170 170 170
187 187 170
187 187 170
170 170 153
153 153 136
136 136 119
136 136 119
119 119 102
102 102 85
85 68 51
17 17 0
0 17 0
17 17 17
0 17 17
0 0 17
0 0 0
0 0 17
17 17 17
17 17 17
34 34 34
68 68 51
102 102 85
136 119 119
153 136 136
170 170 153
187 187 170
187 187 170
187 187 170
170 170 170
187 170 170
170 170 153
170 170 153
136 136 119
153 153 136
136 119 119
102 102 85
68 68 51
51 51 34
34 34 34
17 17 17
17 17 17
17 17 17
17 17 17
34 34 51
17 17 17
17 17 17
0 0 0
68 68 51
119 102 85
119 119 102
136 136 119
170 153 136
187 170 153
204 204 187
204 204 204
204 204 187
170 170 153
153 153 136
136 136 119
119 119 102
136 136 119
153 136 119
153 153 136
170 153 136
187 170 153
187 187 153
204 187 170
204 187 153
221 221 204
221 204 187
204 187 170
204 187 153
170 153 136
170 136 119
187 170 136
221 204 170
221 204 170
170 170 136
85 85 51
68 85 51
68 85 51
68 85 51
68 85 51
68 68 51
68 85 51
68 85 51
68 85 51
68 85 51
68 85 51
85 85 51
85 85 68
68 85 51
68 85 51
51 68 34
51 68 34
51 68 34
68 85 51
85 85 68
102 102 68
102 119 85
102 119 68
85 102 68
85 102 51
85 102 51
85 102 51
85 102 51
85 102 51
68 85 51
85 85 51
85 102 68
85 102 68
102 119 68
102 119 68
102 119 68
102 119 68
102 119 68
102 119 68
102 119 68
102 119 68
102 136 68
102 136 68
119 136 68
119 136 68
119 136 85
119 136 85
119 136 85
136 153 102
136 153 102
136 136 102
119 136 85
119 136 85
119 136 85
136 153 102
136 136 85
136 136 85
136 153 102
136 153 102
153 153 119
136 153 102
136 153 102
119 136 85
136 136 102
119 136 85
119 136 85
119 119 85
119 119 85
102 119 85
102 119 68
85 102 68
85 102 68
85 102 51
85 102 68
85 102 68
102 119 68
102 119 85
102 119 85
102 119 85
102 119 68
102 119 85
102 119 85
102 119 68
102 119 68
102 119 68
102 119 68
102 119 68
102 102 68
102 119 68
102 119 68
102 119 68
119 136 85
119 136 85
102 119 68
85 119 68
102 119 68
102 119 68
102 136 68
102 119 68
119 136 85
119 136 85
102 119 68
102 119 68
204 221 204
221 221 204
221 221 221
221 221 204
221 221 204
221 221 204
221 221 204
221 221 204
221 221 221
221 221 221
221 221 221
221 221 204
221 221 204
221 221 204
221 221 221
221 221 221
221 221 221
221 221 204
221 221 221
221 221 221
221 221 221
221 221 221
221 221 221
221 221 221
221 221 221
221 221 221
221 221 221
221 221 221
221 221 221
221 221 221
221 221 221
221 221 221
221 221 221
221 221 221
221 221 221
221 221 221
221 221 221
221 221 221
221 221 221
221 221 221
221 221 221
221 221 221
221 221 221
221 221 221
221 221 221
221 221 221
221 221 221
221 238 221
221 238 221
221 238 221
221 238 221
221 238 221
221 238 221
221 238 221
221 238 221
221 238 221
221 238 221
221 238 221
221 238 221
238 238 221
238 238 221
238 238 221
238 238 221
238 238 238
238 238 238
238 238 238
238 238 238
238 238 238
238 238 238
238 238 238
238 238 238
238 238 238
221 221 221
170 170 153
85 102 85
85 102 85
102 119 102
102 119 119
102 119 119
102 119 119
119 136 136
119 136 136
119 136 136
136 153 153
136 153 153
136 153 153
136 153 153
136 153 153
136 153 153
136 153 153
119 136 136
119 136 136
119 119 119
102 119 119
85 102 85
68 85 85
85 85 85
85 102 102
102 119 102
102 119 102
102 119 119
102 119 119
102 119 119
119 136 119
119 136 136
119 136 136
136 136 136
136 136 153
136 153 153
136 153 153
119 136 136
119 136 136
136 136 136
119 136 136
119 136 119
85 102 102
68 85 68
51 68 51
51 68 51
68 85 68
170 170 153
204 187 170
170 153 136
187 170 136
187 170 136
187 170 136
187 187 153
170 153 136
153 136 102
153 136 119
170 170 136
170 170 136
170 153 136
170 153 119
136 119 85
119 119 85
136 136 102
153 153 136
170 170 153
170 170 153
187 187 187
187 187 170
170 170 153
153 153 136
153 136 119
136 119 102
119 102 85
85 85 68
85 68 51
34 17 17
0 0 0
17 17 17
0 17 17
0 0 0
0 0 17
0 0 0
0 17 0
34 34 34
51 51 51
119 102 102
119 119 119
153 136 136
153 153 136
170 170 153
187 170 170
187 187 187
187 187 170
170 170 153
187 170 170
170 170 170
170 170 153
187 170 170
153 153 136
136 136 119
102 85 85
85 68 51
68 68 51
34 34 34
17 17 17
0 17 17
0 17 17
0 0 17
0 17 17
0 0 17
17 17 17
0 0 0
17 17 17
102 102 85
119 119 85
136 136 102
153 153 119
170 170 153
187 187 170
204 204 187
204 204 187
187 187 170
170 170 153
153 153 136
119 119 102
136 119 102
136 136 119
153 153 136
153 153 136
170 170 136
187 170 153
204 187 170
204 187 170
204 204 170
221 221 204
204 187 170
187 170 153
187 170 136
170 136 119
187 153 119
204 187 153
221 204 170
204 187 170
102 102 68
85 85 68
85 85 68
68 85 51
68 85 51
51 68 51
68 68 51
68 68 51
51 68 51
68 85 51
68 85 51
85 85 68
102 102 68
85 85 68
68 85 51
51 68 34
51 68 34
51 68 34
68 85 51
85 85 68
102 102 68
102 119 85
102 119 68
85 102 68
85 102 51
68 85 51
68 85 51
68 85 51
68 85 51
68 85 51
85 102 51
85 102 68
102 102 68
102 119 68
85 119 68
85 119 68
102 119 68
102 119 68
102 119 68
102 136 68
102 136 68
102 136 68
102 136 68
102 136 68
102 136 68
119 136 85
119 136 85
136 136 85
136 153 102
153 153 119
136 153 102
136 136 102
119 136 85
119 136 85
136 136 85
136 136 85
136 136 85
136 153 85
136 153 102
153 153 119
136 153 102
136 153 102
136 153 102
136 153 102
136 153 102
136 153 102
119 136 85
102 119 85
102 119 68
102 102 68
85 102 68
85 102 68
85 102 51
85 102 51
85 102 68
102 119 68
102 119 68
102 119 68
102 119 68
102 119 68
102 119 68
102 119 68
102 119 68
102 102 68
102 119 68
102 119 68
102 119 68
102 102 68
85 102 68
85 102 68
102 119 68
102 119 68
102 119 68
102 119 68
85 119 51
102 119 68
102 119 68
102 119 68
102 119 68
102 119 68
102 119 68
102 119 68
102 119 68
221 221 204
221 221 204
204 221 204
221 221 204
221 221 204
221 221 204
221 221 204
221 221 204
221 221 204
221 221 204
221 221 204
221 221 204
221 221 204
221 221 204
221 221 221
221 221 221
221 221 221
221 221 221
221 221 221
221 221 221
221 221 221
221 221 221
221 221 221
221 221 221
221 221 221
221 221 221
221 221 221
221 221 221
221 221 221
221 221 221
221 221 221
221 221 221
221 221 221
221 221 221
221 221 221
221 221 221
221 221 221
221 221 221
221 221 221
221 221 221
221 221 221
221 221 221
221 221 221
221 221 221
221 238 221
221 238 221
221 221 221
221 238 221
221 238 221
221 238 221
221 238 221
221 238 221
221 238 221
221 238 221
221 238 221
221 238 221
221 238 221
221 238 221
221 238 221
238 238 221
221 238 221
238 238 221
238 238 221
238 238 238
238 238 221
238 238 238
238 238 238
238 238 238
238 238 238
238 238 238
238 238 238
238 238 238
238 238 238
187 204 187
136 136 136
102 119 119
119 136 136
136 136 153
136 153 153
136 153 153
136 153 153
136 153 153
136 153 153
136 153 153
136 136 136
119 136 136
119 136 119
119 119 119
102 119 102
102 102 102
85 102 102
85 102 85
85 85 85
68 85 85
68 85 85
68 68 68
68 68 68
68 85 68
68 85 68
68 85 85
68 85 85
68 85 85
68 85 85
85 85 85
85 85 85
85 102 85
85 102 102
102 102 102
102 119 119
119 119 119
119 136 136
119 136 136
136 136 136
136 136 153
119 136 136
102 119 119
85 102 85
68 85 68
51 68 68
102 119 102
187 187 170
204 187 170
170 170 136
187 170 136
187 170 136
170 153 136
187 170 153
170 153 136
153 136 102
153 136 119
170 153 136
170 153 119
153 153 119
170 153 119
136 119 85
119 119 85
136 136 119
153 153 136
170 170 153
170 170 153
187 187 187
187 187 170
170 170 153
153 153 136
136 136 119
119 102 85
102 85 68
102 102 68
102 85 85
51 51 51
17 17 17
0 0 0
0 17 17
0 17 17
17 17 17
17 17 17
34 34 34
51 51 34
68 68 68
102 102 85
153 136 136
170 170 153
187 170 170
187 170 170
187 187 170
187 187 187
187 187 170
187 170 170
187 187 170
187 187 170
187 187 170
170 170 153
170 153 153
136 136 119
119 102 85
102 85 85
102 85 68
51 34 34
34 34 17
17 17 17
0 17 17
0 0 0
0 0 0
0 17 17
17 17 17
0 0 0
34 17 17
102 85 68
136 119 102
136 119 102
153 136 119
170 153 136
187 187 170
204 187 187
204 204 187
204 204 187
170 170 170
153 153 136
136 136 119
119 102 85
136 136 119
153 136 119
153 153 119
170 153 136
170 170 136
187 170 136
204 204 170
204 204 187
221 221 187
221 204 187
187 170 153
187 170 153
170 153 119
170 153 119
187 170 136
221 204 187
204 187 170
119 119 102
85 85 68
85 85 68
85 85 68
85 85 68
68 68 51
68 68 51
68 68 51
51 68 51
68 85 51
68 85 51
85 102 51
102 102 68
85 102 68
68 85 51
51 68 34
51 68 34
68 85 51
68 85 51
85 102 68
102 102 68
102 119 85
102 119 68
85 102 68
85 102 51
68 85 51
68 85 51
85 102 68
85 85 68
85 85 68
85 102 68
85 102 68
102 119 68
102 119 68
85 119 68
85 119 68
102 119 68
102 119 68
102 119 68
102 136 68
102 136 68
102 119 68
102 119 68
102 119 68
102 136 68
119 136 85
119 136 85
136 136 85
136 153 102
153 153 119
136 153 102
136 136 102
119 136 85
119 136 85
119 136 85
119 136 85
119 136 85
119 136 85
136 136 85
136 153 102
136 153 102
136 136 85
136 136 85
136 153 102
153 153 119
153 153 102
136 136 102
119 136 85
102 119 85
85 102 68
85 102 68
85 102 68
85 102 68
85 102 51
85 102 68
85 102 68
85 102 68
85 102 51
85 102 51
85 102 68
85 102 68
102 119 68
85 102 68
85 102 68
85 102 68
102 119 68
102 119 68
102 119 68
85 102 68
85 102 68
102 119 68
102 119 68
102 119 85
102 119 68
102 119 68
102 119 68
102 119 68
102 119 68
102 119 68
102 119 68
102 119 68
119 119 85
119 119 85
221 221 204
204 221 204
221 221 204
221 221 204
221 221 204
204 221 204
221 221 204
221 221 204
221 221 204
221 221 204
221 221 221
221 221 221
221 221 204
221 221 221
221 221 204
221 221 221
221 221 204
221 221 221
221 221 221
221 221 221
221 221 221
221 221 221
221 221 221
221 221 221
221 221 221
221 221 221
221 221 221
221 221 221
221 221 221
221 221 221
221 221 221
221 221 221
221 221 221
221 221 221
221 221 221
221 221 221
221 221 221
221 221 221
221 221 221
221 221 221
221 221 221
221 221 221
221 221 221
221 221 221
221 238 221
221 221 221
221 221 221
221 221 221
221 238 221
221 238 221
221 238 221
221 238 221
221 238 221
221 238 221
221 238 221
221 238 221
221 238 221
221 238 221
221 238 221
238 238 221
238 238 221
238 238 221
238 238 221
238 238 221
238 238 238
238 238 238
238 238 238
238 238 238
238 238 238
238 238 221
238 238 238
238 238 238
238 238 238
221 221 221
170 170 170
119 119 119
119 136 136
136 153 153
136 153 153
119 136 136
119 136 136
119 136 119
119 119 119
102 119 119
102 119 102
85 102 102
85 102 102
85 85 85
68 85 85
68 85 85
68 85 68
51 68 68
51 68 68
51 68 68
51 68 68
51 68 68
51 68 68
51 68 68
51 68 68
51 68 68
51 68 68
51 68 68
51 68 68
51 68 68
51 68 68
68 68 68
68 68 68
68 85 85
68 85 85
85 85 85
85 102 102
102 102 102
102 119 119
119 136 136
119 136 136
102 119 119
102 119 119
85 102 102
85 102 85
119 136 119
170 187 170
187 187 170
187 170 153
187 170 153
187 170 136
170 153 119
187 170 136
170 170 136
153 136 102
153 136 102
170 153 136
153 136 119
153 136 102
153 153 119
136 119 85
136 119 102
153 153 119
170 170 136
153 170 136
170 170 153
187 187 170
187 187 170
170 170 153
153 153 136
136 119 102
119 102 85
119 102 85
119 119 85
119 102 85
119 102 85
68 68 51
34 17 17
17 17 17
34 34 34
85 85 85
119 119 102
153 153 153
153 153 153
153 136 136
170 170 153
170 170 170
187 170 170
187 187 170
187 187 187
187 187 170
187 187 187
187 187 187
187 187 187
187 187 170
187 187 187
187 187 187
187 187 170
187 170 170
170 153 153
153 136 119
102 85 85
85 85 68
68 51 51
51 51 51
17 17 17
17 17 17
0 0 0
0 17 17
0 17 17
0 17 0
17 17 17
68 51 51
119 102 85
119 102 85
119 102 85
136 119 102
153 153 136
187 187 153
187 187 170
187 187 187
204 204 187
187 187 170
170 170 153
153 136 119
119 102 85
136 119 102
153 136 119
153 153 136
153 153 119
170 153 136
170 153 136
187 187 153
204 204 170
221 204 187
221 204 187
204 187 170
187 170 136
170 153 119
170 153 119
187 170 136
221 204 170
204 204 170
119 119 102
85 85 68
85 85 68
85 85 68
85 85 68
68 85 68
68 85 51
68 68 51
51 68 51
68 68 51
85 85 51
85 102 68
102 102 68
85 102 68
68 85 51
51 68 34
51 68 34
68 85 51
68 85 68
85 102 68
85 102 68
102 119 85
85 102 68
85 102 68
85 102 51
68 85 51
85 102 68
102 102 68
85 102 68
85 102 68
85 85 68
85 102 68
85 119 68
85 119 68
85 102 51
85 102 51
85 119 68
102 119 68
102 119 68
102 136 68
102 119 68
102 119 68
102 119 68
102 119 68
119 136 68
119 136 68
119 136 68
136 136 85
136 153 102
153 153 102
136 153 102
136 136 85
119 136 85
119 136 85
119 136 85
119 136 85
119 136 85
119 136 85
119 136 85
136 153 85
136 153 102
136 136 85
119 136 85
153 153 102
153 153 119
153 153 119
136 153 102
119 136 102
102 119 85
85 102 68
85 102 68
102 102 68
85 102 68
68 85 51
85 102 51
85 102 68
85 102 51
68 102 51
68 102 51
85 102 68
85 119 68
102 119 68
85 102 68
85 102 68
85 102 68
102 119 68
102 119 68
102 119 68
102 119 68
102 119 68
102 119 68
102 119 68
119 136 68
119 136 68
102 136 68
102 136 68
102 119 68
102 119 51
102 119 68
102 119 68
119 136 85
119 136 85
119 136 85
221 221 204
221 221 204
204 221 204
221 221 204
221 221 204
221 221 204
221 221 204
221 221 204
221 221 204
221 221 204
221 221 204
221 221 204
221 221 204
221 221 204
221 221 204
221 221 204
221 221 221
221 221 221
221 221 221
221 221 221
221 221 221
221 221 221
221 221 221
221 221 221
221 221 221
221 221 221
221 221 221
221 221 221
221 221 221
221 221 221
221 221 221
221 221 221
221 221 221
221 221 221
221 221 221
221 221 221
221 221 221
221 221 221
221 221 221
221 221 221
221 221 221
221 221 221
221 221 221
221 221 221
221 238 221
221 221 221
221 238 221
221 221 221
221 221 221
221 238 221
221 238 221
221 238 221
221 238 221
221 238 221
221 238 221
221 238 221
221 238 221
221 238 221
221 238 221
221 238 221
221 238 221
238 238 221
238 238 221
238 238 221
238 238 221
238 238 238
238 238 238
238 238 221
238 238 221
238 238 221
238 238 221
238 238 238
238 238 238
238 238 238
187 204 187
119 136 119
102 102 102
102 119 119
102 119 119
102 119 102
85 102 102
85 102 102
85 102 85
85 85 85
68 85 85
68 85 85
68 85 85
68 68 68
51 68 68
51 68 68
51 68 68
51 68 68
51 68 68
51 68 68
51 68 68
51 68 68
51 68 68
51 68 68
51 68 68
51 68 68
51 68 68
51 68 68
51 68 68
51 68 68
51 68 68
51 68 68
51 68 68
51 68 68
68 68 68
68 68 68
68 68 68
68 85 85
85 85 85
85 102 102
102 119 119
119 136 119
102 119 119
119 136 136
102 119 119
102 119 119
119 136 119
153 170 153
170 170 153
187 170 153
187 170 136
170 153 119
170 153 119
170 153 119
153 136 102
153 153 119
170 153 136
153 136 119
153 136 102
136 136 102
119 119 85
136 136 102
153 153 136
170 170 153
170 153 136
153 153 136
170 187 170
187 170 170
170 170 136
153 136 119
119 119 102
136 119 102
119 119 102
136 119 102
136 119 102
119 119 102
102 102 85
85 68 68
85 85 68
153 153 136
187 187 187
204 204 204
204 204 204
204 204 204
204 204 204
204 204 187
204 204 187
204 204 187
204 204 187
204 204 187
187 204 187
204 204 204
204 204 204
204 204 187
187 187 187
204 204 204
204 204 204
204 204 187
187 187 187
204 187 187
204 204 204
204 204 204
204 204 187
187 187 170
136 136 119
68 51 51
34 34 34
34 34 34
17 17 17
17 17 17
34 34 34
51 51 34
102 85 85
119 119 102
119 119 85
119 102 85
119 102 85
153 136 119
187 170 153
204 187 187
187 187 170
204 204 187
187 187 187
170 170 153
153 136 119
119 119 102
119 102 85
136 136 102
153 136 119
170 153 136
170 153 136
170 153 136
187 170 136
204 187 170
204 204 170
204 204 170
204 204 187
187 170 136
187 153 136
187 170 136
187 170 136
204 204 170
204 187 170
119 119 102
85 85 85
85 85 85
85 85 68
85 85 68
85 85 68
68 85 68
68 85 51
68 68 51
68 68 51
85 85 68
102 102 68
102 102 68
85 102 68
68 85 51
51 68 34
51 68 34
68 85 51
68 85 68
85 102 68
102 102 68
102 119 85
102 102 68
102 102 68
85 102 68
85 102 68
102 102 68
102 119 85
102 102 85
85 102 68
85 102 68
85 102 68
85 119 68
85 119 68
85 102 51
85 102 51
85 119 68
102 136 85
119 136 85
102 136 85
102 136 68
102 119 68
102 119 68
119 136 68
119 136 68
119 136 85
102 136 68
119 136 85
119 136 85
136 153 85
136 153 102
119 136 85
119 136 85
119 136 85
119 136 85
119 136 85
136 153 102
136 153 102
119 136 85
136 153 102
136 153 102
136 153 102
136 136 102
153 153 119
153 170 119
153 153 119
153 153 119
136 136 102
119 119 85
102 119 68
102 119 85
102 102 68
85 102 68
85 85 51
85 102 51
85 102 51
68 102 51
68 85 51
68 102 51
85 102 68
102 119 68
102 119 85
102 119 68
102 119 68
102 119 68
102 119 68
102 119 85
102 119 68
102 119 68
102 119 68
102 119 68
102 119 68
119 136 68
119 136 68
119 136 85
102 119 68
102 119 68
102 119 68
102 119 68
102 119 68
119 136 85
119 136 85
119 136 85
204 221 204
204 221 204
204 221 204
221 221 204
221 221 204
221 221 204
221 221 204
221 221 204
221 221 204
221 221 204
221 221 204
221 221 204
221 221 204
221 221 204
221 221 204
221 221 221
221 221 221
221 221 204
221 221 204
221 221 221
221 221 221
221 221 221
221 221 221
221 221 221
221 221 221
221 221 221
221 221 221
221 221 221
221 221 221
221 221 221
221 221 221
221 221 221
221 221 221
221 221 221
221 221 221
221 221 221
221 221 221
221 221 221
221 221 221
221 221 221
221 221 221
221 221 221
221 221 221
221 221 221
221 221 221
221 221 221
221 221 221
221 221 221
221 238 221
221 238 221
221 238 221
221 238 221
221 238 221
221 238 221
221 238 221
221 238 221
221 238 221
238 238 221
221 238 221
221 238 221
221 238 221
221 238 221
221 238 221
238 238 221
238 238 221
238 238 221
238 238 221
238 238 221
221 238 221
238 238 221
238 238 221
238 238 221
238 238 238
238 238 238
221 221 221
153 170 153
85 85 85
85 85 85
85 102 85
85 85 85
85 85 85
85 85 85
68 85 85
68 85 85
68 85 85
68 85 85
68 68 68
51 68 68
51 68 68
51 68 68
51 68 68
51 68 68
51 68 68
51 68 68
51 68 68
51 68 68
51 68 68
51 68 68
51 68 68
51 68 68
51 68 68
51 68 68
51 68 68
51 68 68
51 68 68
51 68 68
51 68 68
51 68 68
51 68 68
51 68 68
51 68 68
51 68 68
51 68 68
68 85 85
85 102 85
102 119 102
102 119 119
102 119 119
119 136 136
119 136 136
119 136 136
119 136 136
136 136 136
153 153 136
187 170 136
170 153 136
170 153 119
170 153 119
153 136 102
153 136 119
153 153 119
153 153 119
136 136 102
136 119 102
119 119 102
136 136 102
170 170 136
170 170 153
153 153 136
170 170 153
170 170 153
170 170 153
153 153 136
136 119 102
136 136 119
153 136 119
153 136 119
153 136 119
136 136 119
136 119 102
136 119 102
119 102 102
136 136 136
170 170 153
170 170 170
187 187 170
187 204 187
204 204 187
204 204 187
204 204 187
204 204 204
204 204 204
204 204 204
204 204 204
204 204 187
204 204 204
204 204 187
187 187 187
204 204 204
204 204 187
204 204 187
204 204 187
204 204 187
221 221 204
221 221 204
204 221 204
221 221 204
187 187 187
153 153 153
119 119 102
68 68 68
51 51 51
51 51 51
51 51 51
85 68 68
102 102 85
136 119 102
136 136 119
153 136 119
153 136 119
136 119 102
136 119 102
187 187 170
187 187 170
187 170 170
187 187 170
204 204 187
170 170 153
153 136 119
136 119 102
119 102 85
136 119 102
153 136 119
170 153 136
170 153 136
170 153 136
170 153 136
187 170 153
187 187 153
204 204 187
204 187 170
187 170 153
170 153 119
187 170 136
204 187 153
204 187 170
187 187 170
153 153 136
119 119 119
102 102 85
85 85 68
85 85 68
85 85 68
85 85 68
68 85 51
68 85 51
68 85 51
85 102 68
102 119 85
102 119 85
85 102 68
68 85 51
51 68 34
51 68 34
68 85 51
68 85 51
85 102 68
102 119 85
102 119 85
102 119 85
102 119 85
102 102 68
85 102 68
85 102 68
85 102 68
85 102 68
85 102 68
85 102 85
102 136 102
119 136 102
102 119 85
85 119 68
85 102 68
85 119 68
119 119 85
119 136 85
102 136 85
102 119 68
102 119 68
102 136 68
119 136 85
119 136 85
119 136 85
102 136 68
119 136 68
119 136 68
119 136 68
136 153 85
136 136 85
136 153 102
136 136 102
136 153 102
136 153 102
136 153 102
136 153 102
136 153 102
136 153 102
136 153 102
136 153 102
153 153 119
153 153 119
153 170 119
153 153 119
153 153 119
136 136 102
119 136 85
119 119 85
119 136 85
102 119 85
85 102 68
68 85 51
68 85 51
68 102 51
68 102 51
68 102 51
85 102 68
85 102 68
102 119 85
102 119 85
119 136 102
119 119 85
102 119 85
119 119 85
119 136 85
119 136 85
102 136 68
102 136 68
119 136 68
102 136 68
102 136 68
102 136 68
119 136 85
102 136 68
102 119 68
102 119 68
119 136 68
119 136 85
119 119 85
119 136 85
119 119 85
204 221 204
204 221 204
221 221 204
221 221 204
221 221 204
221 221 221
221 221 204
221 221 204
221 221 204
221 221 204
221 221 204
221 221 204
221 221 221
221 221 204
221 221 204
221 221 204
221 221 204
221 221 204
221 221 204
221 221 204
221 221 221
221 221 221
221 221 221
221 221 221
221 221 221
221 221 221
221 221 221
221 221 221
221 221 221
221 221 221
221 221 221
221 221 221
221 221 221
221 221 221
221 221 221
221 221 221
221 221 221
221 221 221
221 221 221
221 221 221
221 221 221
221 221 221
221 221 221
221 221 221
221 221 221
221 221 221
221 221 221
221 221 221
221 221 221
221 238 221
221 238 221
221 238 221
221 238 221
221 238 221
221 238 221
221 238 221
221 238 221
221 238 221
221 238 221
221 238 221
221 238 221
221 238 221
238 238 221
221 238 221
221 238 221
238 238 221
238 238 221
238 238 221
238 238 221
238 238 238
238 238 221
238 238 238
238 238 238
238 238 238
221 238 221
187 187 187
102 102 85
68 68 68
68 68 68
68 85 68
68 85 85
68 85 85
68 85 85
68 85 85
68 85 85
68 85 85
68 85 85
51 68 68
51 68 68
51 68 68
51 68 68
51 68 68
51 68 68
51 68 68
51 68 68
51 68 68
51 68 68
51 68 68
51 68 68
51 68 68
51 68 68
51 68 68
51 68 68
51 68 68
51 68 68
51 51 51
51 68 68
51 68 68
51 68 68
51 68 68
51 68 68
51 68 68
51 68 68
51 68 68
51 68 68
68 85 85
85 102 102
102 119 102
102 119 119
119 136 136
136 153 153
136 153 153
119 136 136
119 136 119
170 170 153
170 170 136
170 153 136
170 153 119
153 136 119
153 136 119
153 136 119
153 136 119
136 119 102
136 136 102
136 136 102
136 119 102
153 153 136
170 170 153
170 170 153
170 170 153
170 170 153
170 170 153
153 136 119
153 153 119
153 153 136
153 153 136
153 153 136
153 136 119
136 136 119
136 136 119
153 136 136
153 153 136
170 170 170
170 170 170
187 187 170
187 187 170
187 187 187
204 204 187
204 204 187
204 204 187
204 204 187
204 204 187
187 187 187
187 204 187
187 187 187
187 187 187
187 187 170
187 187 187
187 187 187
170 187 170
187 187 170
204 204 187
204 204 187
204 204 187
187 187 187
204 204 187
204 204 187
187 187 187
187 187 187
187 187 170
153 153 153
119 119 102
85 85 85
102 102 85
136 119 102
153 136 119
153 136 119
153 136 119
153 136 119
153 136 119
153 136 119
136 136 119
170 170 153
187 187 170
187 170 170
187 170 170
204 204 187
170 170 170
153 153 119
119 119 102
119 119 85
136 119 102
153 136 119
153 153 119
170 153 136
170 153 136
187 170 136
170 153 119
187 170 136
204 187 170
204 187 170
187 170 153
170 153 119
187 170 136
204 187 170
187 187 170
187 204 187
204 204 204
170 187 187
136 136 136
119 119 102
102 119 102
102 119 102
102 119 85
102 102 85
85 102 85
85 102 85
119 136 102
119 136 102
119 136 102
102 102 85
68 85 51
51 68 51
51 68 51
68 85 68
68 85 68
85 102 85
102 119 85
102 119 85
102 119 85
102 119 85
102 119 85
102 119 68
102 119 68
85 102 68
85 102 68
102 119 102
136 153 136
153 170 153
136 153 136
119 136 102
102 119 85
102 119 68
102 119 68
102 119 85
119 136 85
119 136 85
102 119 68
102 119 68
102 119 68
119 136 85
119 136 85
119 136 85
119 136 68
102 119 68
102 119 68
102 136 68
119 136 85
119 136 85
136 136 85
136 136 102
136 153 102
136 153 102
153 153 119
153 153 119
136 153 102
136 153 102
136 153 102
136 136 102
153 153 119
153 153 119
153 153 119
136 153 102
136 136 102
119 136 85
119 136 85
119 136 85
119 136 85
102 119 68
85 102 68
68 85 51
85 102 68
85 102 68
85 102 68
85 102 68
102 119 85
102 119 68
102 119 85
119 136 85
136 136 102
119 136 85
119 136 85
119 136 85
119 136 85
119 136 85
102 136 68
102 136 68
102 136 68
119 136 68
119 136 68
102 136 68
119 136 85
119 136 85
102 119 68
102 119 68
119 119 85
119 136 85
119 136 102
119 136 85
102 119 68
204 221 204
221 221 204
221 221 204
204 221 204
221 221 204
204 221 204
221 221 204
221 221 204
204 221 204
221 221 204
221 221 204
221 221 204
221 221 204
221 221 204
221 221 204
221 221 204
221 221 204
221 221 204
221 221 221
221 221 221
221 221 221
221 221 221
221 221 221
221 221 221
221 221 221
221 221 221
221 221 221
221 221 221
221 221 221
221 221 221
221 221 221
221 221 221
221 221 221
221 221 221
221 221 221
221 221 221
221 221 221
221 221 221
221 221 221
221 221 221
221 221 221
221 221 221
221 221 221
221 221 221
221 221 221
221 221 221
221 221 221
221 221 221
221 221 221
221 221 221
221 238 221
221 238 221
221 238 221
221 238 221
221 238 221
221 238 221
221 238 221
221 238 221
221 238 221
221 238 221
221 238 221
221 238 221
221 238 221
221 238 221
238 238 221
238 238 221
238 238 238
238 238 238
238 238 221
238 238 238
238 238 221
238 238 238
238 238 238
238 238 238
238 238 238
204 221 221
136 136 136
51 51 34
51 51 34
51 51 51
51 68 51
51 68 68
51 68 68
68 68 68
68 68 68
68 85 85
68 85 85
68 85 85
68 85 85
68 85 85
68 68 68
51 68 68
51 68 68
51 68 68
51 68 68
51 68 68
51 68 68
51 68 68
51 68 68
51 68 68
51 68 68
51 68 68
51 68 68
51 68 68
51 51 51
34 51 51
51 51 51
51 68 68
51 68 68
51 68 68
51 68 68
51 68 68
51 68 68
51 68 68
51 68 68
51 68 68
68 85 68
85 102 85
85 102 102
102 119 119
136 153 153
136 153 153
136 153 153
119 136 136
136 153 136
170 170 153
170 170 153
170 153 136
153 153 119
153 136 119
153 136 119
153 136 119
136 136 119
153 136 119
153 136 119
153 136 119
153 153 136
170 170 153
170 170 153
170 170 153
170 170 153
170 170 136
170 153 136
153 153 136
153 136 119
153 136 119
153 153 136
153 153 136
153 153 136
153 153 136
153 153 136
136 136 119
153 136 136
170 170 153
170 170 153
170 170 153
170 170 153
170 170 153
187 187 170
187 187 170
187 187 170
187 187 170
187 187 170
153 153 153
119 119 119
102 102 102
102 102 102
119 119 119
136 136 136
170 170 153
187 170 170
187 187 187
204 187 187
204 187 187
204 204 187
204 204 187
204 187 187
187 187 187
204 204 187
187 187 187
187 187 170
170 170 153
153 153 136
136 119 102
136 136 119
153 136 119
153 153 119
170 153 136
153 153 136
153 153 136
153 136 119
153 136 119
153 153 136
170 170 153
170 153 153
170 153 136
187 187 170
187 187 170
153 153 119
136 119 102
136 119 102
136 119 102
136 136 119
153 153 119
170 153 136
170 153 136
170 170 136
170 153 119
170 153 119
187 170 153
204 187 153
187 153 136
170 153 119
170 153 136
204 187 170
204 204 187
221 221 221
238 238 238
221 221 238
204 204 204
187 187 187
187 187 187
170 187 187
170 187 170
170 187 170
170 170 153
153 170 153
187 187 187
187 204 187
170 187 170
119 119 102
85 102 68
68 85 68
68 85 51
85 102 85
119 136 119
136 153 136
153 153 136
153 170 136
153 170 136
153 170 136
136 170 136
136 153 136
136 153 136
136 153 119
136 153 136
170 187 170
204 221 221
204 221 221
170 187 187
136 153 136
102 119 85
102 119 85
102 119 85
102 119 85
102 119 85
102 136 85
102 119 68
102 119 68
102 119 68
102 136 68
102 119 68
119 136 85
119 136 85
119 136 85
102 119 68
102 119 68
119 136 68
119 136 68
119 136 68
119 136 85
119 136 85
136 136 85
136 153 102
136 153 102
136 153 102
136 136 85
119 136 85
136 136 102
136 153 102
136 153 102
136 153 102
136 136 85
136 136 85
119 136 85
119 136 85
119 136 85
119 136 85
102 119 68
85 102 68
85 102 68
102 102 85
102 102 85
102 102 85
102 119 85
119 119 102
119 119 85
119 119 85
119 136 85
136 136 102
119 136 85
119 136 85
102 119 85
102 119 68
102 119 68
102 136 68
102 136 68
102 136 68
102 136 68
119 136 85
119 136 85
102 136 68
102 136 68
102 119 68
102 119 68
119 119 85
119 136 102
136 153 119
119 136 85
102 119 68
221 221 204
204 221 204
204 221 204
221 221 204
221 221 204
204 221 204
204 221 204
221 221 204
221 221 204
221 221 204
221 221 204
221 221 221
221 221 204
221 221 204
221 221 204
221 221 204
221 221 204
221 221 221
221 221 221
221 221 221
221 221 221
221 221 221
221 221 221
221 221 221
221 221 221
221 221 221
221 221 221
221 221 221
221 221 221
221 221 221
221 221 221
221 221 221
221 221 221
221 221 221
221 221 221
221 221 221
221 221 221
221 221 221
221 221 221
221 221 221
221 221 221
221 221 221
221 221 221
221 221 221
221 221 221
221 221 221
221 221 221
221 221 221
221 221 221
221 221 221
221 238 221
221 238 221
221 238 221
221 238 221
221 238 221
221 238 221
221 238 221
221 238 221
221 238 221
221 238 221
221 238 221
221 238 221
221 238 221
238 238 221
238 238 221
238 238 221
238 238 221
238 238 238
238 238 238
238 238 238
238 238 238
238 238 238
238 238 238
238 238 238
238 238 238
221 238 238
170 187 170
68 68 68
34 34 34
51 51 51
51 51 51
51 51 51
51 51 51
51 51 51
51 68 51
51 68 68
51 68 68
51 68 68
51 68 68
51 68 68
51 68 68
51 68 68
51 68 68
51 68 68
51 68 68
51 68 68
51 68 68
51 68 68
51 68 68
51 68 68
51 68 68
51 68 68
51 68 68
51 68 68
51 68 68
51 68 68
51 68 68
51 68 68
51 68 68
51 68 68
51 68 68
51 68 68
51 68 68
51 68 68
51 68 68
51 68 68
51 68 68
51 68 68
68 85 85
85 102 102
102 119 119
119 136 136
136 153 153
136 153 153
136 153 153
153 153 153
170 170 153
170 170 153
170 153 136
153 153 136
153 153 136
153 153 136
153 153 136
153 153 119
153 153 136
153 136 119
153 153 136
170 170 153
170 170 153
170 153 136
170 170 153
170 153 136
153 153 136
153 136 119
153 136 119
153 153 136
153 153 136
153 153 136
170 153 136
170 153 153
170 170 153
187 187 187
204 204 187
204 204 187
187 187 170
187 187 170
187 170 170
170 170 153
170 170 153
170 170 170
170 170 170
170 170 153
102 102 85
68 68 68
51 51 51
51 51 51
51 51 51
51 51 51
68 68 68
85 85 68
136 136 136
170 170 153
187 187 170
204 187 187
187 187 187
187 187 170
187 187 170
187 187 170
204 204 187
204 204 187
204 204 187
187 187 187
170 170 153
153 153 136
153 153 136
153 136 119
153 153 119
170 153 136
170 153 136
170 153 136
170 153 136
153 153 136
153 153 136
170 153 136
153 153 136
153 153 136
187 170 153
187 187 170
170 153 136
136 119 102
136 119 102
136 119 102
136 136 102
153 153 119
170 153 136
170 170 153
187 170 153
170 153 136
170 153 119
187 170 136
204 187 153
187 153 136
187 170 136
187 170 153
204 187 170
204 204 187
204 221 204
221 221 221
204 204 204
204 204 204
221 221 221
221 238 221
221 238 221
221 238 221
221 238 221
221 221 221
221 221 221
238 238 238
238 238 238
221 221 204
170 170 153
119 136 119
119 119 119
102 102 102
119 119 102
170 170 170
187 204 204
204 204 204
204 221 204
204 221 204
204 221 204
204 221 204
204 221 204
204 221 204
204 221 204
187 204 187
204 221 204
221 238 238
221 238 238
187 204 204
153 170 153
119 119 85
102 119 85
102 119 85
102 119 85
102 119 85
119 136 85
102 119 85
102 119 85
119 136 85
119 136 85
102 136 85
119 136 85
119 136 85
119 136 85
119 136 85
102 136 68
102 119 68
102 136 68
119 136 68
102 136 68
119 136 85
119 136 85
136 136 85
136 153 102
136 153 102
136 136 85
119 136 85
136 153 85
136 153 102
136 136 102
119 136 85
119 136 85
136 136 85
136 136 85
136 136 85
136 136 102
119 136 85
102 119 85
102 102 68
102 119 85
102 102 85
119 119 85
119 119 85
119 136 102
119 119 85
102 119 85
119 119 85
119 119 85
119 136 85
119 119 85
119 119 85
102 119 85
102 119 85
102 119 85
102 119 68
102 119 68
102 119 68
102 119 68
102 136 85
102 136 85
102 136 68
102 119 68
102 119 68
102 119 85
102 119 85
119 119 85
119 136 85
119 119 85
102 119 68
204 221 204
221 221 204
221 221 204
221 221 204
221 221 204
221 221 204
221 221 204
221 221 204
221 221 204
221 221 204
221 221 221
221 221 221
221 221 221
221 221 204
221 221 221
221 221 204
221 221 221
221 221 204
221 221 204
221 221 221
221 221 221
221 221 221
221 221 221
221 221 221
221 221 221
221 221 221
221 221 221
221 221 221
221 221 221
221 221 221
221 221 221
221 221 221
221 221 221
221 221 221
221 221 221
221 221 221
221 221 221
221 221 221
221 221 221
221 221 221
221 221 221
221 221 221
221 221 221
221 221 221
221 221 221
221 221 221
221 221 221
221 221 221
221 221 221
221 221 221
221 238 221
221 238 221
221 238 221
221 238 221
221 238 221
221 238 221
221 238 221
221 238 221
221 238 221
238 238 221
221 238 221
221 238 221
221 238 221
238 238 221
238 238 221
238 238 221
238 238 221
238 238 221
238 238 238
238 238 238
238 238 238
238 238 238
238 238 238
238 238 238
238 238 238
238 238 238
204 204 204
119 119 119
34 51 51
51 51 51
34 51 51
34 51 51
34 51 51
34 51 51
34 51 51
34 51 51
34 51 51
34 51 51
51 68 68
51 68 68
51 68 68
51 51 51
51 51 51
51 51 51
51 68 68
51 68 68
51 68 68
51 68 68
51 68 68
51 68 68
51 68 68
51 68 68
51 68 68
51 68 68
51 68 68
51 68 68
51 68 68
51 68 68
51 68 68
51 68 68
51 68 68
51 68 68
51 68 68
51 68 68
51 68 68
51 68 68
51 68 68
51 68 68
51 68 68
68 85 85
85 102 102
102 119 119
119 136 136
119 153 153
119 153 153
119 119 119
136 153 136
170 170 153
170 170 153
153 170 153
153 170 153
153 170 153
170 170 153
170 153 136
153 153 136
153 136 119
153 153 136
170 170 153
170 153 136
170 153 136
170 170 136
170 153 136
153 136 119
153 153 119
153 153 136
170 153 136
170 153 136
170 153 136
170 170 153
204 204 187
221 221 204
221 221 204
204 221 204
204 204 187
204 204 187
187 187 170
187 187 170
170 170 170
170 170 153
153 153 153
153 153 136
85 85 85
34 34 34
17 34 34
34 34 34
34 34 34
17 34 34
34 34 34
34 34 34
34 34 34
68 68 68
119 102 102
170 170 153
187 187 170
187 187 170
187 187 170
187 187 170
204 204 187
204 204 187
204 204 187
204 204 204
204 204 204
204 204 187
187 170 170
170 170 170
170 170 153
153 153 136
153 153 136
170 153 136
170 153 136
170 153 136
170 153 136
170 153 136
153 153 136
153 153 136
170 153 136
170 170 153
187 187 170
170 170 153
136 119 102
136 119 102
153 136 102
153 136 119
153 153 119
170 153 136
187 170 153
187 187 170
187 170 153
170 170 136
187 170 136
187 170 153
187 170 136
187 187 153
187 187 170
187 187 170
170 187 153
170 170 153
170 187 170
170 187 170
153 170 153
153 153 136
153 170 136
153 170 136
153 170 136
170 170 136
170 170 136
170 170 136
170 170 136
153 170 136
136 153 119
136 136 119
136 136 119
136 153 136
136 136 136
119 119 102
136 136 119
153 170 136
170 170 153
170 187 153
170 187 170
170 187 170
187 187 170
187 204 170
187 204 187
204 204 187
204 204 187
187 187 170
187 204 187
204 221 204
187 204 187
153 170 153
119 136 102
102 119 85
102 119 68
102 136 85
102 136 85
119 136 85
119 136 85
119 136 85
119 136 102
119 136 85
102 119 68
102 119 68
102 136 68
119 136 85
119 136 85
102 119 68
102 119 68
102 136 68
119 136 85
119 136 68
119 136 85
119 136 68
119 136 85
136 153 102
136 153 102
136 153 102
119 136 85
136 153 85
136 136 85
119 136 85
119 136 85
119 136 85
119 136 85
136 153 85
136 153 102
136 136 85
119 136 85
102 119 85
102 119 85
119 119 102
119 119 85
119 119 85
119 119 85
119 136 102
119 136 85
102 119 85
119 119 85
119 136 85
119 119 85
119 119 85
119 136 85
119 136 85
102 119 85
102 119 85
102 119 68
102 119 85
102 119 68
102 119 68
102 119 68
102 119 85
102 119 68
102 119 85
119 136 85
102 119 85
119 119 85
102 119 85
119 119 85
119 119 85
102 119 68
204 221 204
204 221 204
221 221 204
221 221 204
221 221 221
204 221 204
221 221 204
221 221 204
204 221 204
221 221 204
221 221 204
221 221 204
221 221 204
221 221 204
221 221 221
221 221 204
221 221 204
221 221 221
221 221 221
221 221 221
221 221 221
221 221 221
221 221 221
221 221 221
221 221 204
221 221 221
221 221 221
221 221 221
221 221 221
221 221 221
221 221 221
221 221 221
221 221 221
221 221 221
221 221 221
221 221 221
221 221 221
221 221 221
221 221 221
221 221 221
221 221 221
221 221 221
221 221 221
221 221 221
221 221 221
221 221 221
221 221 221
221 221 221
221 221 221
221 221 221
221 221 221
221 221 221
221 238 221
221 238 221
221 238 221
221 238 221
221 238 221
221 238 221
221 238 221
221 238 221
221 238 221
221 238 221
221 238 221
221 238 221
221 238 221
221 238 221
238 238 221
221 238 221
238 238 221
238 238 221
238 238 238
238 238 221
238 238 238
221 238 221
238 238 221
238 238 221
221 221 221
170 170 170
68 85 85
51 68 68
51 68 68
51 68 68
51 68 68
51 68 51
51 51 51
51 51 51
51 68 51
51 68 68
51 68 68
51 68 68
51 68 51
34 51 51
34 51 51
34 51 51
51 51 51
51 51 51
51 51 68
51 68 68
51 68 68
51 68 68
51 68 68
51 68 68
51 68 68
51 68 68
51 68 68
51 68 68
51 68 68
51 68 68
51 68 68
51 68 68
51 68 68
51 68 68
51 68 68
51 68 68
51 68 68
51 68 68
51 68 68
51 68 68
51 68 68
51 68 68
68 85 85
85 102 102
102 119 119
102 119 119
102 119 119
102 119 119
119 119 119
136 153 153
153 170 153
153 170 170
153 170 170
170 170 170
170 170 170
170 170 170
153 153 136
153 136 119
170 170 153
170 170 153
170 170 136
170 153 136
170 153 136
153 153 119
153 153 119
153 153 136
170 153 136
170 170 153
170 170 153
187 187 170
204 204 187
221 221 204
204 204 204
204 204 204
204 204 187
204 204 204
204 204 187
187 187 170
187 187 170
170 170 153
153 153 153
153 153 136
85 85 85
34 34 34
0 17 17
0 0 17
17 17 17
17 17 17
17 17 34
17 17 34
17 17 17
17 17 17
34 34 34
85 85 68
102 102 85
170 170 153
187 187 170
187 187 170
187 187 170
187 187 187
204 204 187
204 204 204
221 221 204
221 221 204
221 221 204
204 204 204
204 204 204
204 204 187
170 170 153
170 153 136
170 153 136
170 153 153
170 153 136
170 153 136
170 153 136
153 153 136
170 153 136
170 170 153
187 170 153
187 187 153
170 170 153
153 136 119
136 136 102
153 136 102
153 136 119
153 153 119
170 153 136
170 170 153
187 187 170
187 187 170
187 170 153
187 170 136
187 170 153
187 170 153
187 187 153
170 170 153
153 170 136
136 153 119
102 119 102
102 119 102
119 136 119
119 119 102
102 102 85
85 102 68
85 102 68
85 102 68
85 102 68
85 102 68
85 102 68
85 102 68
85 102 68
85 102 68
102 119 85
102 119 102
102 119 102
119 136 119
102 119 102
85 102 85
85 102 68
102 102 85
102 102 68
85 102 68
102 119 68
102 119 68
102 119 68
102 119 85
119 136 102
136 136 119
136 153 136
136 153 119
153 153 136
170 187 170
153 170 136
119 136 102
102 119 85
102 119 68
102 119 85
119 136 85
119 136 85
136 136 102
119 136 85
119 136 85
119 136 85
102 119 68
102 119 68
102 119 68
102 136 85
119 136 85
102 136 68
102 136 68
119 136 85
119 136 85
119 136 85
102 119 68
119 136 68
119 136 85
136 153 102
136 153 102
136 153 102
119 136 85
119 136 85
119 136 85
119 136 85
119 136 85
119 136 85
119 136 85
119 136 85
136 136 102
136 136 85
119 136 85
119 136 85
119 119 85
119 136 85
119 136 85
102 119 85
102 119 85
119 119 85
119 119 85
102 119 85
119 119 85
119 136 85
119 136 85
119 136 85
119 136 85
119 136 85
119 119 85
102 119 68
102 102 68
102 119 68
102 119 68
102 119 68
102 119 68
102 119 68
102 119 85
119 136 85
119 136 85
119 136 85
119 136 85
119 136 85
119 119 85
119 119 85
102 119 85
204 221 204
204 221 204
221 221 204
221 221 221
204 221 204
221 221 204
221 221 204
221 221 204
221 221 204
221 221 204
221 221 204
221 221 204
221 221 204
221 221 204
221 221 204
221 221 204
221 221 204
221 221 204
221 221 204
221 221 221
221 221 204
221 221 204
221 221 204
221 221 204
221 221 204
221 221 221
221 221 204
221 221 221
221 221 204
221 221 204
221 221 221
221 221 221
221 221 221
221 221 221
221 221 221
221 221 221
221 221 221
221 221 221
221 221 221
221 221 221
221 221 221
221 221 221
221 221 221
221 221 221
221 221 221
221 221 221
221 221 221
221 221 221
221 221 221
221 221 221
221 221 221
221 221 221
221 238 221
221 238 221
221 238 221
221 238 221
221 238 221
221 238 221
221 238 221
221 238 221
221 238 221
221 238 221
221 238 221
221 238 221
221 238 221
238 238 221
238 238 221
238 238 221
238 238 221
238 238 221
238 238 221
221 238 221
221 238 221
221 238 221
238 238 221
238 238 221
238 238 238
204 204 204
136 153 153
102 102 102
85 102 102
85 102 102
85 102 102
85 102 102
85 102 102
85 85 85
85 85 85
85 85 85
68 85 85
68 85 85
68 85 85
68 85 85
68 85 85
68 85 85
68 85 85
68 85 68
68 68 68
51 68 68
51 68 68
51 68 68
51 68 68
51 68 68
51 68 68
51 85 68
68 85 85
51 85 68
51 68 68
68 85 68
68 85 85
68 85 85
68 85 85
68 85 85
68 85 85
68 85 85
51 68 68
51 68 68
51 68 68
51 68 68
51 68 68
51 68 68
51 68 68
68 85 85
68 85 85
85 102 102
85 102 102
85 102 102
102 119 119
136 136 136
136 153 153
136 153 153
153 153 153
153 170 170
153 170 170
153 170 170
153 153 136
153 153 136
170 170 153
187 170 153
170 170 153
170 170 136
153 153 136
153 153 119
153 153 136
170 153 136
170 153 136
170 170 153
187 187 170
187 187 187
204 204 187
204 204 187
204 204 187
204 204 187
204 204 187
187 187 187
187 187 170
170 170 153
170 170 153
153 153 153
153 153 136
136 136 119
51 51 34
17 17 17
0 0 0
0 0 255
0 0 17
0 17 17
17 17 17
0 17 17
0 0 0
0 0 0
17 17 17
51 51 51
68 68 51
153 153 136
170 170 153
170 170 153
187 170 153
187 187 170
187 187 170
204 204 187
221 204 204
221 221 204
221 221 221
221 221 221
221 221 204
204 204 204
204 204 187
187 187 170
187 187 170
187 170 170
170 170 153
170 170 153
170 170 153
170 153 136
153 153 136
170 170 136
187 170 153
170 170 153
170 153 136
136 136 102
153 136 102
153 136 119
153 136 119
153 153 119
170 170 136
187 170 153
187 170 153
187 187 153
170 170 153
170 170 153
170 170 136
170 170 136
153 153 119
153 153 136
136 136 119
102 119 102
102 102 85
85 102 85
102 119 85
102 119 102
85 102 85
102 102 68
102 102 85
102 102 85
85 102 68
85 102 68
85 102 68
102 102 85
102 119 85
85 102 68
102 119 85
102 102 85
102 102 85
102 119 102
102 102 85
85 85 68
85 102 68
85 102 68
85 102 68
85 102 51
85 102 68
85 102 68
85 102 68
102 119 68
102 119 85
102 119 85
102 119 85
102 119 85
102 119 102
136 153 119
136 153 119
136 136 102
119 136 85
102 119 68
119 136 85
119 136 85
119 136 85
119 136 85
119 136 85
119 136 85
102 119 68
102 119 68
102 119 68
102 119 68
102 119 68
119 136 85
102 119 68
102 119 68
119 136 85
119 136 85
119 136 85
102 119 68
102 136 68
119 136 85
136 153 102
153 153 102
136 153 102
136 136 102
119 136 85
119 136 85
119 136 85
119 136 85
119 136 85
119 136 85
119 136 85
136 153 102
119 136 85
119 136 85
119 136 85
119 136 85
119 136 85
119 136 85
119 136 85
119 119 85
102 119 85
119 136 102
119 136 85
119 136 85
119 136 85
119 119 85
119 136 85
119 136 85
119 136 102
119 119 85
102 119 68
85 102 68
102 119 68
102 119 85
102 119 68
102 119 68
102 119 68
119 136 85
119 136 85
119 136 102
119 136 85
119 136 85
119 136 85
136 136 102
119 136 85
119 119 85
204 221 204
204 221 204
204 221 204
221 221 204
221 221 204
221 221 204
221 221 204
221 221 204
221 221 204
221 221 204
221 221 204
221 221 204
221 221 204
221 221 204
221 221 204
221 221 204
221 221 204
221 221 204
221 221 221
221 221 221
221 221 204
221 221 204
221 221 204
221 221 204
221 221 204
221 221 204
221 221 204
221 221 204
221 221 204
221 221 204
221 221 221
221 221 221
221 221 221
221 221 221
221 221 221
221 221 221
221 221 221
221 221 221
221 221 221
221 221 221
221 221 221
221 221 221
221 221 221
221 221 221
221 221 221
221 221 221
221 221 221
221 221 221
221 221 221
221 221 221
221 221 221
221 221 221
221 238 221
221 238 221
221 238 221
221 238 221
221 238 221
221 238 221
221 238 221
221 238 221
221 238 221
221 238 221
221 238 221
221 238 221
221 238 221
221 238 221
238 238 221
221 238 221
238 238 221
238 238 221
238 238 221
221 238 221
238 238 221
221 238 221
238 238 221
238 238 238
238 238 238
221 221 221
187 187 187
136 136 136
119 136 136
119 136 136
119 136 136
119 136 136
119 136 136
119 136 136
119 136 136
119 136 136
119 136 136
119 119 136
119 119 119
102 119 119
102 119 119
102 119 119
102 119 119
102 119 119
102 119 119
102 119 119
102 119 119
102 102 102
85 102 102
85 102 102
85 102 102
85 102 102
85 102 102
85 102 102
85 102 102
85 102 102
85 102 102
85 102 102
85 102 102
85 102 102
85 102 102
85 102 102
85 102 102
68 85 85
68 85 85
68 85 85
68 85 85
68 85 85
68 85 85
68 85 85
68 85 85
85 102 102
85 102 102
85 102 102
102 102 119
102 119 119
119 136 136
119 136 136
136 136 136
136 153 153
136 153 153
136 153 153
153 153 153
170 170 153
187 187 170
187 187 170
170 170 153
170 153 136
153 153 136
170 153 136
170 170 153
170 170 153
187 187 170
187 187 170
187 187 170
204 204 187
204 204 204
221 221 204
204 204 187
187 187 187
187 187 170
187 187 170
187 187 170
187 187 170
170 170 153
153 153 136
153 153 136
136 136 119
51 51 51
17 17 17
0 0 0
0 0 255
0 0 0
0 0 17
0 0 17
0 0 17
0 0 255
0 0 0
0 17 17
34 34 34
68 68 51
136 136 136
170 170 153
170 170 153
187 170 170
187 187 170
187 187 170
187 187 170
204 187 187
204 204 204
221 221 221
221 221 221
221 221 221
221 221 221
221 204 204
187 187 187
187 187 170
204 187 187
187 187 170
187 187 170
170 170 153
170 170 136
153 153 136
170 153 136
187 170 153
187 187 170
170 170 136
153 136 102
153 136 102
170 153 119
170 153 136
170 153 136
170 170 136
187 170 153
187 187 170
170 170 153
170 170 136
170 170 153
187 170 153
170 153 136
153 136 119
153 153 119
153 153 136
119 136 119
102 119 102
119 136 119
119 136 119
119 136 119
102 119 102
102 102 85
102 119 85
102 119 85
102 119 85
85 102 68
85 102 68
102 119 85
102 119 85
102 102 68
85 102 68
85 102 85
85 102 85
85 102 85
85 85 68
85 85 68
85 102 68
85 102 68
85 102 68
85 102 68
102 119 68
102 119 68
102 119 68
102 119 85
102 119 85
102 119 85
85 119 85
102 119 85
102 119 85
119 136 102
136 136 102
136 136 102
119 136 85
119 136 85
119 136 85
119 136 85
119 136 85
119 136 85
119 136 85
102 136 85
102 119 68
102 119 68
102 119 68
102 119 68
102 119 68
102 119 68
102 119 68
102 119 68
119 136 85
119 136 85
102 119 85
102 119 68
102 136 68
119 136 85
136 153 102
136 153 102
153 153 119
136 153 102
136 136 102
136 153 102
136 153 102
136 153 102
136 136 102
136 136 102
136 136 102
136 153 102
136 153 85
136 153 85
119 136 85
119 136 85
119 136 85
136 136 102
136 153 102
119 136 102
119 136 85
136 136 102
136 136 102
136 136 102
119 136 85
119 119 68
119 136 85
119 136 85
136 136 102
119 136 85
102 119 85
102 102 68
102 119 68
119 119 85
119 119 85
102 119 85
102 119 85
119 136 102
119 136 85
119 136 85
102 119 85
119 136 85
119 136 85
119 136 102
119 136 102
119 119 85
204 221 204
204 221 204
204 221 204
221 221 204
221 221 204
221 221 204
221 221 204
204 221 204
221 221 221
221 221 204
221 221 204
221 221 204
221 221 221
221 221 204
221 221 221
221 221 204
204 221 204
221 221 204
221 221 204
221 221 221
221 221 204
221 221 204
221 221 204
221 221 204
221 221 204
221 221 204
221 221 204
221 221 204
221 221 204
221 221 204
221 221 204
221 221 221
221 221 221
221 221 221
221 221 221
221 221 221
221 221 221
221 221 221
221 221 221
221 221 221
221 221 221
221 221 221
221 221 221
221 221 221
221 221 221
221 221 221
221 221 221
221 221 221
221 221 221
221 221 221
221 238 221
221 238 221
221 221 221
221 238 221
221 238 221
221 238 221
221 238 221
221 238 221
221 238 221
221 238 221
221 238 221
221 238 221
221 238 221
221 238 221
221 238 221
221 238 221
221 238 221
221 238 221
238 238 221
238 238 221
238 238 221
221 238 221
238 238 221
238 238 221
238 238 221
238 238 221
238 238 238
238 238 238
204 204 204
153 170 170
136 153 153
136 153 153
136 153 153
136 153 153
136 153 153
136 153 153
136 153 153
136 153 153
136 153 153
136 153 153
136 153 153
136 153 153
136 153 153
136 153 153
136 153 153
136 153 153
136 153 153
136 153 153
136 136 136
136 136 136
119 136 136
119 136 136
119 136 136
119 136 136
119 136 136
119 136 136
119 136 136
119 136 136
119 136 136
119 136 136
119 136 136
119 136 136
119 136 136
119 136 136
119 119 136
119 119 136
102 119 119
102 119 119
102 119 119
102 119 119
102 119 119
102 119 119
102 119 119
102 119 119
102 119 119
102 119 119
102 119 119
102 119 119
119 119 119
119 136 136
119 136 136
119 136 136
119 136 136
119 136 136
136 153 153
170 170 170
187 187 170
187 187 170
187 170 170
170 170 153
170 170 153
170 170 153
170 170 153
170 170 153
187 187 170
187 187 170
204 187 187
204 204 204
204 204 187
204 204 187
187 187 187
204 204 187
204 204 187
187 187 170
187 187 170
187 187 170
170 170 153
153 153 136
153 153 136
136 136 136
68 68 68
17 17 17
0 0 0
0 0 0
17 17 17
0 0 0
0 0 0
0 17 17
0 0 0
0 0 0
0 0 0
17 17 17
68 68 68
136 136 119
153 153 136
170 170 153
170 170 170
187 187 170
187 187 170
187 187 170
187 187 187
204 204 187
204 204 204
221 221 204
221 221 204
221 221 221
221 221 204
204 204 204
204 187 187
187 187 170
170 170 170
170 170 153
170 170 153
170 170 153
170 170 136
170 170 136
170 170 153
187 187 170
187 187 153
170 153 136
153 136 119
170 153 119
170 153 136
170 170 153
187 187 153
204 187 170
204 204 187
187 187 170
153 153 136
170 170 153
187 170 153
187 170 153
170 170 136
170 170 136
170 170 153
170 170 153
153 153 136
153 170 153
170 187 170
153 170 153
136 136 119
102 102 85
102 102 85
102 119 85
102 119 85
85 102 68
85 102 68
102 119 85
102 119 85
85 102 68
85 102 68
85 85 68
85 85 68
68 85 68
68 85 68
85 85 68
85 102 68
85 102 68
85 102 68
85 119 68
85 102 68
85 102 68
85 119 68
102 119 68
102 119 85
102 119 85
102 119 85
102 119 85
102 119 85
119 136 102
119 136 85
119 136 85
119 136 85
119 136 85
102 136 85
102 136 85
102 119 68
102 119 85
102 119 68
102 136 85
102 136 85
102 136 85
102 136 85
102 119 85
102 119 85
102 119 85
102 119 85
102 119 68
119 136 85
119 136 85
102 119 68
102 119 68
102 119 68
119 136 85
119 136 85
136 136 102
136 153 102
136 136 102
136 136 102
136 153 102
153 153 102
153 153 102
136 153 102
136 136 102
136 136 102
136 153 102
136 153 102
136 153 102
136 153 85
136 153 102
136 153 102
136 153 102
136 153 102
136 136 102
136 136 102
136 153 102
136 153 102
136 153 102
119 136 85
119 136 68
119 136 85
136 136 102
136 153 102
136 136 102
119 136 85
102 119 68
102 119 85
119 119 85
119 136 102
119 119 85
119 136 85
119 136 102
119 136 85
119 119 85
102 119 85
119 136 85
119 136 85
119 136 85
119 136 85
119 119 85
204 221 204
204 221 204
204 221 204
204 221 204
221 221 204
221 221 204
221 221 204
221 221 204
221 221 204
221 221 204
221 221 221
221 221 204
221 221 204
221 221 204
221 221 204
204 221 204
221 221 204
221 221 204
221 221 204
221 221 204
221 221 204
221 221 204
221 221 204
221 221 204
221 221 204
221 221 204
221 221 204
221 221 204
221 221 204
221 221 204
221 221 221
221 221 221
221 221 221
221 221 204
221 221 221
221 221 221
221 221 221
221 221 221
221 221 221
221 221 221
221 221 221
221 221 221
221 221 221
221 221 221
221 221 221
221 221 221
221 221 221
221 221 221
221 221 221
221 221 221
221 238 221
221 238 221
221 238 221
221 238 221
221 238 221
221 238 221
221 238 221
221 238 221
221 238 221
221 238 221
221 238 221
221 238 221
221 238 221
221 238 221
221 238 221
221 238 221
221 238 221
221 238 221
221 238 221
238 238 221
238 238 221
238 238 221
238 238 221
238 238 221
238 238 221
238 238 238
238 238 238
238 238 238
221 221 221
187 204 204
153 170 170
153 170 170
153 170 170
153 170 170
153 170 170
153 170 170
153 170 170
153 170 170
153 170 170
153 170 170
153 170 170
153 170 170
153 170 170
153 170 170
153 170 170
153 170 170
153 170 170
153 170 170
153 170 170
153 170 170
153 170 170
153 170 170
153 170 153
153 153 153
153 153 153
153 153 153
153 153 153
136 153 153
136 153 153
136 153 153
136 153 153
136 153 153
136 153 153
136 153 153
136 153 153
136 153 153
136 153 153
136 153 153
136 153 136
136 136 136
136 136 136
119 136 136
119 136 136
119 136 136
119 136 136
119 136 136
119 136 136
119 136 136
119 136 136
119 136 136
119 136 136
136 136 136
136 136 136
136 153 153
153 153 153
187 187 170
170 170 170
187 187 170
187 187 170
170 170 153
170 170 153
170 170 153
170 170 153
170 170 170
187 187 170
187 187 170
204 204 187
204 204 187
204 204 187
187 187 187
204 204 187
187 187 187
187 187 170
187 187 170
187 187 170
170 170 153
153 153 136
153 153 136
153 153 136
153 136 136
85 85 85
34 34 34
17 34 34
17 34 34
0 17 17
0 0 0
0 0 0
0 17 17
17 17 17
17 17 17
17 34 34
51 51 51
119 119 102
136 136 136
153 153 136
170 170 153
170 170 153
187 170 170
187 187 170
187 187 170
204 204 187
204 204 187
204 204 187
204 204 187
221 221 204
204 204 204
204 204 204
204 204 204
204 204 187
204 204 187
187 187 187
187 187 170
170 170 153
170 170 153
170 170 153
170 170 153
170 170 153
187 187 170
187 187 170
170 170 153
170 153 136
170 153 136
187 170 153
187 170 153
204 187 170
221 221 204
221 221 204
204 204 187
153 153 136
170 170 136
187 170 153
204 187 153
204 187 153
187 170 153
170 170 153
187 170 153
170 170 153
170 187 170
204 204 187
170 170 170
153 153 136
119 119 102
102 102 85
102 102 85
102 102 85
85 102 85
85 102 85
102 102 85
102 102 68
85 102 68
68 85 51
51 68 51
51 68 51
68 68 51
68 85 51
68 85 68
85 102 68
85 102 68
85 119 68
102 119 68
102 119 68
85 102 68
85 102 68
85 102 68
85 119 68
102 119 85
102 119 85
119 136 85
119 136 85
119 136 85
119 136 102
119 136 85
119 136 85
102 119 68
102 119 68
102 119 68
102 119 68
102 119 68
102 119 68
102 136 85
119 136 85
119 136 85
119 136 85
102 119 85
119 136 85
102 119 85
102 119 68
102 119 68
119 136 85
102 119 85
102 119 85
102 119 85
102 136 85
102 119 85
119 136 85
119 136 85
136 136 85
119 136 85
136 153 102
136 153 102
136 153 102
136 153 102
136 153 102
136 136 85
136 153 85
136 153 102
136 153 102
136 153 102
136 136 85
136 153 85
136 153 102
136 153 102
136 153 102
119 136 85
119 136 85
119 136 85
136 153 102
119 136 85
119 136 68
119 136 68
119 136 85
136 136 85
136 136 102
136 136 102
119 136 85
119 136 85
119 136 85
119 136 102
136 136 102
119 136 85
119 136 102
119 136 102
119 136 85
102 119 85
119 136 85
119 136 85
119 136 85
119 119 85
102 119 85
102 119 68
204 221 204
221 221 204
221 221 204
221 221 204
204 221 204
221 221 204
221 221 204
221 221 204
221 221 204
221 221 204
221 221 204
221 221 221
221 221 221
221 221 204
221 221 204
221 221 204
221 221 204
221 221 204
221 221 204
221 221 204
221 221 204
221 221 204
221 221 204
221 221 204
221 221 204
221 221 204
221 221 204
221 221 221
221 221 204
221 221 204
221 221 204
221 221 221
221 221 221
221 221 221
221 221 221
221 221 221
221 221 221
221 221 221
221 221 221
221 221 221
221 221 221
221 221 221
221 221 221
221 221 221
221 221 221
221 221 221
221 221 221
221 221 221
221 221 221
221 221 221
221 221 221
221 221 221
221 238 221
221 238 221
221 221 221
221 238 221
221 238 221
221 238 221
221 238 221
221 238 221
221 238 221
221 238 221
221 238 221
221 238 221
221 238 221
221 238 221
221 238 221
221 238 221
238 238 221
238 238 221
238 238 221
238 238 221
238 238 221
238 238 221
238 238 221
238 238 221
238 238 221
238 238 221
238 238 238
204 221 221
170 187 187
170 187 187
170 187 187
170 187 187
170 187 187
170 187 187
170 187 187
170 187 187
170 187 187
170 187 187
170 187 187
170 187 187
170 187 187
170 187 187
170 187 187
170 187 187
170 187 187
170 187 187
170 187 187
170 187 187
170 187 187
170 187 187
170 187 187
170 187 170
170 187 170
170 187 170
170 187 170
170 170 170
170 170 170
170 170 170
153 170 170
153 170 170
153 170 170
153 170 170
153 170 170
153 170 170
153 170 170
153 170 170
153 170 170
153 170 170
153 170 170
153 170 170
153 153 170
153 170 153
153 170 153
153 153 153
153 153 153
153 153 153
136 153 153
136 153 153
153 153 153
153 170 170
170 170 170
170 187 187
204 204 187
221 221 204
187 187 170
187 187 170
187 187 170
170 170 153
170 170 153
170 170 153
170 170 170
187 170 170
187 187 170
204 204 187
204 204 187
204 204 187
187 187 170
204 204 187
187 187 170
187 187 170
187 187 170
187 187 170
170 170 153
153 153 136
153 153 136
153 153 136
153 153 136
153 136 136
102 102 102
51 51 51
0 17 17
0 0 0
0 0 0
0 0 0
0 0 0
0 0 0
0 17 17
17 17 17
34 34 34
68 68 68
119 119 119
153 153 153
153 153 136
170 170 153
170 170 153
170 170 153
187 187 170
187 187 170
187 187 170
204 204 187
204 204 187
204 204 187
204 204 187
221 221 204
204 204 204
187 187 187
204 187 187
187 204 187
204 204 187
187 187 170
187 187 170
187 170 170
170 170 170
187 187 170
187 170 170
187 187 170
187 187 170
187 187 170
170 170 153
170 170 153
170 170 153
170 170 153
170 170 153
221 221 204
238 238 221
204 204 187
170 170 153
153 153 136
170 170 153
187 170 153
187 187 153
187 170 153
170 170 136
170 170 136
170 170 153
170 170 153
187 187 187
187 187 187
153 170 153
119 136 119
102 102 85
102 102 85
85 102 68
85 102 85
102 102 85
102 119 85
102 102 85
85 102 68
68 85 51
51 68 51
51 68 34
68 85 51
68 85 51
85 85 68
85 102 68
85 102 68
85 102 68
102 119 85
102 119 85
102 119 68
85 102 68
85 102 68
85 102 68
102 119 68
102 119 85
119 136 85
119 136 85
119 136 85
119 136 85
119 136 85
102 136 85
102 119 68
85 119 68
85 119 68
85 119 68
85 119 68
85 119 68
102 119 85
119 136 102
119 136 102
119 136 85
102 119 85
102 119 85
102 119 85
102 119 68
102 119 68
102 119 68
102 119 68
119 136 85
119 136 85
119 136 85
102 119 68
102 119 85
119 119 85
119 136 85
136 136 85
136 153 102
136 153 102
136 153 102
119 136 85
119 136 85
119 136 68
119 136 85
136 153 102
136 153 102
136 153 102
136 153 102
136 153 85
136 153 102
136 153 102
119 136 85
119 136 85
119 136 85
102 119 85
119 136 85
119 119 68
102 119 68
119 136 85
119 136 85
119 136 85
119 136 85
119 136 85
119 136 85
119 136 85
136 136 102
136 136 102
136 136 102
119 136 85
119 136 85
119 136 102
119 136 85
119 136 85
119 136 85
119 136 85
119 136 102
119 119 85
102 119 68
102 119 68
221 221 204
204 221 204
204 221 204
221 221 204
221 221 204
221 221 204
204 221 204
221 221 204
221 221 221
221 221 204
221 221 204
221 221 221
221 221 204
221 221 221
221 221 221
221 221 204
221 221 204
221 221 204
221 221 204
221 221 204
221 221 204
221 221 204
221 221 204
221 221 204
221 221 204
221 221 204
221 221 204
221 221 204
221 221 204
221 221 221
221 221 221
221 221 221
221 221 221
221 221 221
221 221 221
221 221 221
221 221 221
221 221 221
221 221 221
221 221 221
221 221 221
221 221 221
221 221 221
221 221 221
221 221 221
221 221 221
221 221 221
221 221 221
221 221 221
221 221 221
221 221 221
221 221 221
221 238 221
221 238 221
221 238 221
221 238 221
221 238 221
221 238 221
221 238 221
221 238 221
221 238 221
221 238 221
221 238 221
221 238 221
221 238 221
221 238 221
221 238 221
238 238 221
238 238 221
238 238 221
238 238 221
238 238 221
238 238 221
238 238 238
238 238 221
238 238 221
238 238 221
238 238 221
238 238 238
221 238 221
204 204 204
187 204 204
187 204 204
187 204 204
187 204 204
187 204 204
187 204 204
187 204 204
187 204 204
187 204 204
187 204 204
187 204 204
204 204 204
187 204 204
187 204 204
187 204 204
187 204 204
187 204 204
187 204 204
187 204 204
187 204 204
187 204 204
187 204 204
187 204 204
187 204 204
187 204 204
187 204 204
187 204 204
187 187 187
187 187 187
170 187 187
170 187 187
170 187 187
170 187 187
170 187 187
170 187 187
170 187 187
170 187 187
170 187 187
170 187 187
170 187 187
170 187 187
170 187 187
170 187 187
170 187 187
170 187 187
170 187 187
170 170 170
170 170 170
170 170 170
153 170 170
153 170 170
170 187 170
187 204 187
204 204 204
204 204 204
187 187 170
187 187 170
187 187 170
170 187 170
170 170 153
187 170 170
187 187 170
187 187 170
187 187 170
204 204 187
204 204 187
204 204 187
204 204 170
187 187 153
187 187 153
170 170 153
170 170 153
153 153 136
153 153 136
170 153 136
170 153 136
136 136 119
153 153 136
136 136 136
102 102 102
68 68 68
17 17 17
0 17 17
0 0 0
0 0 0
0 0 0
0 0 0
0 0 0
0 0 0
51 51 51
85 85 85
136 136 119
153 153 136
153 153 153
153 153 136
170 170 153
187 170 170
170 170 153
170 170 153
187 187 170
187 187 170
204 204 187
204 204 187
187 187 187
204 204 187
221 221 204
204 204 204
187 204 187
204 204 187
204 204 187
187 187 187
187 187 170
187 187 170
170 187 170
187 187 170
187 187 170
187 187 170
187 187 170
187 187 170
187 187 170
170 170 153
153 153 153
136 153 136
153 153 136
187 187 170
204 204 187
187 187 170
170 170 153
136 153 136
153 153 136
170 153 136
170 170 153
170 170 136
153 153 136
153 153 136
153 153 136
153 170 153
170 170 153
187 187 187
153 170 153
136 136 136
102 119 102
102 102 85
102 102 85
102 102 85
102 119 102
102 119 102
102 119 85
85 102 68
68 85 51
51 68 34
51 68 34
68 85 51
68 85 68
85 102 68
85 102 85
85 102 68
85 102 68
102 119 85
102 119 85
102 102 85
85 102 68
85 102 68
85 102 68
85 102 68
102 119 85
102 119 85
119 136 85
119 136 85
119 136 85
119 136 85
102 119 85
85 119 68
85 102 51
85 102 68
85 102 51
85 102 68
102 119 68
102 119 85
119 136 85
119 136 85
119 119 85
102 119 85
102 119 85
102 119 85
102 119 68
85 102 68
102 119 68
102 119 68
102 119 85
119 136 85
119 136 85
102 119 85
102 119 68
102 119 68
119 136 85
136 136 102
136 153 102
136 153 102
136 136 102
119 136 85
102 119 68
102 119 68
119 136 85
136 136 85
136 153 102
136 153 102
136 153 102
136 153 102
136 153 102
136 153 102
119 136 85
119 136 85
102 119 68
102 119 68
102 119 68
102 119 68
119 136 68
136 136 102
119 136 85
119 136 85
102 119 68
119 136 68
119 136 68
119 136 85
136 153 102
153 153 102
136 136 102
136 136 85
119 136 85
136 136 102
136 136 102
136 136 102
119 136 85
119 136 85
119 136 85
136 136 102
119 136 85
102 119 85
221 221 204
221 221 204
204 221 204
221 221 204
204 221 204
204 221 204
221 221 204
221 221 204
221 221 204
221 221 204
221 221 204
221 221 204
221 221 204
221 221 204
221 221 204
221 221 204
221 221 204
221 221 204
221 221 204
221 221 204
221 221 204
221 221 204
221 221 204
221 221 204
221 221 204
221 221 204
221 221 204
221 221 204
221 221 221
221 221 221
221 221 204
221 221 204
221 221 221
221 221 221
221 221 221
221 221 221
221 221 221
221 221 221
221 221 221
221 221 221
221 221 221
221 221 221
221 221 221
221 221 221
221 221 221
221 221 221
221 221 221
221 221 221
221 221 221
221 221 221
221 238 221
221 221 221
221 238 221
221 221 221
221 238 221
221 238 221
221 238 221
221 238 221
221 238 221
221 238 221
221 238 221
221 238 221
221 238 221
221 238 221
221 238 221
221 238 221
221 238 221
221 238 221
221 238 221
238 238 221
221 238 221
238 238 221
238 238 221
221 238 221
238 238 221
238 238 221
238 238 221
238 238 238
238 238 221
238 238 238
204 221 221
187 187 187
187 187 187
187 187 187
187 204 204
187 204 204
204 204 204
204 204 204
204 204 204
204 204 204
204 204 221
204 204 221
204 221 221
204 221 221
204 221 221
204 221 221
204 221 221
204 221 221
221 221 221
204 221 221
204 221 221
204 221 221
204 221 221
204 221 221
204 221 221
204 221 221
204 221 221
204 221 221
204 221 221
204 221 221
204 204 221
204 204 221
187 204 204
187 204 204
187 204 204
187 204 204
187 204 204
187 204 204
187 204 204
187 204 204
187 204 204
187 204 204
187 204 204
187 204 204
187 204 204
187 204 204
187 187 187
187 187 187
170 187 187
170 187 187
170 187 187
170 187 187
170 187 187
204 204 204
204 204 187
187 187 170
187 187 170
187 187 170
187 187 170
187 187 170
187 187 170
187 187 170
187 187 170
187 187 170
187 187 170
204 204 187
204 204 187
204 204 187
187 187 170
187 170 153
170 170 136
170 170 153
153 153 136
153 153 136
153 153 136
153 153 136
136 136 119
136 136 119
153 153 136
119 119 102
102 102 102
85 85 85
68 68 68
34 34 34
17 17 17
0 0 0
0 0 0
17 17 17
17 17 17
34 34 34
68 68 68
85 85 85
119 119 119
153 153 136
170 170 153
170 153 153
153 136 136
170 170 153
187 170 170
170 170 153
170 170 153
170 170 153
187 187 170
204 204 187
204 204 187
204 204 187
204 204 204
221 221 204
204 204 187
204 204 187
204 204 187
204 204 187
187 187 170
187 187 170
187 187 170
187 187 170
187 187 187
187 187 170
187 187 170
187 187 187
187 187 170
136 153 136
119 136 136
119 136 136
119 136 136
136 136 136
136 153 136
136 136 136
119 136 119
119 136 119
119 136 119
119 136 119
136 136 136
136 136 136
136 136 136
119 136 136
136 136 136
136 136 136
136 136 136
153 153 153
136 153 136
119 136 136
119 119 119
102 119 119
102 119 119
102 119 119
119 136 119
119 136 119
119 119 119
85 102 85
68 85 51
51 68 51
51 68 51
68 85 51
68 85 68
85 102 85
102 119 102
102 119 102
102 119 102
119 136 102
119 136 119
102 119 102
85 102 85
85 102 68
85 102 85
102 119 85
119 136 102
119 136 102
119 136 102
119 136 102
119 136 85
102 136 85
102 119 85
102 119 85
102 119 68
85 119 68
85 119 68
102 119 85
102 119 85
102 119 85
102 119 85
102 119 85
102 119 85
102 119 85
102 119 85
102 119 68
85 102 68
85 119 68
102 119 68
85 119 68
102 119 68
119 136 85
119 136 85
102 119 85
102 119 68
102 119 68
119 136 85
119 136 85
136 136 102
136 153 102
119 136 85
119 136 85
119 119 85
102 119 68
119 119 85
119 136 85
119 136 85
136 136 102
136 136 102
136 153 102
136 153 102
136 153 102
119 136 85
119 136 85
119 119 85
102 119 85
102 119 85
119 136 85
119 136 85
136 136 102
136 136 102
119 136 85
102 119 68
102 119 68
119 136 68
119 136 85
136 153 85
136 153 102
136 136 102
136 136 85
119 136 85
136 136 85
136 153 102
136 153 102
136 136 102
119 136 102
136 136 102
136 153 102
136 136 102
119 119 85
221 221 204
221 221 204
221 221 204
221 221 204
221 221 204
221 221 204
221 221 204
204 221 204
221 221 204
221 221 204
221 221 204
204 221 204
221 221 204
221 221 204
221 221 204
221 221 204
221 221 204
221 221 204
221 221 204
221 221 204
221 221 204
221 221 204
221 221 204
221 221 204
221 221 204
221 221 204
221 221 204
221 221 204
221 221 221
221 221 204
221 221 221
221 221 221
221 221 221
221 221 221
221 221 221
221 221 221
221 221 221
221 221 221
221 221 221
221 221 221
221 221 221
221 221 221
221 221 221
221 221 221
221 221 221
221 221 221
221 221 221
221 221 221
221 238 221
221 221 221
221 221 221
221 238 221
221 238 221
221 221 221
221 238 221
221 238 221
221 238 221
221 238 221
221 238 221
221 238 221
221 238 221
221 238 221
221 238 221
221 238 221
221 238 221
221 238 221
221 238 221
221 238 221
221 238 221
238 238 221
221 238 221
221 238 221
221 238 221
238 238 221
238 238 221
238 238 221
238 238 221
238 238 238
238 238 221
238 238 238
221 221 221
187 187 187
153 170 170
153 170 170
153 170 170
153 170 170
170 170 170
170 170 170
170 170 170
170 170 170
170 170 170
170 170 170
170 187 170
170 187 187
170 187 187
187 187 187
187 187 187
187 187 187
187 204 187
187 204 204
204 204 204
204 204 204
204 204 204
204 204 204
204 204 204
204 204 204
204 221 221
204 221 221
204 221 221
204 221 221
204 221 221
204 221 221
204 221 221
221 221 221
221 221 221
221 221 221
221 221 221
221 221 238
221 221 221
221 221 221
221 221 238
221 221 221
204 221 221
204 221 221
204 221 221
204 221 221
204 221 221
204 221 221
204 221 221
204 204 221
204 204 204
204 204 204
204 221 204
221 238 221
221 221 204
204 204 187
187 187 170
187 187 170
187 187 170
187 187 170
187 187 170
187 187 170
187 187 170
187 170 170
187 187 170
221 204 204
204 204 187
187 187 170
187 187 153
170 153 136
170 153 136
170 153 136
153 153 136
153 153 136
153 136 119
153 136 119
136 136 119
153 136 119
136 119 119
119 119 102
119 119 102
85 85 85
68 68 68
68 68 68
34 34 34
17 17 17
0 0 0
34 34 34
34 51 51
51 51 51
85 85 85
102 102 102
119 119 119
153 136 136
153 153 136
170 170 153
153 153 136
153 153 136
170 170 153
170 170 153
170 170 153
170 170 153
170 170 153
187 187 170
204 204 187
204 204 187
204 204 187
221 221 204
221 221 204
204 204 187
204 204 187
204 204 187
187 187 170
187 187 170
187 187 170
187 187 170
204 204 187
187 187 170
187 187 170
204 204 187
187 187 187
153 170 153
136 153 153
136 153 153
136 136 136
136 136 136
136 136 136
136 136 136
136 136 136
136 136 136
119 136 136
119 136 136
119 136 136
119 136 136
119 136 136
119 136 136
119 136 136
119 136 136
119 136 136
119 136 136
119 136 136
119 136 136
119 136 136
119 136 136
119 136 136
119 136 136
136 136 136
136 136 153
136 136 136
102 119 102
68 85 68
51 68 51
68 85 51
68 85 51
68 85 68
102 119 102
119 136 119
136 153 136
136 153 136
136 153 136
136 153 136
119 136 119
102 119 119
102 119 102
102 119 119
119 136 119
136 136 136
136 153 136
136 153 136
136 153 136
136 153 136
119 136 119
119 136 119
119 136 119
119 136 119
119 136 119
119 136 119
119 136 119
119 136 119
119 136 119
119 136 102
119 136 102
119 119 102
119 119 102
119 119 102
102 119 85
102 119 85
102 119 85
102 119 85
102 119 85
102 119 85
102 119 85
102 119 85
102 119 85
102 119 85
102 119 85
119 136 85
119 136 85
119 136 102
136 136 102
136 136 102
136 136 102
119 136 102
102 119 85
119 119 85
119 136 85
119 136 102
136 136 102
136 136 102
153 153 119
136 153 102
119 136 102
119 136 85
119 136 85
119 136 85
119 136 102
119 136 102
136 136 102
119 136 102
119 136 102
119 136 85
102 119 85
102 119 68
102 119 68
119 136 85
119 136 85
136 136 85
136 136 102
136 136 102
136 136 102
119 136 85
119 136 85
136 136 102
136 153 102
136 153 102
136 136 85
136 136 102
136 136 102
136 136 102
119 136 102
221 221 204
204 221 204
221 221 204
221 221 221
204 221 204
221 221 204
221 221 204
221 221 204
221 221 204
221 221 204
204 221 204
204 221 204
221 221 204
221 221 204
221 221 204
221 221 204
221 221 204
221 221 204
221 221 204
221 221 204
221 221 204
221 221 204
221 221 204
221 221 204
221 221 204
221 221 204
221 221 221
221 221 221
221 221 204
221 221 221
221 221 221
221 221 221
221 221 204
221 221 221
221 221 221
221 221 221
221 221 221
221 221 221
221 221 221
221 221 221
221 221 221
221 221 221
221 221 221
221 221 221
221 221 221
221 221 221
221 221 221
221 221 221
221 238 221
221 238 221
221 238 221
221 238 221
221 238 221
221 221 221
221 221 221
221 238 221
221 238 221
221 238 221
221 238 221
221 238 221
221 238 221
221 238 221
221 238 221
221 238 221
221 238 221
221 238 221
221 238 221
221 238 221
221 238 221
221 238 221
221 238 221
221 238 221
221 238 221
221 238 221
221 238 221
238 238 221
238 238 238
238 238 221
238 238 238
238 238 238
238 238 238
204 204 204
170 170 170
153 170 170
153 170 170
153 170 170
170 170 170
170 170 170
170 170 170
153 170 170
153 170 170
170 170 170
170 170 170
153 170 170
170 170 170
170 170 170
170 170 170
170 170 170
170 170 170
170 170 170
170 170 170
170 170 170
170 170 170
170 170 170
170 170 170
170 170 170
170 170 170
170 170 170
170 170 170
170 187 170
170 187 170
170 187 170
170 187 187
170 187 187
170 187 187
170 187 187
187 187 187
187 204 187
187 204 204
187 204 204
204 204 204
204 204 204
204 204 204
204 204 204
204 221 204
204 221 221
204 221 221
204 221 221
204 221 221
204 221 221
221 221 221
221 221 221
221 221 221
204 221 204
187 187 187
187 187 170
187 187 170
187 187 170
170 170 153
187 187 170
187 187 170
187 187 170
170 170 153
170 170 153
187 187 170
204 221 204
204 204 187
187 187 170
170 170 153
170 153 136
170 153 136
170 153 136
153 153 119
153 136 119
153 153 136
153 136 119
136 136 119
136 136 119
136 119 102
119 119 102
102 102 102
85 85 85
68 68 68
68 68 68
51 51 51
34 34 34
17 17 17
34 51 51
51 68 51
68 68 68
85 85 85
119 119 119
119 119 119
136 136 119
153 153 136
153 153 136
170 153 136
153 153 136
153 153 136
170 170 153
153 153 136
170 170 136
170 170 153
170 170 153
187 187 170
187 187 170
204 204 187
221 221 204
221 221 204
204 204 187
187 187 187
187 204 187
187 187 187
187 187 170
187 187 187
187 187 187
187 187 187
187 187 187
187 187 187
204 204 187
204 204 187
170 187 170
153 170 170
153 170 170
153 170 170
153 170 170
153 170 170
153 170 170
153 153 153
153 153 153
136 153 153
136 153 153
136 153 153
136 153 153
136 153 153
136 153 153
136 153 153
136 153 153
136 153 153
136 153 136
136 153 136
136 136 136
136 136 136
136 136 136
136 136 136
136 136 136
136 153 153
153 153 153
136 153 153
119 119 119
68 85 68
51 68 51
51 85 51
68 85 51
68 85 68
102 102 102
136 136 136
153 153 136
136 153 136
136 153 136
136 136 136
119 136 136
119 136 119
119 119 119
119 136 119
136 136 136
136 153 136
136 153 153
136 153 153
136 153 153
136 153 153
136 153 153
153 153 153
153 153 153
136 153 153
136 153 153
136 153 153
136 153 153
136 153 136
136 153 153
136 153 136
136 136 136
119 136 136
119 136 136
119 136 136
119 136 119
119 136 119
119 136 119
119 136 119
119 136 119
119 136 119
119 136 119
119 136 119
119 136 119
119 136 119
119 136 119
119 136 119
119 136 119
136 136 119
136 153 119
136 153 119
136 153 119
136 136 119
119 136 102
119 136 102
119 136 102
136 136 102
119 136 102
136 136 119
136 153 119
136 153 119
119 136 102
119 136 102
119 136 102
136 136 102
136 153 119
136 153 119
136 153 119
136 136 102
119 136 102
119 136 102
119 119 85
102 119 85
102 119 85
119 136 102
119 136 102
119 136 102
119 136 85
119 136 85
119 136 85
119 136 85
119 136 85
119 136 85
119 136 85
119 136 85
119 136 85
136 136 102
136 136 102
119 136 85
119 119 85
221 221 204
221 221 204
204 221 204
221 221 204
221 221 204
204 221 204
221 221 204
221 221 221
221 221 204
221 221 204
221 221 204
204 221 204
221 221 204
221 221 204
221 221 204
221 221 204
221 221 204
221 221 204
221 221 204
221 221 204
221 221 204
221 221 204
221 221 204
221 221 204
221 221 204
221 221 204
221 221 221
221 221 221
221 221 204
221 221 221
221 221 221
221 221 221
221 221 221
221 221 221
221 221 221
221 221 221
221 221 221
221 221 221
221 221 221
221 221 221
221 221 221
221 221 221
221 221 221
221 221 221
221 221 221
221 221 221
221 221 221
221 221 221
221 221 221
221 221 221
221 238 221
221 238 221
221 221 221
221 221 221
221 221 221
221 221 221
221 238 221
221 238 221
221 238 221
221 238 221
221 238 221
221 238 221
221 238 221
221 238 221
221 238 221
221 238 221
221 238 221
221 238 221
221 238 221
221 238 221
221 238 221
221 238 221
221 238 221
221 238 221
238 238 221
238 238 221
238 238 221
238 238 221
238 238 221
238 238 238
238 238 238
221 221 221
187 187 187
153 170 170
153 170 170
153 170 170
170 170 170
170 170 170
170 170 170
170 170 170
170 170 170
170 170 170
170 170 170
170 170 170
170 170 170
170 170 170
170 170 170
170 170 170
170 170 170
170 170 170
170 170 170
170 170 170
170 170 170
170 170 170
170 170 170
170 170 170
170 170 170
170 170 170
170 170 170
170 170 170
170 170 170
170 170 170
170 170 170
170 170 170
170 170 170
170 170 170
170 170 170
170 170 170
170 170 170
170 170 170
170 170 170
170 170 170
170 170 170
170 170 170
170 170 170
170 170 170
170 170 170
170 170 170
170 170 170
170 170 170
170 170 170
187 204 187
221 221 204
221 221 204
204 204 187
187 187 170
187 187 170
170 170 153
187 187 153
187 187 170
187 187 170
187 187 170
170 170 153
170 170 153
187 187 170
204 204 187
187 187 170
187 170 153
170 170 136
170 170 136
170 153 136
153 153 136
153 136 119
153 136 119
153 136 119
136 136 119
136 136 119
136 119 102
119 102 85
136 119 119
85 85 68
102 102 102
68 68 68
34 34 34
68 68 68
34 34 34
34 34 34
51 51 51
34 51 34
102 102 85
68 68 68
119 119 102
136 136 119
136 119 102
136 136 119
153 153 136
153 136 119
153 153 136
153 153 136
153 153 136
153 153 136
153 153 136
170 170 136
170 170 153
170 170 153
187 187 170
204 204 187
204 204 204
221 221 204
187 187 187
187 187 170
187 187 170
187 187 187
187 187 187
187 204 187
187 187 187
187 187 187
187 204 187
204 204 187
204 204 187
204 204 187
187 187 187
170 187 187
170 187 187
170 187 187
170 187 187
170 187 187
170 187 187
170 187 187
170 187 187
170 187 187
170 187 170
170 170 170
170 170 170
170 170 170
170 170 170
170 170 170
153 170 170
153 170 170
153 170 170
153 170 170
153 170 170
153 170 153
153 170 153
153 170 153
153 170 153
153 170 170
170 170 170
170 170 170
119 136 119
68 85 68
51 68 51
51 68 51
68 85 51
68 85 68
102 102 102
136 136 136
153 153 153
153 153 136
136 153 136
136 153 136
136 136 136
119 136 136
119 136 136
119 136 136
136 136 136
136 136 136
136 153 136
136 153 136
136 153 136
136 153 136
136 153 136
136 153 136
153 153 153
153 153 153
153 153 153
153 153 153
136 153 153
136 153 153
136 153 136
136 153 136
136 153 136
136 136 136
136 136 136
136 136 136
136 136 136
136 136 136
136 153 136
136 153 136
136 136 136
136 136 136
136 136 136
136 136 136
136 136 136
136 136 136
136 136 136
136 136 136
136 136 136
136 153 136
136 136 136
136 136 136
136 153 136
136 153 136
136 136 136
136 136 136
136 136 136
136 136 136
136 136 136
136 136 136
136 153 136
136 153 136
136 153 136
136 153 136
136 136 119
136 153 136
136 153 136
136 153 136
136 153 136
136 136 136
136 136 136
119 136 119
119 136 119
119 136 119
119 136 119
119 136 119
136 136 119
119 136 119
119 136 102
119 136 102
119 136 102
119 136 102
119 136 102
119 136 102
119 136 102
119 136 102
136 136 102
136 136 119
136 136 102
119 136 102
119 119 85
221 221 204
221 221 204
221 221 204
221 221 221
221 221 204
221 221 204
221 221 204
221 221 204
221 221 204
204 221 204
221 221 204
221 221 204
204 221 204
221 221 204
221 221 204
221 221 204
221 221 204
221 221 204
221 221 204
221 221 204
221 221 204
221 221 204
221 221 204
221 221 204
221 221 204
221 221 204
221 221 204
221 221 221
221 221 221
221 221 221
221 221 204
221 221 221
221 221 221
221 221 221
221 221 221
221 221 221
221 221 221
221 221 221
221 221 221
221 221 221
221 221 221
221 221 221
221 221 221
221 221 221
221 221 221
221 221 221
221 238 221
221 221 221
221 221 221
221 221 221
221 238 221
221 221 221
221 221 221
221 221 221
221 221 221
221 238 221
221 221 221
221 238 221
221 238 221
221 238 221
221 238 221
221 238 221
221 238 221
221 238 221
221 238 221
221 238 221
221 238 221
221 238 221
221 238 221
221 238 221
221 238 221
221 238 221
221 238 221
221 238 221
238 238 221
238 238 221
238 238 221
221 238 221
221 238 221
238 238 221
238 238 238
221 238 221
204 204 204
170 170 170
153 170 170
170 170 170
170 170 170
170 170 170
170 170 170
170 170 170
170 170 170
170 170 187
170 170 170
170 170 170
170 170 170
170 170 170
170 170 170
170 170 170
170 170 170
170 170 170
170 170 170
170 170 170
170 170 170
170 170 170
170 170 170
170 170 170
170 170 170
170 170 170
170 170 170
170 170 170
170 170 187
170 170 170
170 170 170
170 170 170
170 170 170
170 170 170
170 170 170
170 170 170
170 170 170
170 170 170
170 170 170
170 170 170
170 170 170
170 170 170
170 170 170
170 170 170
170 170 170
170 170 170
153 170 170
153 170 170
170 170 170
187 187 187
204 204 204
221 221 221
221 221 204
187 204 187
187 187 170
170 170 153
187 187 170
187 187 170
187 187 170
187 187 170
170 170 153
170 170 153
187 187 170
204 187 187
187 187 170
187 170 153
170 153 136
170 170 153
153 153 136
153 136 119
153 136 119
153 136 119
153 136 119
136 136 102
136 119 102
119 102 85
136 119 102
102 85 85
119 102 85
85 85 68
68 68 51
85 68 68
68 68 51
51 51 51
51 51 51
68 68 51
85 85 68
85 85 68
85 85 85
85 85 68
136 136 119
153 136 119
119 119 102
153 136 119
153 136 119
153 136 119
153 136 119
153 153 136
170 153 136
153 136 119
153 153 136
170 170 136
170 170 153
187 187 170
187 187 170
204 204 187
204 204 187
204 204 187
187 187 170
187 187 170
187 187 170
187 187 170
187 187 187
187 187 170
187 187 170
204 204 187
204 204 187
204 204 204
204 221 204
204 204 204
170 187 187
170 187 187
170 187 187
170 187 187
170 187 187
170 187 187
170 187 187
170 187 187
170 187 187
170 187 187
170 187 187
170 187 187
170 187 187
170 187 187
170 187 187
170 187 187
170 187 187
170 187 187
170 187 187
170 187 187
170 187 170
170 187 170
170 187 170
170 187 187
170 187 187
187 187 187
187 187 187
136 136 136
68 85 68
51 68 34
51 68 51
68 85 51
68 85 68
102 102 102
136 136 136
153 170 153
170 170 153
170 170 170
170 170 170
153 170 153
153 170 153
153 153 153
153 153 153
153 153 153
153 153 153
153 153 153
153 153 153
153 153 153
153 153 153
153 153 153
153 153 153
153 170 153
153 170 153
153 170 153
153 170 153
153 170 153
153 170 153
153 153 153
153 153 153
153 153 153
136 153 153
136 153 153
136 153 153
136 153 153
136 153 153
136 153 153
136 153 153
136 153 136
136 153 136
136 153 136
136 153 136
136 136 136
136 153 136
136 136 136
136 136 136
136 136 136
136 136 136
119 136 136
119 136 136
136 136 136
136 153 136
136 136 136
136 136 136
136 136 136
136 136 136
136 136 136
136 136 136
136 153 136
136 153 136
136 153 136
136 153 136
136 153 136
136 153 136
136 153 136
136 153 136
136 153 136
136 153 136
136 153 153
136 153 153
136 153 153
136 153 153
136 153 136
136 153 153
136 153 136
136 153 136
136 136 136
136 136 136
136 136 136
136 136 136
136 136 136
136 136 136
136 136 136
136 136 136
136 153 136
136 153 136
136 136 136
119 136 119
119 136 119
221 221 204
221 221 204
221 221 204
221 221 204
221 221 204
204 221 204
221 221 204
221 221 204
221 221 204
221 221 204
221 221 204
221 221 204
221 221 204
221 221 204
221 221 204
221 221 204
221 221 204
221 221 204
221 221 204
221 221 204
221 221 204
221 221 204
221 221 204
221 221 204
221 221 204
221 221 204
221 221 204
221 221 204
221 221 204
221 221 204
221 221 221
221 221 221
221 221 221
221 221 221
221 221 221
221 221 221
221 221 221
221 221 221
221 221 221
221 221 221
221 221 221
221 221 221
221 221 221
221 221 221
221 221 221
221 221 221
221 221 221
221 221 221
221 221 221
221 221 221
221 221 221
221 221 221
221 221 221
221 238 221
221 221 221
221 221 221
221 238 221
221 238 221
221 238 221
221 238 221
221 238 221
221 238 221
221 238 221
221 238 221
221 238 221
221 238 221
221 238 221
221 238 221
221 238 221
221 238 221
221 238 221
221 238 221
221 238 221
221 238 221
221 238 221
221 238 221
238 238 221
238 238 221
238 238 238
238 238 221
238 238 238
238 238 238
221 221 221
187 187 187
153 170 170
153 170 170
170 170 170
170 170 170
170 170 170
170 170 170
170 170 170
170 170 170
170 170 170
170 170 170
170 170 170
170 170 170
170 170 170
170 170 187
170 170 187
170 170 187
170 170 187
170 170 187
170 170 187
170 170 187
170 170 187
170 170 187
170 170 187
170 170 187
170 170 187
170 170 187
170 170 187
170 170 187
170 170 187
170 170 187
170 170 170
170 170 170
170 170 170
170 170 187
170 170 170
170 170 170
170 170 170
170 170 187
170 170 170
170 170 170
170 170 170
170 170 170
170 170 170
170 170 170
170 170 170
170 170 170
170 170 187
170 170 170
187 204 187
204 221 204
204 204 187
187 187 170
187 170 153
170 170 153
170 170 153
187 187 170
187 187 170
187 187 170
170 170 153
187 170 170
187 187 170
204 187 170
187 187 170
170 170 153
170 170 153
170 153 136
153 153 136
153 136 119
153 136 119
136 119 102
136 119 102
136 119 102
119 102 85
102 85 68
119 102 85
102 85 68
85 85 68
102 85 68
85 68 51
85 85 68
51 34 34
34 34 34
51 34 34
34 34 34
102 102 85
68 68 68
102 85 85
85 85 68
85 85 68
136 136 119
136 119 102
119 102 85
136 136 102
153 136 119
153 136 119
153 136 119
153 153 136
153 153 136
153 153 119
153 153 136
170 170 153
187 187 170
187 187 170
187 204 187
204 204 187
187 187 170
187 187 170
187 187 170
187 187 170
187 187 170
187 187 170
187 187 187
187 187 170
204 204 187
204 204 187
204 221 204
204 204 204
204 204 204
204 204 221
204 204 221
204 204 221
187 204 204
187 204 204
187 204 204
187 204 204
187 204 204
187 204 204
187 204 204
187 187 187
170 187 187
170 187 187
170 187 187
170 187 187
170 187 187
170 187 187
170 187 187
170 187 187
170 187 187
170 187 187
170 187 187
170 187 187
170 187 187
170 187 187
187 204 204
187 187 187
136 136 136
68 85 68
51 68 34
51 68 51
68 85 68
102 102 85
119 136 119
153 153 153
170 170 170
187 187 170
187 187 187
187 187 187
170 187 170
170 170 170
153 170 170
153 170 153
153 170 153
153 170 153
153 170 153
153 170 153
153 170 153
153 170 153
153 170 153
153 170 153
153 170 153
153 170 170
170 170 170
170 187 170
170 187 170
170 187 187
170 187 170
170 187 170
170 187 170
170 187 170
153 170 170
153 170 170
153 170 170
153 170 170
153 170 170
153 170 170
153 170 170
153 170 170
153 170 170
153 170 170
153 170 170
153 170 153
153 170 153
153 153 153
136 153 153
136 153 153
136 153 136
136 136 136
136 153 136
136 153 153
136 153 153
136 153 153
136 153 153
136 153 153
136 153 153
136 153 153
136 153 153
136 153 153
136 153 153
136 153 153
136 153 153
136 153 153
136 153 153
136 153 153
136 153 153
136 153 153
136 153 153
136 153 153
136 153 153
136 153 153
136 153 153
136 153 153
136 153 153
136 153 153
136 153 153
136 153 153
136 153 153
136 153 153
136 153 153
136 153 153
136 153 153
136 153 153
136 153 136
136 153 136
136 153 136
136 153 136
136 136 136
221 221 204
204 221 204
204 221 204
204 221 204
204 221 204
204 221 204
221 221 204
221 221 204
221 221 204
204 221 204
204 221 204
221 221 204
221 221 204
221 221 204
221 221 204
221 221 204
221 221 204
221 221 204
221 221 204
221 221 204
221 221 204
221 221 204
221 221 204
221 221 204
221 221 204
221 221 204
221 221 204
221 221 204
221 221 221
221 221 221
221 221 204
221 221 221
221 221 221
221 221 221
221 221 221
221 221 221
221 221 221
221 221 221
221 221 221
221 221 221
221 221 221
221 221 221
221 221 221
221 221 221
221 221 221
221 221 221
221 221 221
221 221 221
221 238 221
221 221 221
221 221 221
221 221 221
221 238 221
221 238 221
221 221 221
221 221 221
221 221 221
221 238 221
221 238 221
221 238 221
221 238 221
221 238 221
221 238 221
221 238 221
221 238 221
221 238 221
221 238 221
221 238 221
221 238 221
221 238 221
221 238 221
221 238 221
221 238 221
238 238 221
238 238 221
221 238 221
221 238 221
221 238 221
238 238 221
238 238 221
238 238 221
238 238 238
221 238 221
187 204 204
153 170 170
153 170 170
153 170 170
153 170 170
170 170 170
170 170 170
170 170 170
170 170 170
170 170 170
170 170 170
170 170 170
170 170 170
170 170 170
170 170 170
170 170 170
170 170 170
170 170 170
170 170 170
170 170 170
170 170 187
170 170 187
170 170 170
170 170 187
170 170 170
170 170 187
170 187 187
170 187 187
170 187 187
170 187 187
170 187 187
170 170 187
170 170 187
170 170 187
170 170 187
170 187 187
170 170 187
170 170 187
170 170 187
170 170 187
170 170 170
170 170 170
170 170 170
170 170 170
170 170 187
170 170 187
170 170 187
170 170 170
170 170 170
170 187 187
221 221 204
221 221 204
187 187 187
187 187 170
170 170 153
187 187 170
187 187 170
187 187 170
170 187 153
170 170 153
187 170 153
187 170 170
187 187 170
187 187 170
170 170 153
170 153 136
170 153 136
153 153 136
153 136 119
136 136 119
136 119 102
136 119 102
119 119 85
119 102 85
102 85 68
102 85 68
85 68 68
68 51 51
102 102 85
34 34 17
34 17 17
34 34 17
17 0 0
51 34 34
17 17 17
68 51 51
68 51 51
68 68 68
68 51 51
85 85 68
85 85 68
119 119 102
119 102 85
119 102 85
153 136 119
153 136 119
153 136 119
153 136 119
153 153 136
153 153 136
153 153 136
170 170 153
187 170 153
187 187 170
187 187 187
204 204 187
187 187 170
170 170 153
187 187 170
187 187 170
187 187 170
187 187 187
187 187 170
204 204 187
204 204 187
204 204 187
204 204 187
187 187 187
187 204 204
204 204 204
204 221 221
204 221 221
204 221 221
204 221 221
204 221 221
204 221 221
204 221 221
204 221 221
204 221 221
204 221 221
204 221 221
204 221 221
204 221 221
204 221 221
204 221 221
204 221 221
204 221 221
204 204 221
204 204 221
187 204 204
187 204 204
187 204 204
187 204 204
170 187 187
187 187 187
170 187 187
136 136 136
68 85 51
51 68 51
68 85 51
85 102 85
136 136 136
170 170 170
187 187 187
204 204 204
204 204 221
221 221 221
221 221 221
204 221 221
204 204 204
187 204 204
187 204 204
187 187 204
187 187 187
187 187 187
187 187 187
187 187 187
187 187 187
170 187 187
170 187 187
170 187 187
170 187 187
170 187 187
187 204 187
187 204 187
187 204 204
187 204 204
187 204 204
187 204 187
187 187 187
170 187 187
170 187 187
170 187 187
170 187 187
170 187 187
170 187 187
170 187 170
170 187 170
170 187 187
170 187 187
170 187 187
170 187 187
153 187 170
170 170 170
153 170 170
153 170 170
153 170 170
136 153 153
136 153 153
153 153 153
153 153 153
153 170 170
153 170 170
153 170 170
153 170 170
153 170 170
153 170 170
153 170 170
153 170 170
153 170 170
153 170 170
153 170 170
153 170 170
153 170 170
153 170 170
153 170 170
153 170 170
153 170 170
153 170 170
153 170 153
153 153 153
153 170 153
153 153 153
153 153 153
153 153 153
153 153 153
153 153 153
136 153 153
153 153 153
153 153 153
153 153 153
136 153 153
136 153 153
136 153 153
136 153 153
136 153 153
136 153 153
221 221 204
204 221 204
204 221 204
204 221 204
221 221 204
221 221 204
204 221 204
204 221 204
204 221 204
204 221 204
204 221 204
204 221 204
221 221 204
221 221 204
221 221 204
221 221 204
221 221 204
221 221 204
221 221 204
221 221 204
221 221 204
221 221 204
221 221 204
221 221 204
221 221 204
221 221 204
221 221 204
221 221 204
221 221 221
221 221 221
221 221 221
221 221 221
221 221 221
221 221 221
221 221 221
221 221 221
221 221 221
221 221 221
221 221 221
221 221 221
221 221 221
221 221 221
221 221 221
221 221 221
221 221 221
221 221 221
221 221 221
221 221 221
221 221 221
221 221 221
221 221 221
221 221 221
221 221 221
221 221 221
221 238 221
221 221 221
221 221 221
221 238 221
221 238 221
221 238 221
221 238 221
221 238 221
221 238 221
221 238 221
221 238 221
221 238 221
221 238 221
221 238 221
221 238 221
221 238 221
221 238 221
221 238 221
221 238 221
221 238 221
221 238 221
221 238 221
221 238 221
221 238 221
221 238 221
221 238 221
238 238 221
238 238 238
238 238 238
204 221 221
170 170 170
153 170 170
153 170 170
153 170 170
170 170 170
170 170 170
170 170 170
170 170 170
170 170 170
170 170 170
170 170 170
170 170 170
170 170 170
153 170 170
170 170 170
170 170 170
170 170 170
170 170 170
170 170 170
170 170 170
170 170 170
170 170 170
170 170 170
170 170 170
170 170 170
170 170 170
170 170 170
170 170 170
170 170 170
170 170 170
170 170 170
170 170 170
170 170 170
170 170 170
170 170 170
170 170 170
170 170 170
170 170 170
170 170 170
170 170 170
170 170 170
170 170 170
170 170 187
170 170 187
170 170 187
170 170 170
170 170 170
170 170 170
187 187 187
221 221 221
238 238 221
204 204 187
187 187 170
170 170 153
187 187 170
187 187 170
187 187 170
187 187 170
170 170 153
170 170 153
170 170 153
187 187 170
187 170 153
170 170 153
170 153 136
153 153 136
153 153 136
153 136 119
136 136 102
136 119 102
136 119 102
119 102 85
85 68 51
85 68 68
68 51 51
51 34 34
17 17 17
68 51 51
17 0 17
17 17 17
17 17 17
17 0 0
17 17 17
0 0 0
17 17 17
51 34 34
34 34 34
51 51 51
17 17 17
68 51 51
85 68 68
102 85 68
102 102 85
136 119 102
153 136 119
153 136 119
153 136 119
153 153 136
153 153 136
153 153 136
170 153 136
170 170 153
187 187 170
187 187 170
204 204 187
187 187 170
170 170 153
187 187 170
187 187 170
187 187 170
187 187 170
187 187 187
204 204 187
204 204 187
204 204 187
204 204 187
170 187 170
170 170 170
170 187 187
170 187 187
170 170 170
170 170 170
170 170 170
170 170 170
170 187 187
170 187 187
170 187 187
170 187 187
170 187 187
170 187 187
170 187 187
170 187 187
170 187 187
187 187 187
187 187 187
187 204 187
187 204 204
187 204 204
187 204 204
187 204 204
187 204 204
187 204 204
187 187 187
187 187 187
170 170 170
119 136 119
68 85 51
51 68 51
68 85 51
102 102 85
153 170 153
187 187 187
187 204 204
204 204 204
204 204 204
221 221 221
221 221 221
221 221 221
221 221 221
204 221 204
204 221 204
204 221 221
204 221 221
204 221 221
204 221 221
204 221 221
204 221 221
204 221 221
204 221 221
204 221 221
204 221 221
204 221 221
221 221 221
221 221 221
221 238 238
221 238 238
221 238 238
221 238 238
221 221 238
204 221 221
221 221 238
221 238 238
221 221 238
204 221 221
204 221 221
204 221 221
204 221 221
204 221 221
204 221 221
187 204 221
187 204 204
187 204 204
187 204 204
170 187 187
153 170 170
153 170 153
153 153 153
153 170 153
153 170 170
170 187 187
170 187 170
153 170 170
153 187 170
170 187 187
153 187 170
153 170 170
153 170 170
153 170 170
153 170 170
153 170 170
153 170 170
153 170 170
153 170 170
153 170 170
153 170 170
153 170 170
153 170 170
153 170 170
153 170 170
153 170 170
153 170 170
153 170 170
153 170 170
153 170 170
153 170 170
153 170 170
153 170 170
153 170 170
153 170 170
153 170 170
153 170 170
153 170 170
153 170 170
153 170 170
153 170 170
153 170 170
204 221 204
204 221 204
221 221 204
204 221 204
204 221 204
204 221 204
221 221 204
204 221 204
204 221 204
204 221 204
221 221 204
204 221 204
221 221 204
221 221 204
221 221 204
221 221 204
221 221 204
221 221 204
221 221 204
221 221 204
221 221 204
221 221 204
221 221 204
221 221 221
221 221 204
221 221 204
221 221 204
221 221 221
221 221 221
221 221 221
221 221 221
221 221 221
221 221 221
221 221 221
221 221 221
221 221 221
221 221 221
221 221 221
221 221 221
221 221 221
221 221 221
221 221 221
221 221 221
221 221 221
221 221 221
221 221 221
221 221 221
221 221 221
221 221 221
221 221 221
221 221 221
221 221 221
221 221 221
221 221 221
221 221 221
221 221 221
221 238 221
221 238 221
221 238 221
221 238 221
221 238 221
221 238 221
221 238 221
221 238 221
221 238 221
221 238 221
221 238 221
221 238 221
221 238 221
221 238 221
221 238 221
221 238 221
221 238 221
221 238 221
221 238 221
221 238 221
221 238 221
221 238 221
221 238 221
238 238 221
238 238 221
238 238 238
238 238 238
221 238 238
187 204 204
153 170 170
153 153 170
153 170 170
170 170 170
170 170 170
170 170 170
170 170 170
170 170 170
170 170 170
170 170 170
170 170 170
170 170 170
170 170 170
170 170 170
170 170 170
170 170 170
170 170 170
170 170 170
170 170 170
170 170 170
170 170 170
170 170 170
170 170 170
170 170 170
170 170 170
170 170 170
170 170 170
170 170 170
170 170 170
170 170 170
170 170 170
170 170 170
170 170 170
170 170 170
170 170 170
170 170 170
170 170 170
170 170 170
170 170 170
153 170 170
153 170 170
170 170 170
170 170 170
170 170 170
170 170 170
170 170 170
170 170 170
187 187 187
221 221 221
238 238 221
221 221 204
204 204 187
187 187 170
187 187 170
187 187 170
187 187 170
187 187 170
170 170 153
170 170 136
170 170 153
187 187 153
187 170 153
170 170 153
170 153 136
153 153 136
153 153 119
153 153 119
136 119 102
136 119 102
119 102 85
119 102 85
68 51 34
51 51 34
17 0 0
17 17 17
17 0 17
17 17 17
17 17 17
17 17 17
17 17 17
17 0 17
0 0 0
17 0 17
17 17 17
17 17 17
17 17 17
34 17 17
34 17 17
34 17 17
51 34 34
68 51 51
85 85 68
119 102 85
136 136 102
153 136 119
153 136 119
153 153 136
153 153 136
153 153 136
170 153 136
170 170 153
170 170 153
187 187 170
187 187 170
187 170 153
170 170 153
187 187 170
187 187 170
187 187 170
187 187 170
187 187 187
187 204 187
204 204 187
204 204 204
187 204 187
170 187 187
170 170 170
170 170 170
170 170 170
170 170 170
170 170 170
170 170 170
170 170 187
170 170 187
170 170 170
170 170 170
153 170 170
153 170 170
153 170 170
170 170 170
153 170 170
153 170 170
170 170 170
170 170 170
153 170 170
153 170 170
170 170 170
170 170 170
170 187 187
170 187 187
170 187 187
170 187 187
170 187 187
153 170 170
119 119 119
68 68 51
51 68 51
68 68 51
102 102 85
153 170 153
187 187 187
187 187 187
187 187 187
187 187 187
187 204 187
204 204 204
204 204 204
204 204 187
204 204 187
204 204 187
187 204 187
187 204 187
204 204 187
187 204 187
187 204 187
187 187 187
187 204 187
187 204 187
187 204 187
187 204 187
204 204 204
204 204 204
204 221 204
221 221 221
221 221 221
221 221 221
221 238 221
221 238 221
221 238 238
221 238 238
221 238 238
221 238 238
221 238 238
221 238 238
221 238 238
221 221 238
221 221 238
221 238 238
221 238 238
221 238 238
221 238 238
221 221 238
187 204 221
170 170 187
153 153 153
153 153 153
170 170 170
187 187 187
187 204 204
187 204 204
187 204 221
204 221 221
204 221 221
204 221 221
204 221 221
204 221 221
204 204 221
187 204 221
187 204 221
187 204 204
187 204 204
187 204 204
187 204 204
187 204 204
187 204 204
170 187 204
170 187 187
170 187 187
170 187 187
170 187 187
170 187 187
170 187 187
153 170 170
153 170 170
153 170 170
153 170 170
153 170 170
153 170 170
153 170 170
153 170 170
153 170 170
153 170 170
153 170 170
153 170 170
153 170 170
221 221 204
204 221 204
204 221 204
221 221 204
204 221 204
204 221 204
204 221 204
204 221 204
221 221 204
204 221 204
221 221 204
221 221 204
221 221 204
221 221 204
221 221 204
221 221 204
221 221 204
221 221 204
221 221 204
221 221 204
221 221 204
221 221 204
221 221 204
221 221 204
221 221 204
221 221 204
221 221 204
221 221 221
221 221 204
221 221 221
221 221 204
221 221 204
221 221 221
221 221 221
221 221 221
221 221 221
221 221 221
221 221 221
221 221 221
221 221 221
221 221 221
221 221 221
221 221 221
221 221 221
221 221 221
221 221 221
221 221 221
221 221 221
221 221 221
221 221 221
221 221 221
221 221 221
221 221 221
221 221 221
221 221 221
221 221 221
221 221 221
221 238 221
221 238 221
221 238 221
221 238 221
221 238 221
221 238 221
221 238 221
221 238 221
221 238 221
221 238 221
221 238 221
221 238 221
221 238 221
221 238 221
221 238 221
221 238 221
221 238 221
221 238 221
221 238 221
221 238 221
221 238 221
221 238 221
238 238 221
238 238 221
238 238 238
238 238 238
238 238 238
204 221 204
153 153 153
136 136 136
136 136 136
136 153 136
136 153 153
153 153 153
153 153 153
153 153 153
153 153 153
153 153 153
153 153 170
153 153 170
153 153 170
153 170 170
153 170 170
153 170 170
153 170 170
170 170 170
153 170 170
170 170 170
170 170 170
170 170 170
170 170 170
170 170 170
170 170 170
170 170 170
170 170 170
170 170 170
170 170 170
170 170 170
170 170 170
170 170 170
170 170 170
170 170 170
170 170 170
153 170 170
170 170 170
170 170 170
153 170 170
153 170 170
153 170 170
153 170 170
153 170 170
153 170 170
153 170 170
153 170 170
170 170 170
187 187 187
204 204 204
221 221 221
221 221 204
204 204 187
204 204 187
187 187 170
187 187 170
187 187 170
187 187 153
170 170 153
170 170 136
170 153 136
170 170 136
170 170 153
170 170 153
170 153 136
153 153 119
153 136 119
153 136 119
136 119 102
119 102 85
119 102 85
102 85 68
68 51 34
51 34 34
0 0 0
0 0 0
34 17 17
34 17 17
34 17 17
34 17 34
34 17 34
34 17 17
17 0 17
17 17 17
34 17 17
34 17 17
34 17 17
34 17 17
34 17 17
34 17 17
34 17 17
17 17 0
85 68 68
85 85 68
119 102 102
136 119 102
136 136 102
153 153 119
153 153 136
153 153 136
170 170 153
170 153 136
170 170 153
170 170 153
170 170 153
170 170 153
170 170 153
187 170 170
187 187 170
187 187 170
187 187 187
187 204 187
187 187 187
204 204 187
204 204 204
187 187 187
170 187 187
170 170 170
170 170 170
170 170 170
170 170 187
170 170 187
170 170 187
170 170 187
170 170 187
170 170 170
170 170 170
170 170 170
153 170 170
153 170 170
170 170 170
170 170 170
170 170 170
170 170 170
170 170 170
153 170 170
153 170 170
153 170 170
153 170 170
170 170 170
170 170 170
170 170 170
170 170 170
187 187 187
170 170 170
119 119 119
68 85 51
68 68 51
68 68 51
102 102 85
153 170 153
187 187 187
187 187 187
187 187 187
187 187 187
187 187 187
187 204 204
204 204 204
204 204 204
204 204 204
204 204 204
204 204 204
204 204 204
204 204 204
204 204 204
204 204 204
204 204 204
204 204 204
204 204 204
204 204 204
187 204 204
187 204 204
204 204 204
204 204 204
204 204 204
204 204 204
204 204 204
204 204 204
204 204 204
204 204 204
204 204 204
204 204 204
187 204 204
187 204 204
187 204 204
187 204 204
187 204 204
187 204 204
187 204 204
187 204 204
204 204 204
204 204 204
204 204 204
204 204 204
187 204 204
170 187 187
170 170 170
170 187 187
187 187 187
204 204 204
204 221 221
204 221 221
204 221 221
221 221 238
221 238 238
221 238 238
221 238 238
221 221 238
221 221 238
221 221 238
221 221 238
221 221 238
221 221 238
221 221 238
221 221 238
204 221 238
204 221 238
204 221 238
204 221 238
204 221 238
204 221 238
204 221 238
204 221 238
204 221 221
204 221 221
204 221 221
204 221 221
187 204 221
187 204 221
187 204 221
187 204 221
187 204 204
187 204 204
187 204 204
187 204 204
187 187 204
204 221 204
221 221 204
204 221 204
221 221 204
204 221 204
204 221 204
204 221 204
204 221 204
204 221 204
221 221 204
221 221 204
221 221 204
221 221 204
221 221 204
221 221 204
221 221 204
221 221 204
221 221 204
221 221 204
221 221 204
221 221 221
221 221 221
221 221 204
221 221 204
221 221 204
221 221 204
221 221 204
221 221 204
221 221 204
221 221 221
221 221 221
221 221 204
221 221 204
221 221 221
221 221 221
221 221 221
221 221 221
221 221 221
221 221 221
221 221 221
221 221 221
221 221 221
221 221 221
221 221 221
221 221 221
221 221 221
221 221 221
221 221 221
221 221 221
221 221 221
221 221 221
221 221 221
221 221 221
221 221 221
221 221 221
221 221 221
221 221 221
221 238 221
221 238 221
221 238 221
221 238 221
221 221 221
221 238 221
221 238 221
221 238 221
221 238 221
221 238 221
221 238 221
221 238 221
221 238 221
221 238 221
221 238 221
221 238 221
221 238 221
221 238 221
221 238 221
221 238 221
221 238 221
238 238 221
238 238 221
238 238 221
238 238 221
238 238 238
238 238 238
221 221 221
170 170 153
85 85 68
68 85 68
85 85 68
85 85 85
85 102 85
102 102 102
102 102 102
102 102 102
102 102 102
102 119 102
119 119 119
119 119 119
119 119 119
119 119 136
119 136 136
119 136 136
136 136 136
136 136 136
136 136 136
136 136 153
136 153 153
136 153 153
153 153 153
153 153 153
153 153 153
153 153 153
153 153 153
153 153 170
153 153 153
153 153 153
153 153 153
153 153 153
153 153 170
153 153 170
153 153 170
153 153 170
153 153 170
153 153 170
153 153 170
153 153 170
153 153 170
153 153 170
153 153 170
153 170 170
153 170 170
153 170 170
170 187 187
187 187 187
221 221 221
238 238 221
221 221 204
204 204 187
187 187 170
187 187 170
187 187 170
187 170 153
170 170 153
170 170 136
170 153 136
153 153 136
170 170 153
170 170 136
153 153 136
153 136 119
153 136 119
136 136 102
136 119 102
119 102 85
119 102 85
102 85 68
85 68 51
34 17 17
34 17 17
17 17 17
51 34 34
51 17 34
51 17 34
51 34 34
51 34 34
34 17 34
17 17 17
34 17 34
51 34 34
51 17 34
34 17 34
51 17 34
51 34 34
51 34 34
34 17 17
17 0 0
68 51 51
68 51 34
102 85 85
119 102 85
136 119 102
136 136 119
153 136 119
153 153 136
170 153 136
170 153 136
170 153 136
170 153 136
170 153 136
170 153 136
170 170 153
170 170 153
187 187 170
187 187 170
187 204 187
204 204 187
204 204 187
204 204 187
204 204 204
187 187 187
170 170 170
170 170 170
170 170 170
170 170 170
170 170 170
170 170 170
170 170 170
170 170 170
170 170 170
170 170 170
153 170 170
170 170 170
170 170 170
170 170 170
153 170 170
153 170 170
153 170 170
153 170 170
153 170 170
153 170 170
153 170 170
153 170 170
153 170 170
153 170 170
153 170 170
170 170 170
170 170 170
204 204 204
187 187 187
119 119 119
68 68 68
68 68 51
68 68 51
102 102 102
170 170 170
187 187 187
187 187 187
187 187 187
187 187 187
187 187 187
187 187 187
187 204 187
187 204 187
204 204 204
204 204 204
204 204 204
204 204 204
204 204 204
204 204 204
204 204 204
204 204 204
204 204 204
204 204 204
204 204 204
204 204 204
204 204 204
204 204 204
204 204 204
204 204 204
204 204 204
204 204 204
204 204 204
204 204 204
204 204 204
187 204 204
187 187 204
187 187 204
187 187 204
187 187 204
187 187 204
187 187 204
187 187 204
187 187 204
187 187 204
187 187 204
187 187 204
187 187 204
187 187 204
187 187 204
187 204 204
170 187 187
170 170 170
153 170 170
170 170 170
170 170 187
170 170 187
170 187 187
170 187 187
170 187 187
170 187 187
170 187 187
170 187 187
170 187 187
187 187 187
187 187 187
187 187 204
187 204 204
187 204 204
204 204 204
204 221 221
204 221 221
204 221 221
204 221 221
204 221 221
204 221 221
221 221 221
221 221 221
221 221 238
221 238 238
221 238 238
221 238 238
221 238 238
221 238 238
221 238 238
221 238 238
221 238 238
221 221 238
221 221 238
221 221 238
221 221 238
204 221 204
221 221 204
204 221 204
221 221 204
204 221 204
204 221 204
221 221 204
204 221 204
221 221 204
204 221 204
221 221 204
221 221 204
221 221 204
221 221 204
221 221 204
221 221 204
221 221 204
221 221 204
221 221 204
221 221 204
221 221 221
221 221 204
221 221 204
221 221 204
221 221 204
221 221 204
221 221 204
221 221 204
221 221 204
221 221 221
221 221 221
221 221 204
221 221 204
221 221 221
221 221 221
221 221 221
221 221 221
221 221 221
221 221 221
221 221 221
221 221 221
221 221 221
221 221 221
221 221 221
221 221 221
221 221 221
221 221 221
221 221 221
221 221 221
221 221 221
221 221 221
221 221 221
221 221 221
221 221 221
221 221 221
221 221 221
221 221 221
221 221 221
221 238 221
221 238 221
221 221 221
221 221 221
221 238 221
221 238 221
221 238 221
221 238 221
221 238 221
221 238 221
221 238 221
221 238 221
221 238 221
221 238 221
221 238 221
221 238 221
221 238 221
238 238 221
238 238 221
221 238 221
221 238 221
221 238 221
238 238 221
238 238 221
238 238 238
238 238 238
238 238 238
187 204 187
85 85 85
17 17 17
17 17 17
17 17 17
17 17 17
17 17 17
17 34 17
17 34 17
34 34 34
34 34 34
34 34 34
34 51 34
34 51 34
51 51 51
51 51 51
51 51 51
51 68 51
68 68 51
68 68 68
68 85 68
68 85 68
85 85 85
85 85 85
85 102 85
85 102 85
85 102 102
102 102 102
102 102 102
102 102 102
102 119 102
102 119 119
119 119 119
119 119 119
119 119 119
119 119 136
119 119 136
119 136 136
136 136 136
136 136 136
136 136 136
136 136 136
136 136 153
136 153 153
136 153 153
153 153 153
153 153 153
170 170 170
204 221 204
238 238 221
238 238 221
221 221 204
204 204 187
187 187 170
187 187 170
187 170 153
187 187 153
170 170 153
170 170 153
170 153 136
153 153 136
170 170 136
170 153 136
153 153 136
153 136 119
153 136 119
136 119 102
119 102 85
119 102 85
119 102 85
102 85 68
102 85 68
85 68 51
51 34 34
85 51 51
85 51 51
68 34 51
68 34 34
68 34 51
68 34 51
51 34 51
34 17 34
51 34 51
68 34 51
68 34 51
68 34 34
68 34 51
85 51 51
102 51 68
34 17 17
17 17 17
51 34 34
68 68 51
136 119 102
119 102 85
136 119 102
136 119 102
136 136 102
153 153 136
153 153 119
170 153 136
153 153 136
153 136 119
153 153 136
170 153 136
170 170 153
170 170 153
187 187 170
187 187 170
204 204 187
204 204 187
204 204 187
204 204 187
204 204 204
187 187 187
153 170 170
153 170 170
153 170 170
153 170 170
153 170 170
153 170 170
153 170 170
153 170 170
153 170 170
153 170 170
153 170 170
170 170 170
153 170 170
153 170 170
153 170 170
153 170 170
153 153 170
153 153 170
153 153 170
153 153 170
153 153 170
153 170 170
153 170 170
153 170 170
153 170 170
153 170 170
170 170 170
204 204 204
187 170 170
119 119 102
51 51 51
51 51 51
51 68 51
119 119 119
170 170 170
187 187 187
170 187 187
170 187 187
187 187 187
187 187 187
187 187 187
187 187 187
187 187 187
187 187 187
187 187 187
187 204 187
187 204 187
204 204 204
204 204 204
204 204 204
204 204 204
187 204 204
187 204 204
187 204 204
187 204 204
187 204 204
187 204 204
187 204 204
187 204 204
187 187 204
187 204 204
187 204 204
187 204 204
187 187 204
187 187 187
187 187 187
170 187 187
187 187 187
187 187 187
187 187 187
187 187 187
187 187 187
187 187 204
187 187 204
187 187 204
187 187 204
187 187 204
187 187 204
187 187 204
187 187 187
170 187 187
170 170 170
153 170 170
170 170 170
170 170 187
170 170 187
170 170 187
170 187 187
170 187 187
170 187 187
170 187 187
170 187 187
170 187 187
170 187 187
170 170 187
170 170 187
170 187 187
170 187 187
170 187 187
170 187 187
170 187 187
170 187 187
170 187 187
170 170 187
170 170 187
170 170 187
170 187 187
170 187 187
170 187 187
170 187 187
170 187 187
170 187 187
187 187 187
187 187 187
187 187 204
187 187 204
187 187 204
187 204 204
187 204 204
187 204 204
204 221 204
221 221 204
204 221 204
204 221 204
221 221 204
221 221 204
221 221 204
204 221 204
204 221 204
221 221 204
221 221 204
221 221 204
204 221 204
221 221 204
221 221 204
221 221 204
221 221 204
221 221 204
221 221 204
221 221 204
221 221 204
221 221 204
221 221 204
221 221 204
221 221 204
221 221 204
221 221 204
221 221 204
221 221 204
221 221 204
221 221 204
221 221 221
221 221 221
221 221 221
221 221 221
221 221 221
221 221 221
221 221 221
221 221 221
221 221 221
221 221 221
221 221 221
221 221 221
221 221 221
221 221 221
221 221 221
221 221 221
221 221 221
221 221 221
221 221 221
221 221 221
221 221 221
221 221 221
221 221 221
221 221 221
221 221 221
221 238 221
221 238 221
221 238 221
221 238 221
221 238 221
221 238 221
221 238 221
221 238 221
221 238 221
221 238 221
221 238 221
221 238 221
221 238 221
221 238 221
221 238 221
221 238 221
221 238 221
221 238 221
221 238 221
221 238 221
221 238 221
221 238 221
221 238 221
238 238 221
238 238 221
238 238 221
238 238 221
238 238 238
238 238 238
221 221 221
136 136 136
17 17 17
0 17 17
0 17 17
0 17 17
0 17 17
0 17 17
0 17 17
0 17 17
0 17 17
0 17 17
0 17 17
0 17 17
0 17 17
0 17 17
0 17 17
0 17 17
0 17 17
0 17 17
17 17 17
17 17 17
17 17 17
17 17 17
17 17 17
17 34 17
17 34 17
17 34 17
17 34 17
34 34 34
34 34 34
34 34 34
34 51 34
34 51 34
51 51 51
51 51 51
51 51 51
51 68 51
68 68 68
68 68 68
68 68 68
68 85 68
85 85 85
85 85 85
85 102 85
102 102 102
102 102 102
153 153 153
204 204 204
221 221 204
221 221 204
221 221 204
204 204 187
187 187 170
187 187 170
170 170 153
170 170 153
187 170 153
170 170 153
170 153 136
153 153 136
153 136 119
170 153 136
153 153 136
153 136 119
153 136 119
136 119 102
119 102 85
119 102 85
119 102 85
119 102 85
119 102 85
102 85 68
68 51 51
102 68 68
102 51 68
85 34 51
68 34 51
68 51 51
68 51 51
68 34 51
51 34 51
68 51 51
68 34 51
68 34 51
85 34 51
102 51 51
119 68 68
119 68 85
34 17 17
17 17 17
68 51 34
119 102 85
119 102 85
119 102 85
119 102 85
136 119 102
136 119 102
153 136 119
153 136 119
153 153 136
153 136 119
136 136 119
153 136 119
153 153 136
170 170 153
170 170 153
187 187 170
187 187 170
204 204 187
187 204 187
204 204 187
204 204 204
204 204 187
170 187 170
153 170 170
153 170 170
153 170 170
153 170 170
153 170 170
153 170 170
153 153 170
153 153 170
153 153 170
153 170 170
153 170 170
153 170 170
153 170 170
153 153 170
153 153 170
153 153 170
153 153 170
153 153 153
153 153 153
153 153 170
153 153 170
153 170 170
153 153 170
153 170 170
153 153 170
153 170 170
170 170 170
187 187 187
170 170 153
102 102 102
51 51 51
51 51 51
68 68 68
136 136 119
170 170 153
170 170 170
153 170 170
170 170 170
170 170 170
170 170 187
170 170 187
170 170 187
170 187 187
170 187 187
187 187 187
187 187 187
187 187 187
187 187 187
187 204 204
187 204 204
187 204 204
187 204 187
187 187 187
187 187 187
187 187 187
187 187 187
187 187 187
187 187 187
187 187 187
187 187 187
187 187 187
187 187 187
187 187 187
187 187 187
187 187 187
170 187 187
170 187 187
170 187 187
170 187 187
170 187 187
170 187 187
170 187 187
170 187 187
170 187 187
170 187 187
170 187 187
187 187 187
187 187 204
187 187 204
187 187 187
170 170 170
170 170 170
153 170 153
170 170 170
170 187 187
170 187 187
170 170 187
170 187 187
170 187 187
170 187 187
170 187 187
170 187 187
170 187 187
170 170 187
170 170 187
170 170 187
170 170 187
170 187 187
170 187 187
170 187 187
170 187 187
170 187 187
170 187 187
170 187 187
170 187 187
170 170 187
170 187 187
170 187 187
170 187 187
170 170 187
170 170 187
170 170 187
170 187 187
170 187 187
170 187 187
170 187 187
170 187 187
170 187 187
170 187 187
170 187 187
204 221 204
221 221 204
204 221 204
204 221 204
204 221 204
221 221 204
204 221 204
221 221 204
204 221 204
221 221 204
204 221 204
221 221 204
204 221 204
221 221 204
221 221 204
221 221 204
221 221 204
221 221 204
221 221 204
221 221 204
221 221 204
221 221 204
221 221 204
221 221 204
221 221 204
221 221 204
221 221 204
221 221 204
221 221 221
221 221 204
221 221 204
221 221 204
221 221 221
221 221 221
221 221 221
221 221 221
221 221 221
221 221 221
221 221 221
221 221 221
221 221 221
221 221 221
221 221 221
221 221 221
221 221 221
221 221 221
221 221 221
221 221 221
221 221 221
221 221 221
221 221 221
221 221 221
221 221 221
221 221 221
221 221 221
221 221 221
221 221 221
221 238 221
221 221 221
221 238 221
221 238 221
221 221 221
221 238 221
221 238 221
221 238 221
221 238 221
221 238 221
221 238 221
221 238 221
221 238 221
221 238 221
221 238 221
221 238 221
221 238 221
238 238 221
221 238 221
221 238 221
221 238 221
238 238 221
238 238 221
238 238 221
238 238 221
238 238 221
238 238 238
238 238 238
238 238 238
170 187 187
68 68 68
0 17 17
0 17 17
0 17 17
0 17 17
0 17 17
0 17 17
0 17 17
0 17 17
0 17 17
0 17 17
0 17 17
0 17 17
0 17 17
0 17 17
0 17 17
0 17 17
0 17 17
0 17 17
0 17 17
0 17 17
0 17 17
0 17 17
0 17 17
0 17 17
0 17 17
0 17 17
0 17 17
0 17 17
0 17 0
0 17 0
0 17 17
0 17 17
0 17 17
0 17 17
0 17 17
17 17 17
17 17 17
17 17 17
17 17 17
17 17 17
17 34 17
17 34 17
17 34 17
34 51 34
119 136 119
153 153 136
187 187 170
204 204 204
204 204 187
187 187 170
187 187 170
187 187 170
170 170 153
170 170 153
187 187 153
187 170 153
170 153 136
153 153 136
153 136 119
153 136 119
153 153 119
153 153 119
136 136 102
136 119 102
119 102 85
119 102 85
119 102 85
119 102 85
119 102 85
119 102 85
102 85 85
119 68 68
102 51 68
102 51 68
85 51 68
85 51 68
85 51 51
68 51 51
68 51 51
85 51 68
85 51 51
85 51 51
85 34 51
119 51 68
136 85 85
102 68 68
51 34 34
68 68 51
119 102 85
119 102 85
119 102 85
119 102 85
119 119 102
136 119 102
136 119 102
136 119 102
136 136 119
136 119 102
153 136 119
153 136 119
153 136 119
170 153 136
170 153 136
170 170 153
187 187 170
187 187 170
187 187 187
187 187 187
204 204 187
204 221 204
187 187 187
170 170 170
153 153 170
153 153 170
153 153 170
153 153 170
153 153 170
153 153 170
153 153 170
153 153 170
153 153 170
153 153 170
153 153 170
153 153 170
153 153 170
153 153 170
153 153 170
153 153 170
153 153 170
153 153 170
153 153 170
153 153 170
153 153 170
153 170 170
153 153 170
153 153 170
153 153 153
153 170 170
153 153 153
170 170 153
153 153 153
119 119 119
85 102 85
85 102 85
102 102 102
136 136 119
153 153 153
153 153 153
153 153 153
153 153 153
153 170 170
153 170 170
153 170 170
153 170 170
170 170 170
170 170 170
170 170 170
170 170 187
170 187 187
187 187 187
187 187 187
187 187 187
187 187 187
187 187 187
187 187 187
187 187 187
187 187 187
187 187 187
187 187 187
187 187 187
187 187 187
187 187 187
187 187 187
187 187 187
187 187 187
187 187 187
187 187 187
170 187 187
170 187 187
170 187 187
170 187 187
170 187 187
170 187 187
170 187 187
170 187 187
170 187 187
170 187 187
170 187 187
170 187 187
187 187 187
187 187 187
170 187 187
170 170 170
153 170 170
153 170 153
170 170 170
170 187 187
170 187 187
170 187 187
170 187 187
170 187 187
170 187 187
170 187 187
170 187 187
170 187 187
170 187 187
170 170 187
170 170 187
170 187 187
170 170 187
170 170 187
170 170 187
170 187 187
170 187 187
170 187 187
170 187 187
170 187 187
170 187 187
170 187 187
170 187 187
170 187 187
170 187 187
170 187 187
170 170 187
170 187 187
170 170 187
170 187 187
170 170 187
170 170 187
170 170 187
170 170 187
170 170 187
204 221 204
204 221 204
204 221 204
204 221 204
221 221 204
204 221 204
221 221 204
221 221 204
221 221 204
221 221 204
221 221 204
221 221 204
221 221 204
221 221 204
221 221 204
221 221 204
221 221 204
221 221 204
221 221 204
221 221 204
221 221 204
221 221 204
221 221 204
221 221 204
221 221 204
221 221 204
221 221 204
221 221 204
221 221 204
221 221 204
221 221 204
221 221 204
221 221 204
221 221 204
221 221 221
221 221 221
221 221 221
221 221 221
221 221 221
221 221 221
221 221 221
221 221 221
221 221 221
221 221 221
221 221 221
221 221 221
221 221 221
221 221 221
221 221 221
221 221 221
221 221 221
221 221 221
221 221 221
221 221 221
221 221 221
221 221 221
221 221 221
221 221 221
221 238 221
221 238 221
221 238 221
221 238 221
221 238 221
221 238 221
221 238 221
221 238 221
221 238 221
221 238 221
221 238 221
221 238 221
221 238 221
221 238 221
221 238 221
221 238 221
221 238 221
238 238 221
238 238 221
221 238 221
221 238 221
238 238 221
238 238 221
238 238 221
238 238 238
238 238 238
238 238 238
238 238 238
204 221 221
119 136 119
17 17 17
0 17 17
0 17 17
0 17 17
0 17 17
0 17 17
0 17 17
0 17 17
0 17 17
0 17 17
0 17 17
0 17 17
0 17 17
0 17 17
0 17 17
0 17 17
0 17 17
0 17 17
0 17 17
0 17 17
0 17 17
0 17 17
0 17 17
0 17 17
0 17 17
0 17 17
0 17 17
0 17 17
0 17 17
0 17 17
0 17 17
0 17 17
0 17 17
0 17 17
0 17 17
0 17 17
0 17 17
0 17 17
0 17 17
0 17 17
0 17 17
0 17 17
0 17 0
17 17 17
85 85 85
85 85 85
136 136 136
204 187 187
204 204 187
187 187 170
187 187 170
187 187 170
187 187 170
170 170 153
187 170 153
187 187 153
170 170 136
153 153 136
153 136 119
136 136 119
153 136 119
153 136 119
136 136 119
136 119 102
136 119 102
136 119 85
136 119 102
136 119 102
136 119 102
136 119 85
119 102 85
119 85 85
119 68 68
102 51 68
102 51 68
85 51 68
85 51 51
85 51 51
85 51 51
85 51 68
85 51 68
85 34 51
102 51 51
136 68 85
136 85 102
51 34 34
68 68 51
119 119 102
136 119 102
136 119 102
136 119 102
136 119 102
136 119 102
136 119 102
136 136 102
136 136 102
136 136 102
136 136 102
153 136 119
153 136 119
153 153 136
170 170 153
170 170 153
170 170 153
170 187 170
187 187 170
204 204 187
204 204 187
221 221 204
204 204 204
170 187 170
170 170 170
153 153 170
153 153 153
153 153 153
153 153 153
153 153 153
153 153 153
153 153 153
153 153 153
153 153 153
153 153 153
153 153 153
153 153 153
153 153 153
153 153 153
153 153 153
153 153 153
153 153 153
153 153 153
153 153 170
153 153 153
153 153 153
153 153 153
153 153 153
153 153 153
153 153 153
153 153 153
119 136 119
102 119 102
102 102 85
102 102 85
85 102 85
85 102 85
102 102 85
102 102 102
119 119 102
136 136 119
136 136 136
136 153 153
153 153 153
153 153 153
153 153 170
153 170 170
153 170 170
153 170 170
153 170 170
170 170 170
170 170 187
170 187 187
170 170 187
170 170 187
170 187 187
170 187 187
170 187 187
170 187 187
187 187 187
187 187 187
187 187 187
187 187 187
187 187 187
170 187 187
170 187 187
187 187 187
187 187 187
187 187 187
187 187 187
187 187 187
170 187 187
170 187 187
170 187 187
170 187 187
170 187 187
170 187 187
170 187 187
170 187 187
170 187 187
170 187 187
170 187 187
170 187 187
170 187 187
170 187 187
170 170 170
153 170 170
153 153 153
170 170 170
170 170 187
170 170 187
170 187 187
170 187 187
170 187 187
170 187 187
170 187 187
170 187 187
170 187 187
170 187 187
170 187 187
170 187 187
170 170 187
170 187 187
170 170 187
170 170 187
170 187 187
170 187 187
170 187 187
170 187 187
170 187 187
170 187 187
170 187 187
170 187 187
170 187 187
170 187 187
170 187 187
170 187 187
170 170 187
170 170 187
170 170 187
170 170 187
170 170 187
170 170 187
170 170 187
170 170 187
221 221 204
221 221 204
204 221 204
204 221 204
204 221 204
204 221 204
204 221 204
204 221 204
204 221 204
204 221 204
221 221 204
204 221 204
204 221 204
221 221 204
221 221 204
221 221 204
221 221 204
221 221 204
221 221 204
221 221 204
221 221 204
221 221 204
221 221 204
221 221 204
221 221 204
221 221 204
221 221 204
221 221 204
221 221 204
221 221 221
221 221 221
221 221 204
221 221 221
221 221 221
221 221 221
221 221 221
221 221 221
221 221 221
221 221 221
221 221 221
221 221 221
221 221 221
221 221 221
221 221 221
221 221 221
221 221 221
221 221 221
221 221 221
221 221 221
221 221 221
221 221 221
221 221 221
221 238 221
221 221 221
221 221 221
221 221 221
221 238 221
221 221 221
221 238 221
221 238 221
221 221 221
221 221 221
221 238 221
221 238 221
221 238 221
221 238 221
221 238 221
221 238 221
221 238 221
221 238 221
221 238 221
221 238 221
221 238 221
221 238 221
221 238 221
221 238 221
238 238 221
238 238 221
238 238 221
238 238 221
238 238 221
238 238 221
238 238 221
238 238 238
238 238 238
238 238 238
238 238 238
170 170 170
51 68 51
0 17 17
0 17 17
0 17 17
0 17 17
0 17 17
0 17 17
0 17 17
0 17 17
0 17 17
0 17 17
0 17 17
0 17 17
0 17 17
0 17 17
0 17 17
0 17 17
0 17 17
0 17 17
0 17 17
0 17 17
0 17 17
0 17 17
0 17 17
0 17 17
0 17 17
0 17 17
0 17 17
0 17 17
0 17 17
0 17 17
0 17 17
0 17 17
0 17 17
0 17 17
0 17 17
0 17 17
0 17 17
0 17 17
0 17 17
0 17 17
0 17 17
0 17 17
0 17 17
68 68 68
68 68 68
170 170 170
238 221 221
204 204 187
204 187 170
204 187 170
204 187 170
187 187 170
187 187 153
187 187 170
187 187 153
170 170 153
153 153 136
153 136 119
136 136 102
136 136 102
153 136 119
153 136 119
153 153 119
153 136 119
153 136 119
136 136 102
136 136 102
136 119 102
136 119 102
136 119 102
102 85 68
119 68 85
119 51 68
102 51 68
102 51 68
102 51 68
85 51 68
102 51 68
102 51 68
102 51 68
102 51 68
119 51 68
136 85 85
102 68 68
34 34 34
85 85 68
136 119 102
136 119 102
136 119 102
136 119 102
136 119 102
136 119 102
136 136 102
136 136 102
136 136 119
136 136 102
136 136 102
153 136 119
153 153 136
170 170 153
170 170 153
170 170 153
187 187 170
187 187 170
187 187 170
187 204 187
204 204 204
221 221 204
170 170 170
153 153 153
136 136 136
136 136 136
136 136 136
136 136 136
136 136 136
136 136 136
136 136 136
136 153 153
136 153 153
136 153 153
136 153 153
136 136 153
136 153 153
136 136 153
136 153 153
153 153 153
153 153 153
153 153 153
153 153 153
153 153 153
153 153 153
153 153 153
153 153 153
136 136 153
136 136 136
136 136 136
136 136 136
102 119 102
85 85 68
68 68 51
68 68 68
68 68 68
68 68 68
68 68 51
68 68 51
85 85 68
119 119 102
136 136 136
136 153 136
153 153 153
153 153 153
153 153 153
153 153 170
153 170 170
153 170 170
153 170 170
170 170 170
170 170 170
170 170 170
170 170 170
170 170 170
170 170 170
170 170 170
170 170 170
170 170 187
170 187 187
170 187 187
170 187 187
170 187 187
170 187 187
170 187 187
170 187 187
170 187 187
170 187 187
170 187 187
170 187 187
170 187 187
170 187 187
170 187 187
170 187 187
170 187 187
170 170 187
170 170 187
170 187 187
170 187 187
170 187 187
170 187 187
170 187 187
170 187 187
170 187 187
170 187 187
170 170 170
170 170 170
153 153 153
170 170 170
170 170 187
170 187 187
170 187 187
170 187 187
170 187 187
170 187 187
170 187 187
170 187 187
170 187 187
170 187 187
170 187 187
170 170 187
170 170 187
170 170 187
170 170 187
170 170 187
170 187 187
170 187 187
170 187 187
170 187 187
170 187 187
170 187 187
170 187 187
170 187 187
170 187 187
170 187 187
170 187 187
170 187 187
170 187 187
170 187 187
170 170 187
170 187 187
170 170 187
170 170 187
170 170 187
170 187 187
204 221 204
204 221 204
204 221 204
221 221 204
221 221 204
204 221 204
204 221 204
221 221 204
221 221 204
204 221 204
221 221 204
221 221 204
221 221 204
221 221 204
221 221 204
221 221 204
221 221 204
221 221 204
221 221 204
221 221 204
221 221 204
221 221 204
221 221 204
221 221 204
221 221 204
221 221 204
221 221 204
221 221 204
221 221 204
221 221 204
221 221 221
221 221 204
221 221 221
221 221 221
221 221 221
221 221 221
221 221 221
221 221 221
221 221 221
221 221 221
221 221 221
221 221 221
221 221 221
221 221 221
221 221 221
221 221 221
221 221 221
221 221 221
221 221 221
221 221 221
221 221 221
221 238 221
221 221 221
221 221 221
221 221 221
221 221 221
221 238 221
221 221 221
221 238 221
221 221 221
221 238 221
221 238 221
221 238 221
221 238 221
221 238 221
221 238 221
221 238 221
221 238 221
221 238 221
221 238 221
221 238 221
221 238 221
221 238 221
221 238 221
238 238 221
238 238 221
238 238 221
221 238 221
238 238 221
238 238 221
238 238 221
238 238 221
238 238 221
238 238 221
238 238 221
238 238 238
238 238 238
204 204 204
119 119 119
17 17 17
0 17 17
0 17 17
0 17 17
0 17 17
0 17 17
0 17 17
0 17 17
0 17 17
0 17 17
0 17 17
0 17 17
0 17 17
0 17 17
0 17 17
0 17 17
0 17 17
0 17 17
0 17 17
0 17 17
0 17 17
0 17 17
0 17 17
0 17 17
0 17 17
0 17 17
0 17 17
0 17 17
0 17 17
0 17 17
0 17 17
0 17 17
0 17 17
0 17 17
0 17 17
0 17 17
0 17 17
0 17 17
0 17 17
0 17 17
0 17 17
0 17 0
0 17 17
68 68 68
85 85 85
187 187 187
221 221 204
204 204 187
204 204 187
204 204 187
204 204 187
204 204 187
187 187 170
187 187 170
187 187 170
170 170 153
153 153 136
153 136 119
136 136 102
136 119 102
136 119 102
136 136 102
153 136 119
153 136 119
153 136 119
153 136 119
153 136 119
136 119 102
136 119 102
136 119 102
102 85 68
102 68 68
119 68 85
102 51 68
119 51 68
119 68 68
102 51 68
119 68 68
119 68 68
102 51 68
119 51 68
119 68 68
102 68 85
51 34 34
34 34 34
102 102 85
153 136 119
136 136 119
136 136 102
136 136 119
136 136 102
136 136 119
136 136 102
136 136 102
153 136 119
153 136 119
136 136 119
153 153 119
170 153 136
170 170 153
187 170 153
187 187 170
187 187 170
187 187 170
187 187 170
204 204 187
221 221 204
221 221 221
170 170 170
102 102 85
68 68 68
68 85 68
68 68 68
68 68 68
68 68 68
68 85 68
68 85 68
85 85 85
85 85 85
85 85 85
85 102 85
85 102 102
102 102 102
102 102 102
102 102 102
102 119 119
102 119 119
119 119 119
119 119 119
119 119 119
119 119 119
119 119 119
119 119 119
119 119 119
119 119 119
119 119 119
102 119 119
85 102 102
68 85 68
68 68 68
68 68 68
68 68 68
68 68 68
68 68 68
68 68 68
85 85 85
119 119 119
136 136 136
136 136 136
136 153 153
153 153 153
153 153 153
153 153 153
153 153 170
153 170 170
153 170 170
153 170 170
170 170 170
170 170 170
170 170 170
170 170 170
170 170 170
170 170 170
170 170 170
170 170 170
170 170 170
170 170 170
170 170 187
170 170 187
170 170 187
170 170 187
170 170 187
170 170 187
170 170 187
170 170 187
170 170 187
170 170 187
170 170 187
170 170 187
170 170 187
170 170 187
170 170 187
170 170 187
170 170 187
170 187 187
170 170 187
170 187 187
170 187 187
170 187 187
170 187 187
170 187 187
170 170 170
153 153 153
153 153 153
153 170 170
170 170 170
170 170 187
170 170 187
170 187 187
170 187 187
170 170 187
170 170 187
170 170 187
170 187 187
170 170 187
170 170 187
170 170 187
170 170 187
170 170 187
170 170 187
170 170 187
170 170 187
170 170 187
170 187 187
170 170 187
170 170 187
170 170 187
170 170 187
170 170 187
170 170 187
170 170 187
170 170 187
170 187 187
170 187 187
170 187 187
170 187 187
170 187 187
170 170 187
170 170 187
170 170 187
170 187 187
204 221 204
204 221 204
221 221 204
221 221 204
221 221 204
221 221 204
204 221 204
221 221 204
221 221 204
204 221 204
221 221 204
221 221 204
221 221 204
221 221 204
221 221 204
221 221 204
221 221 204
221 221 204
221 221 204
221 221 204
221 221 204
221 221 204
221 221 204
221 221 204
221 221 204
221 221 204
221 221 204
221 221 204
221 221 204
221 221 221
221 221 221
221 221 221
221 221 221
221 221 221
221 221 221
221 221 221
221 221 221
221 221 221
221 221 221
221 221 221
221 221 221
221 221 221
221 221 221
221 221 221
221 221 221
221 221 221
221 221 221
221 221 221
221 221 221
221 221 221
221 221 221
221 221 221
221 221 221
221 221 221
221 221 221
221 221 221
221 221 221
221 238 221
221 238 221
221 238 221
221 221 221
221 221 221
221 238 221
221 238 221
221 238 221
221 238 221
221 238 221
221 238 221
221 238 221
221 238 221
221 238 221
221 238 221
221 238 221
221 238 221
238 238 221
238 238 221
238 238 221
238 238 221
238 238 221
238 238 221
238 238 221
238 238 221
238 238 221
238 238 221
238 238 221
238 238 221
238 238 238
238 238 221
170 170 170
51 68 51
0 17 17
0 17 17
0 17 17
0 17 17
0 17 17
0 17 17
0 17 17
0 17 17
0 17 17
0 17 17
0 17 17
0 17 17
0 17 17
0 17 17
0 17 17
0 17 17
0 17 17
0 17 17
0 17 17
0 17 17
0 17 17
0 17 17
0 17 17
0 17 17
0 17 17
0 17 17
0 17 17
0 17 17
0 17 17
0 17 17
0 17 17
0 17 17
0 17 17
0 17 17
0 17 17
0 17 17
0 17 17
0 17 17
0 17 17
0 17 17
0 17 17
17 17 17
34 51 34
102 119 102
187 187 187
221 221 204
221 221 204
204 204 204
204 204 187
204 204 187
204 204 187
204 204 170
187 187 170
187 187 170
187 170 153
153 153 136
153 153 119
153 136 119
136 136 102
136 136 102
136 136 102
153 136 119
153 153 119
153 153 119
153 136 119
153 136 119
136 136 102
136 136 102
136 136 119
119 119 102
68 51 51
102 68 68
119 68 85
119 68 68
136 68 85
102 51 51
119 51 68
136 68 85
136 68 85
119 68 85
85 51 68
34 17 17
51 34 34
68 68 68
153 153 136
153 153 136
153 136 119
136 136 102
153 136 119
153 136 119
153 136 119
153 136 119
153 136 119
153 153 119
153 136 119
153 136 119
153 136 119
170 170 136
170 170 153
170 170 170
187 187 170
187 187 170
187 187 170
187 187 170
204 204 204
221 221 221
221 238 221
187 187 187
102 102 102
34 34 34
34 51 51
17 34 17
17 17 17
17 17 17
17 17 17
17 17 17
17 17 17
17 17 17
17 34 17
17 34 17
17 34 17
34 34 17
34 34 34
34 34 34
34 34 34
34 51 34
34 51 34
34 51 34
51 51 51
51 51 51
51 51 51
51 68 51
51 68 51
51 68 51
68 68 68
68 68 68
68 68 68
51 51 51
51 51 51
34 51 51
51 51 51
51 51 51
51 51 51
51 68 51
68 68 68
85 85 85
102 102 102
102 102 102
119 119 119
119 119 119
119 119 119
136 136 136
136 136 136
136 136 136
136 136 136
136 136 136
136 153 153
153 153 153
153 153 153
153 153 153
153 153 153
153 153 170
153 170 170
153 170 170
153 170 170
170 170 170
170 170 170
170 170 170
170 170 170
170 170 170
170 170 170
170 170 170
170 170 170
170 170 170
170 170 170
170 170 170
170 170 170
170 170 170
170 170 170
170 170 170
170 170 170
170 170 170
170 170 170
170 170 170
170 170 187
170 170 187
170 170 187
170 170 187
170 170 187
170 187 187
153 170 170
153 153 153
153 153 153
153 153 170
170 170 170
170 170 170
170 170 170
170 170 187
170 170 187
170 170 170
170 170 187
170 170 187
170 170 187
170 170 187
170 170 187
170 170 187
170 170 187
170 170 187
153 170 170
153 170 170
153 170 170
170 170 187
170 170 187
170 170 187
153 170 170
153 170 170
153 170 170
153 170 170
170 170 170
170 170 187
170 170 187
170 170 187
170 170 187
170 170 187
170 170 187
170 170 187
170 187 187
170 170 187
170 170 187
170 170 187
204 221 204
221 221 204
204 221 204
204 221 204
204 221 204
221 221 204
221 221 204
221 221 204
221 221 204
204 221 204
221 221 204
221 221 204
221 221 204
221 221 204
221 221 204
221 221 204
221 221 204
221 221 204
221 221 204
221 221 204
221 221 204
221 221 204
221 221 204
221 221 204
221 221 204
221 221 204
221 221 204
221 221 204
221 221 221
221 221 221
221 221 221
221 221 221
221 221 221
221 221 204
221 221 221
221 221 221
221 221 221
221 221 221
221 221 221
221 221 221
221 221 221
221 221 221
221 221 221
221 221 221
221 221 221
221 221 221
221 221 221
221 221 221
221 221 221
221 221 221
221 221 221
221 221 221
221 221 221
221 221 221
221 221 221
221 221 221
221 238 221
221 238 221
221 221 221
221 221 221
221 238 221
221 221 221
221 238 221
221 238 221
221 238 221
221 238 221
221 238 221
221 238 221
221 238 221
221 238 221
221 238 221
221 238 221
221 238 221
221 238 221
221 238 221
238 238 221
238 238 221
238 238 221
221 238 221
238 238 221
238 238 221
238 238 221
238 238 221
238 238 221
238 238 221
238 238 221
238 238 238
238 238 238
204 204 204
119 136 119
17 17 17
0 17 17
0 17 17
0 17 17
0 17 17
0 17 17
0 17 17
0 17 17
0 17 17
0 17 17
0 17 17
0 17 17
0 17 17
0 17 17
0 17 17
0 17 17
0 17 17
0 17 17
0 17 17
0 17 17
0 17 17
0 17 17
0 17 17
0 17 17
0 17 17
0 17 17
0 17 17
0 17 17
0 17 17
0 17 17
0 17 17
0 17 17
0 17 17
0 17 17
0 17 17
0 17 17
0 17 17
0 17 17
0 17 17
0 17 17
0 17 17
34 34 34
68 85 85
136 153 136
204 204 204
221 221 221
238 238 238
221 238 221
221 204 204
204 204 187
204 204 187
187 187 170
187 187 170
187 170 153
187 187 153
170 170 136
153 153 136
153 153 136
136 136 119
136 119 102
136 136 102
136 136 102
153 153 119
153 153 136
153 153 136
153 136 119
153 136 119
153 136 119
136 136 119
153 136 119
119 119 102
68 51 51
68 51 51
119 85 85
136 85 85
136 68 85
136 85 102
136 68 85
102 68 68
68 34 34
34 34 34
51 51 51
85 85 68
136 136 119
153 153 136
153 153 136
153 153 119
153 136 119
153 136 119
153 153 119
153 153 119
153 136 119
136 136 119
136 136 119
153 136 119
153 136 119
153 136 119
153 153 136
170 170 153
170 170 153
170 170 170
187 187 170
187 187 170
204 204 187
204 221 204
221 238 221
238 238 238
221 221 221
136 136 136
34 34 34
34 51 51
17 17 17
0 17 0
0 17 0
0 17 0
0 17 0
0 17 0
0 17 0
0 17 0
0 17 0
0 17 0
0 17 0
0 17 0
0 17 0
0 17 0
0 17 17
0 17 0
0 17 0
0 17 0
0 17 17
0 17 0
0 17 17
0 17 17
17 17 17
17 17 17
17 17 17
17 17 17
17 17 17
17 17 17
17 17 17
17 17 17
17 17 17
17 17 17
17 34 17
34 34 34
34 34 34
34 51 34
34 51 34
51 51 51
51 51 51
51 51 51
51 68 51
68 68 68
68 68 68
68 85 68
85 85 68
85 85 85
85 85 85
85 102 85
102 102 102
102 102 102
102 119 102
102 119 102
119 119 119
119 119 119
119 119 119
119 136 119
136 136 136
136 136 136
136 136 136
136 136 136
136 153 153
136 153 153
136 153 153
153 153 153
153 153 153
153 153 153
153 153 153
153 153 170
153 153 170
153 153 170
153 153 170
153 153 170
153 170 170
153 170 170
170 170 170
170 170 170
170 170 170
170 170 187
170 170 187
153 153 153
136 153 136
136 136 136
153 153 153
153 170 170
153 170 170
153 170 170
153 170 170
153 170 170
153 170 170
170 170 187
153 170 170
153 170 170
153 170 170
153 170 170
170 170 170
153 170 170
153 170 170
153 170 170
153 170 170
153 170 170
153 170 170
153 170 170
153 170 170
153 170 170
153 170 170
153 170 170
153 170 170
153 170 170
170 170 187
170 170 187
170 170 187
170 170 187
170 170 187
170 170 187
170 170 187
170 170 187
170 170 187
170 170 187
170 170 187
204 221 204
204 221 204
204 221 204
204 221 204
221 221 204
221 221 204
221 221 204
221 221 204
204 221 204
204 221 204
221 221 204
221 221 204
221 221 204
204 221 204
221 221 204
221 221 204
221 221 204
221 221 204
221 221 204
221 221 204
221 221 204
221 221 204
221 221 204
221 221 204
221 221 204
221 221 204
221 221 204
221 221 204
221 221 204
221 221 204
221 221 221
221 221 221
221 221 221
221 221 221
221 221 221
221 221 221
221 221 221
221 221 221
221 221 221
221 221 221
221 221 221
221 221 221
221 221 221
221 221 221
221 221 221
221 221 221
221 221 221
221 221 221
221 221 221
221 221 221
221 221 221
221 221 221
221 221 221
221 221 221
221 238 221
221 221 221
221 221 221
221 238 221
221 221 221
221 238 221
221 238 221
221 238 221
221 221 221
221 238 221
221 238 221
221 238 221
221 238 221
221 238 221
221 238 221
221 238 221
221 238 221
221 238 221
221 238 221
221 238 221
221 238 221
221 238 221
221 238 221
238 238 221
238 238 221
238 238 221
238 238 221
238 238 221
238 238 221
238 238 221
238 238 221
238 238 221
238 238 238
238 238 238
238 238 221
170 187 170
51 68 51
0 17 17
0 17 17
0 17 17
0 17 17
0 17 17
0 17 17
0 17 17
0 17 17
0 17 17
0 17 17
0 17 17
0 17 17
0 17 17
0 17 17
0 17 17
0 17 17
0 17 17
0 17 17
0 17 17
0 17 17
0 17 17
0 17 17
0 17 17
0 17 17
0 17 17
0 17 17
0 17 17
0 17 17
0 17 17
0 17 17
0 17 17
0 17 17
0 17 17
0 17 17
0 17 17
0 17 17
0 17 17
0 17 17
17 34 17
51 51 51
102 102 102
153 153 153
187 204 204
221 238 221
238 238 238
238 255 238
238 238 238
221 238 221
204 204 187
204 204 187
187 187 170
187 187 170
187 170 153
170 170 153
170 170 153
170 153 136
153 153 136
153 136 119
136 136 102
136 119 102
136 119 102
153 136 119
170 153 136
153 153 119
153 136 119
153 136 119
153 136 102
153 153 119
153 153 136
153 153 136
136 136 119
85 85 85
68 68 51
68 51 51
68 34 34
51 34 34
34 17 17
34 34 34
51 51 34
51 68 51
102 102 85
153 153 136
170 153 153
170 153 136
153 153 136
153 153 119
153 136 119
153 136 119
153 153 119
170 153 136
170 153 136
153 153 119
153 136 119
153 136 119
136 136 102
136 136 102
153 136 119
170 170 153
170 170 153
187 187 170
187 187 170
187 187 170
204 204 187
221 221 204
221 238 221
238 238 238
238 238 238
136 153 136
34 34 34
51 51 51
17 17 17
0 17 0
0 17 0
0 17 0
0 17 0
0 17 0
0 0 0
0 17 0
0 17 0
0 17 0
0 17 0
0 17 0
0 17 0
0 17 0
0 17 0
0 17 0
0 17 0
0 17 0
0 17 0
0 17 0
0 17 0
0 17 17
0 17 17
0 17 17
0 17 17
0 17 17
0 17 17
0 17 17
0 17 17
0 17 17
0 17 17
0 17 17
0 17 17
0 17 17
0 17 17
0 17 17
0 17 17
0 17 17
0 17 17
0 17 17
0 17 17
0 17 17
17 17 17
17 17 17
17 17 17
17 17 17
17 17 17
17 34 17
17 34 17
17 34 17
34 34 17
34 34 17
34 51 34
34 51 34
34 51 34
51 51 51
51 51 51
51 68 51
68 68 51
68 68 68
68 85 68
68 85 68
68 85 85
85 85 85
85 85 85
85 102 85
102 102 102
102 102 102
102 102 102
102 119 102
102 119 119
119 119 119
119 119 119
119 119 119
119 136 136
119 136 136
136 136 136
136 136 136
136 136 136
119 119 119
119 119 119
119 119 119
119 136 136
136 136 153
136 153 153
136 153 153
136 153 153
153 153 153
153 153 153
153 153 170
153 153 170
153 153 170
153 153 170
153 170 170
153 170 170
153 153 170
153 170 170
153 170 170
153 170 170
153 170 170
153 170 170
153 170 170
153 170 170
153 170 170
153 170 170
153 170 170
153 170 170
153 170 170
153 170 170
170 170 170
170 170 170
153 170 170
153 170 170
170 170 187
170 170 187
153 170 170
153 170 170
153 170 170
153 170 170
204 221 204
221 221 204
204 221 204
204 221 204
221 221 204
221 221 204
221 221 204
221 221 204
221 221 204
204 221 204
221 221 204
221 221 204
221 221 204
221 221 204
221 221 204
221 221 204
221 221 204
221 221 204
221 221 204
221 221 204
221 221 204
221 221 204
221 221 204
221 221 204
221 221 204
221 221 204
221 221 204
221 221 204
221 221 221
221 221 204
221 221 204
221 221 221
221 221 221
221 221 204
221 221 221
221 221 221
221 221 221
221 221 221
221 221 221
221 221 221
221 221 221
221 221 221
221 221 221
221 221 221
221 221 221
221 221 221
221 221 221
221 221 221
221 221 221
221 221 221
221 221 221
221 221 221
221 221 221
221 238 221
221 221 221
221 238 221
221 221 221
221 221 221
221 221 221
221 238 221
221 221 221
221 238 221
221 238 221
221 238 221
221 238 221
221 238 221
221 238 221
221 238 221
221 238 221
221 238 221
221 238 221
221 238 221
221 238 221
221 238 221
221 238 221
238 238 221
221 238 221
238 238 221
238 238 221
238 238 221
238 238 221
238 238 221
238 238 221
221 238 221
238 238 221
238 238 221
238 238 238
238 238 238
238 238 238
204 204 204
119 119 119
17 17 17
0 17 17
0 17 17
0 17 17
0 17 17
0 17 17
0 17 17
0 17 17
0 17 17
0 17 17
0 17 17
0 17 17
0 17 17
0 17 0
0 17 17
0 17 0
0 17 17
0 17 17
0 17 17
0 17 0
0 17 17
0 17 17
0 17 17
0 17 17
0 17 17
0 17 17
0 17 17
0 17 17
0 17 17
0 17 17
0 17 17
0 17 17
0 17 17
0 17 17
0 17 17
0 17 17
0 17 17
17 34 34
85 102 102
153 153 153
204 204 204
238 238 238
238 238 238
238 255 238
238 238 238
238 238 238
238 238 221
221 221 221
221 221 204
204 204 187
187 187 170
187 187 170
187 187 170
170 170 153
170 170 136
153 153 136
153 153 136
153 153 136
136 136 119
136 119 102
136 119 102
153 136 119
170 153 136
153 153 119
153 136 119
153 136 119
153 153 119
170 153 136
170 153 136
153 153 136
153 153 136
153 153 136
136 136 119
102 102 102
68 68 68
68 68 68
68 68 68
85 85 85
119 119 102
136 136 136
153 153 136
170 153 153
170 170 153
170 153 136
170 153 136
153 153 119
153 153 119
153 136 119
170 153 136
153 153 119
170 153 136
170 170 136
153 153 136
153 136 119
136 136 119
153 136 119
153 153 136
170 170 153
187 187 170
187 187 170
187 187 170
187 187 170
204 204 187
204 221 204
221 238 221
238 238 238
238 238 238
170 170 170
51 68 51
51 51 51
0 17 17
0 17 0
0 17 0
0 0 0
0 17 0
0 17 0
0 17 0
0 0 0
0 17 0
0 17 0
0 17 0
0 17 0
0 17 0
0 17 0
0 17 0
0 17 0
0 17 0
0 17 0
0 0 0
0 17 0
0 17 0
0 17 0
0 17 17
0 17 17
0 17 17
0 17 17
0 17 17
0 17 17
0 17 17
0 17 17
0 17 17
0 17 17
0 17 17
0 17 17
0 17 17
0 17 17
0 17 17
0 17 17
0 17 17
0 17 17
0 17 17
0 17 0
0 17 17
0 17 17
0 17 0
0 17 0
0 17 0
0 17 17
0 17 17
0 17 0
0 17 0
0 17 0
0 17 0
0 17 0
0 17 0
0 17 0
0 17 0
0 17 0
0 17 0
0 17 0
0 17 0
0 17 0
0 17 0
0 17 17
17 17 17
17 17 17
17 34 17
17 34 17
17 34 17
34 34 34
34 34 34
34 34 34
34 51 34
34 51 34
51 51 51
51 51 51
51 68 51
68 68 68
68 68 68
68 68 51
51 68 51
68 68 68
68 68 68
68 85 68
85 85 85
85 85 85
85 102 85
102 102 102
102 102 102
102 102 102
102 119 119
119 119 119
119 119 119
119 119 119
119 136 136
119 136 136
119 136 136
136 136 136
136 136 136
136 136 136
136 153 153
136 153 153
136 153 153
136 153 153
136 153 153
153 153 153
153 153 153
153 153 153
153 153 170
153 153 170
153 153 170
153 153 170
153 170 170
153 170 170
153 170 170
153 170 170
153 170 170
153 170 170
153 170 170
204 221 204
221 221 204
221 221 204
221 221 204
204 221 204
221 221 204
221 221 204
221 221 204
221 221 204
221 221 204
221 221 204
221 221 204
221 221 204
221 221 204
221 221 204
221 221 204
221 221 204
221 221 204
221 221 204
221 221 204
221 221 204
221 221 204
221 221 204
221 221 204
221 221 204
221 221 204
221 221 204
221 221 204
221 221 204
221 221 204
221 221 204
221 221 221
221 221 221
221 221 221
221 221 221
221 221 221
221 221 221
221 221 221
221 221 221
221 221 221
221 221 221
221 221 221
221 221 221
221 221 221
221 221 221
221 221 221
221 221 221
221 221 221
221 221 221
221 221 221
221 221 221
221 221 221
221 221 221
221 238 221
221 221 221
221 221 221
221 221 221
221 221 221
221 221 221
221 221 221
221 238 221
221 238 221
221 238 221
221 238 221
221 238 221
221 238 221
221 238 221
221 238 221
221 238 221
221 238 221
221 238 221
221 238 221
221 238 221
221 238 221
221 238 221
221 238 221
221 238 221
238 238 221
238 238 221
238 238 238
238 238 221
238 238 221
238 238 221
238 238 221
238 238 238
238 238 221
238 238 238
238 238 238
238 238 238
221 238 221
170 170 170
68 68 68
17 34 34
17 34 34
17 34 34
17 34 34
17 17 17
17 17 17
17 17 17
17 17 17
17 17 17
0 17 17
0 17 17
0 17 17
0 17 17
0 17 17
0 17 17
0 17 17
0 17 17
0 17 17
0 17 17
0 17 17
0 17 17
0 17 17
0 17 17
0 17 17
0 17 17
0 17 17
0 17 17
0 17 17
17 17 17
0 17 17
0 17 17
0 17 17
0 17 17
0 17 17
0 17 17
17 34 34
102 102 102
187 187 187
238 238 221
255 255 238
255 255 238
255 255 238
255 255 238
238 255 238
238 238 238
238 238 221
221 221 204
204 204 187
204 204 187
187 187 170
187 187 170
170 170 153
170 170 153
170 170 153
153 153 136
153 153 136
153 153 136
153 136 119
136 119 102
136 119 102
136 136 119
153 153 119
153 153 119
170 153 119
170 153 119
170 153 136
170 153 136
170 153 136
153 153 136
170 153 136
153 153 136
153 153 136
153 153 136
136 136 119
136 136 119
153 136 136
153 153 136
153 153 136
170 153 136
170 170 153
170 170 153
170 170 153
170 153 136
170 153 136
153 153 136
170 153 136
153 153 119
170 170 136
170 170 136
153 153 136
170 153 136
153 153 136
153 136 119
153 153 119
170 153 136
170 170 153
187 170 153
187 187 170
187 187 170
187 187 170
187 187 170
204 204 187
204 204 204
238 238 238
238 255 238
238 238 238
170 187 170
51 51 51
51 51 51
0 17 17
0 17 0
0 17 0
0 17 0
0 17 0
0 17 0
0 17 0
0 17 0
0 17 0
0 17 0
0 17 0
0 0 0
0 0 0
0 0 0
0 0 0
0 17 0
0 17 0
0 0 0
0 17 0
0 17 0
0 17 0
0 17 0
0 17 17
0 17 17
0 17 17
0 17 17
0 17 17
0 17 17
0 17 17
0 17 17
0 17 17
0 17 17
0 17 17
0 17 17
0 17 17
0 17 17
0 17 17
0 17 17
0 17 17
0 17 17
0 17 17
0 17 0
0 17 0
0 17 0
0 17 17
0 17 17
0 17 0
0 17 17
0 17 17
0 17 0
0 17 0
0 17 0
0 0 0
0 17 0
0 0 0
0 0 0
0 0 0
0 0 0
0 0 0
0 0 0
0 0 0
0 0 0
0 0 0
0 17 0
0 17 0
0 17 0
0 17 0
0 17 0
0 17 0
0 17 0
0 17 0
0 17 0
0 17 0
0 17 0
0 17 0
0 17 0
0 17 0
0 17 17
0 17 17
17 17 17
17 17 17
0 17 17
17 17 17
0 17 17
17 17 17
17 17 17
17 17 17
17 17 17
17 34 17
17 34 17
34 34 17
34 34 17
34 34 34
34 51 34
34 51 34
51 51 34
51 51 51
51 68 51
51 68 51
68 68 68
68 68 68
68 85 68
85 85 68
85 85 85
85 85 85
85 102 85
102 102 85
102 102 102
102 102 102
102 119 102
102 119 119
119 119 119
119 119 119
119 119 119
119 136 136
136 136 136
136 136 136
136 136 136
136 136 136
221 221 204
221 221 204
204 221 204
221 221 204
221 221 204
204 221 204
221 221 204
221 221 204
204 221 204
221 221 204
221 221 204
221 221 204
221 221 204
221 221 204
221 221 204
221 221 204
221 221 204
221 221 204
221 221 204
221 221 204
221 221 204
221 221 204
221 221 204
221 221 204
221 221 204
221 221 204
221 221 204
221 221 204
221 221 204
221 221 204
221 221 204
221 221 204
221 221 204
221 221 204
221 221 204
221 221 204
221 221 221
221 221 221
221 221 221
221 221 221
221 221 221
221 221 221
221 221 221
221 221 221
221 221 221
221 221 221
221 221 221
221 221 221
221 221 221
221 221 221
221 221 221
221 221 221
221 221 221
221 221 221
221 221 221
221 221 221
221 221 221
221 221 221
221 221 221
221 238 221
221 221 221
221 238 221
221 238 221
221 238 221
221 238 221
221 238 221
221 238 221
221 238 221
221 238 221
221 238 221
221 238 221
221 238 221
221 238 221
221 238 221
221 238 221
221 238 221
221 238 221
221 238 221
238 238 221
238 238 221
238 238 221
238 238 221
238 238 221
238 238 221
238 238 221
238 238 221
238 238 221
238 238 238
238 238 238
238 238 238
204 221 204
136 136 136
51 68 68
51 68 68
51 68 68
51 68 68
51 51 51
51 51 51
51 51 51
34 51 51
34 51 51
34 51 51
34 51 51
34 51 34
34 34 34
34 34 34
34 34 34
34 34 34
17 34 34
17 34 34
17 34 34
17 34 34
17 34 34
17 34 17
17 34 17
17 17 17
17 17 17
17 17 17
17 17 17
17 17 17
17 34 34
17 17 17
0 17 17
17 17 17
17 34 34
17 34 34
17 34 34
85 102 102
187 187 187
238 238 238
238 238 238
238 238 238
238 238 238
238 255 238
238 238 238
238 238 238
238 238 238
238 238 221
221 221 204
204 204 187
204 204 187
204 204 187
187 187 170
187 170 153
170 170 153
170 170 153
170 170 136
153 153 136
153 136 119
136 136 119
136 119 102
136 119 102
136 119 102
136 136 102
153 136 119
153 153 119
170 153 119
153 153 136
170 153 136
170 153 136
170 170 136
170 170 136
170 153 136
170 153 136
153 153 136
136 136 119
153 136 119
153 136 119
153 153 136
153 153 136
170 153 136
170 170 153
170 170 153
170 170 153
170 170 153
170 153 136
170 153 136
170 153 136
170 170 136
170 170 153
170 170 153
153 153 136
170 153 136
153 153 136
153 153 136
170 170 136
170 170 153
187 170 153
187 187 170
187 187 170
187 187 170
187 187 170
187 187 187
204 204 187
221 221 204
221 238 221
238 238 238
221 238 221
170 170 170
85 85 85
68 85 85
17 17 17
0 17 17
0 17 0
0 17 0
0 0 0
0 0 0
0 0 0
0 0 0
0 17 0
0 17 0
0 17 0
0 0 0
0 17 0
0 0 0
0 17 0
0 17 0
0 17 0
0 0 0
0 17 0
0 17 0
0 17 0
0 17 0
0 17 17
0 17 17
0 17 17
0 17 17
0 17 17
0 17 17
0 17 17
0 17 17
0 17 17
0 17 17
0 17 17
0 17 17
0 17 17
0 17 17
0 17 17
0 17 17
0 17 17
0 17 17
0 17 17
0 17 17
0 17 0
0 17 17
0 17 0
0 17 0
0 17 0
0 17 0
0 17 17
0 17 0
0 17 0
0 0 0
0 0 0
0 17 0
0 0 0
0 0 0
0 0 0
0 0 0
0 0 0
0 0 0
0 0 0
0 0 0
0 0 0
0 0 0
0 0 17
0 0 0
0 17 0
0 17 0
0 17 0
0 17 0
0 17 0
0 17 0
0 17 0
0 17 0
0 17 0
0 17 0
0 17 0
0 17 17
0 17 17
0 17 17
0 17 17
0 17 17
0 17 0
0 17 0
0 17 0
0 17 0
0 17 0
0 17 0
0 17 0
0 17 0
0 17 0
0 17 0
0 17 0
0 17 0
0 17 0
0 17 0
0 17 0
0 17 0
0 17 0
0 17 0
0 17 0
0 17 0
0 17 0
0 17 17
0 17 17
0 17 17
17 17 17
17 17 17
17 17 17
17 34 17
17 34 17
17 34 17
34 34 17
34 34 34
34 51 34
34 51 34
51 51 34
51 51 51
51 68 51
204 221 204
204 221 204
221 221 204
204 221 204
204 221 204
204 221 204
204 221 204
204 221 204
204 221 204
204 221 204
221 221 204
221 221 204
221 221 204
221 221 204
221 221 204
204 221 204
221 221 204
221 221 204
221 221 204
221 221 204
221 221 204
221 221 204
221 221 204
221 221 204
221 221 204
221 221 204
221 221 204
221 221 221
221 221 204
221 221 204
221 221 204
221 221 204
221 221 221
221 221 221
221 221 204
221 221 221
221 221 221
221 221 221
221 221 221
221 221 221
221 221 221
221 221 221
221 221 221
221 221 221
221 221 221
221 221 221
221 221 221
221 221 221
221 221 221
221 221 221
221 221 221
221 221 221
221 221 221
221 221 221
221 221 221
221 221 221
221 221 221
221 221 221
221 238 221
221 238 221
221 238 221
221 238 221
221 238 221
221 238 221
221 238 221
221 238 221
221 238 221
221 238 221
221 238 221
221 238 221
221 238 221
221 238 221
221 238 221
221 238 221
221 238 221
221 238 221
221 238 221
238 238 221
238 238 221
238 238 221
238 238 221
238 238 221
238 238 221
238 238 221
238 238 238
238 238 221
238 238 221
238 238 238
238 238 238
238 238 238
221 238 221
170 187 170
102 102 102
68 85 68
85 85 85
85 85 85
85 85 85
68 85 85
68 85 85
68 85 85
68 85 85
68 85 85
68 85 85
68 85 85
68 85 68
68 68 68
68 68 68
68 68 68
51 68 68
51 68 68
51 68 51
51 68 51
51 68 51
51 68 51
51 51 51
51 51 51
51 51 51
34 51 51
34 51 51
34 51 51
34 51 51
34 51 34
34 51 34
34 51 51
51 51 51
51 68 68
85 102 85
170 170 170
221 238 221
238 238 238
238 238 238
238 238 238
238 238 238
238 238 238
238 238 238
238 238 238
238 238 221
221 221 221
221 221 204
204 204 187
204 204 187
204 204 187
187 187 170
187 187 170
170 170 153
170 170 153
170 170 153
170 153 136
153 153 119
153 136 119
136 136 102
136 119 102
119 119 102
136 136 102
170 153 119
153 136 119
153 153 119
153 153 136
170 153 136
170 153 136
170 170 136
170 170 136
170 153 136
170 153 136
170 153 136
136 136 119
153 153 119
153 153 136
170 153 136
170 153 136
170 153 136
170 170 153
170 170 153
187 170 153
187 170 153
170 170 153
170 170 136
170 170 136
170 170 136
170 170 153
170 170 153
170 170 136
170 170 136
153 153 136
170 153 136
170 170 153
187 170 170
187 187 170
187 187 170
187 187 170
187 187 170
187 187 170
204 204 187
221 221 204
238 238 221
221 221 221
238 238 221
238 238 238
204 221 221
170 170 170
85 102 102
34 51 51
0 17 17
0 17 0
0 17 0
0 17 0
0 17 0
0 17 0
0 17 0
0 17 0
0 17 0
0 17 0
0 0 0
0 17 0
0 0 0
0 0 0
0 17 0
0 17 0
0 0 0
0 17 0
0 17 0
0 17 0
0 17 0
0 17 17
0 17 17
0 17 17
0 17 17
0 17 17
0 17 17
0 17 17
0 17 17
0 17 17
0 17 17
0 17 17
0 17 17
0 17 17
0 17 17
0 17 17
0 17 17
0 17 17
0 17 17
0 17 17
0 17 17
0 17 0
0 17 17
0 17 0
0 17 0
0 17 0
0 17 0
0 17 0
0 17 0
0 17 0
0 0 0
0 17 0
0 0 0
0 0 0
0 0 0
0 0 0
0 0 0
0 0 0
0 0 0
0 0 0
0 0 0
0 0 0
0 0 0
0 0 0
0 0 0
0 0 0
0 17 0
0 17 0
0 17 0
0 17 0
0 17 0
0 17 17
0 17 0
0 17 0
0 17 0
0 17 0
0 17 17
0 17 17
0 17 17
0 17 17
0 17 17
0 17 17
0 17 17
0 17 0
0 17 0
0 17 0
0 17 0
0 17 0
0 17 0
0 17 0
0 17 0
0 17 0
0 17 0
0 17 0
0 17 0
0 17 0
0 17 0
0 17 0
0 17 0
0 17 0
0 17 0
0 17 0
0 17 0
0 17 0
0 17 17
0 17 0
0 17 0
0 17 0
0 17 0
0 17 0
0 17 0
0 17 17
0 17 17
0 17 17
0 17 17
0 17 17
0 17 17
0 17 17
204 221 204
221 221 204
221 221 204
221 221 204
204 221 204
204 221 204
204 221 204
221 221 204
204 221 204
221 221 204
221 221 204
204 221 204
221 221 204
221 221 204
221 221 204
221 221 204
221 221 204
221 221 204
221 221 204
221 221 204
221 221 204
221 221 204
221 221 204
221 221 204
221 221 204
221 221 204
221 221 204
221 221 204
221 221 204
221 221 204
221 221 204
221 221 204
221 221 204
221 221 204
221 221 204
221 221 221
221 221 221
221 221 221
221 221 221
221 221 221
221 221 221
221 221 221
221 221 221
221 221 221
221 221 221
221 221 221
221 221 221
221 221 221
221 221 221
221 221 221
221 221 221
221 221 221
221 221 221
221 221 221
221 221 221
221 221 221
221 221 221
221 221 221
221 238 221
221 238 221
221 238 221
221 238 221
221 238 221
221 238 221
221 238 221
221 238 221
221 238 221
221 238 221
221 238 221
221 238 221
221 238 221
221 238 221
221 238 221
221 238 221
221 238 221
221 238 221
238 238 221
238 238 221
238 238 238
238 238 221
238 238 221
238 238 221
238 238 221
238 238 221
238 238 221
238 238 221
238 238 221
238 238 221
238 238 221
238 238 221
238 238 238
204 204 204
136 136 119
68 85 51
68 85 51
68 85 68
68 85 68
68 85 68
68 85 68
68 85 68
68 85 68
85 85 68
68 85 68
85 102 85
85 85 85
85 85 85
85 85 85
85 85 68
85 85 85
68 85 68
68 85 68
85 85 85
85 85 85
85 85 85
85 85 85
68 85 85
85 85 85
85 85 85
68 85 68
68 85 68
68 85 68
68 85 68
68 85 68
85 102 85
102 119 102
136 136 136
187 187 187
238 238 238
238 238 238
238 238 238
238 238 221
238 238 221
238 238 221
238 238 221
238 238 221
238 238 221
238 238 221
221 221 221
221 221 204
221 221 204
204 204 187
204 204 187
187 187 170
187 187 170
170 170 153
170 170 153
170 170 153
170 153 136
153 153 136
153 153 136
153 136 119
136 136 119
136 119 102
136 136 119
153 136 119
153 136 119
153 136 119
153 153 119
153 153 119
170 153 136
170 170 136
170 170 136
170 170 136
170 170 136
170 153 136
153 153 119
170 153 136
170 153 136
170 153 136
170 170 136
170 170 136
170 170 153
170 170 153
187 170 153
170 170 153
170 170 153
170 170 136
170 153 136
170 153 136
170 170 153
170 170 153
170 170 153
170 170 136
170 153 136
170 170 153
187 170 170
187 187 170
187 187 170
187 187 170
187 187 170
187 187 170
204 204 187
204 204 204
238 238 221
238 238 238
238 238 238
221 238 221
238 238 238
238 255 255
221 221 221
153 153 153
68 85 85
17 34 34
0 17 0
0 0 0
0 0 0
0 17 0
0 0 0
0 17 0
0 0 0
0 0 0
0 17 0
0 0 0
0 0 0
0 17 0
0 0 0
0 17 0
0 17 0
0 17 0
0 17 0
0 17 0
0 17 17
0 17 17
0 17 0
0 17 17
0 17 17
0 17 17
0 17 17
0 17 17
0 0 0
0 17 17
0 17 17
0 17 17
0 17 17
0 17 17
0 17 17
0 17 17
0 17 17
0 17 17
0 17 17
0 17 17
0 17 17
0 17 0
0 17 0
0 17 0
0 17 0
0 17 0
0 17 0
0 17 0
0 17 0
0 17 0
0 17 0
0 0 0
0 0 0
0 0 0
0 0 0
0 0 0
0 0 0
0 0 0
0 17 0
0 0 0
0 0 0
0 0 0
0 0 0
0 0 0
0 0 0
0 0 0
0 0 0
0 17 17
0 0 0
0 17 0
0 17 0
0 17 0
0 17 0
0 17 0
0 17 0
0 17 0
0 17 0
0 17 17
0 17 17
0 17 17
0 17 17
0 17 17
0 17 17
0 17 0
0 17 0
0 17 0
0 17 0
0 17 0
0 17 0
0 17 0
0 17 0
0 17 0
0 17 0
0 17 0
0 17 0
0 17 0
0 17 0
0 17 0
0 17 0
0 17 0
0 17 0
0 17 0
0 17 0
0 17 0
0 17 0
0 17 0
0 17 0
0 17 0
0 17 0
0 17 0
0 17 0
0 17 0
0 17 0
0 17 0
0 17 0
0 17 0
0 17 17
0 17 0
0 17 17
204 221 204
204 221 204
204 221 204
221 221 204
204 221 204
221 221 204
204 221 204
221 221 204
221 221 204
221 221 204
204 221 204
221 221 204
221 221 204
221 221 204
221 221 204
221 221 204
221 221 204
221 221 204
221 221 204
221 221 204
221 221 204
221 221 204
221 221 204
221 221 204
221 221 204
221 221 204
221 221 204
221 221 204
221 221 221
221 221 204
221 221 204
221 221 204
221 221 204
221 221 204
221 221 221
221 221 221
221 221 221
221 221 221
221 221 221
221 221 221
221 221 221
221 221 221
221 221 221
221 221 221
221 221 221
221 221 221
221 221 221
221 221 221
221 221 221
221 221 221
221 221 221
221 221 221
221 221 221
221 221 221
221 221 221
221 221 221
221 221 221
221 221 221
221 238 221
221 238 221
221 238 221
221 238 221
221 238 221
221 238 221
221 238 221
221 238 221
221 238 221
221 238 221
221 238 221
221 238 221
221 238 221
221 238 221
221 238 221
221 238 221
221 238 221
221 238 221
238 238 221
221 238 221
238 238 221
238 238 221
238 238 221
238 238 221
238 238 238
238 238 221
238 238 221
238 238 221
238 238 221
238 238 238
238 238 238
238 238 238
238 238 238
221 238 221
170 170 170
68 102 68
51 68 34
51 68 34
51 68 34
51 68 34
51 68 34
51 68 34
51 68 34
51 68 34
51 85 34
51 85 51
51 85 51
51 85 51
51 85 34
51 68 34
51 68 34
51 85 51
51 85 51
51 85 51
68 85 51
68 85 51
68 85 51
68 85 51
68 85 51
68 85 51
68 85 51
68 85 51
68 85 68
85 102 68
85 102 68
119 119 119
153 170 153
204 221 204
238 238 238
238 238 238
238 238 238
238 238 238
238 238 238
238 238 221
221 238 221
238 238 221
238 238 221
238 238 221
221 221 221
221 221 221
221 221 204
221 221 204
204 204 187
204 204 187
187 187 170
187 187 170
170 170 153
170 170 153
170 170 153
170 170 153
170 153 136
153 153 136
153 153 136
153 153 119
153 136 119
136 136 119
153 136 119
153 153 136
153 136 119
153 136 119
136 136 119
136 136 119
153 136 119
170 153 136
170 153 136
170 153 136
170 153 136
153 153 136
170 153 136
170 153 136
170 153 136
170 170 136
170 153 136
170 170 153
170 170 153
170 170 153
170 170 136
153 153 136
153 153 119
153 153 136
153 153 136
170 170 153
170 153 136
170 170 153
170 170 136
170 170 136
187 170 153
187 187 170
187 170 153
187 170 153
187 187 170
187 187 170
187 187 170
204 204 187
221 221 221
238 238 221
238 238 238
238 238 238
221 238 221
238 238 238
255 255 255
238 255 238
221 221 221
85 102 85
17 34 17
0 17 17
0 17 17
0 17 17
0 17 17
0 0 0
0 17 17
0 0 17
0 0 17
0 0 17
0 17 17
0 17 0
0 0 0
0 0 0
0 0 0
0 17 0
0 17 0
0 0 0
0 17 0
0 17 17
0 17 17
0 17 17
0 17 17
0 17 17
0 17 17
0 17 17
0 17 0
0 17 0
0 17 17
0 17 17
0 17 17
0 17 17
0 17 17
0 17 17
0 17 17
0 17 17
0 17 17
0 17 17
0 17 17
0 17 17
0 17 17
0 17 0
0 17 0
0 17 0
0 17 0
0 17 0
0 17 0
0 17 0
0 17 0
0 0 0
0 0 0
0 0 0
0 0 0
0 0 0
0 0 0
0 0 0
0 0 0
0 0 0
0 0 0
0 0 0
0 17 0
0 17 0
0 17 0
0 0 0
0 0 0
0 0 0
0 0 0
0 0 0
0 0 0
0 17 0
0 17 17
0 17 17
0 17 0
0 17 0
0 17 0
0 17 17
0 17 17
17 17 17
17 17 17
0 17 17
0 17 17
0 17 17
0 17 0
0 17 0
0 17 0
0 17 0
0 17 0
0 17 0
0 17 0
0 17 0
0 17 0
0 0 0
0 17 0
0 17 0
0 17 0
0 17 0
0 17 0
0 17 0
0 17 0
0 17 0
0 17 0
0 17 0
0 17 0
0 17 0
0 17 0
0 17 0
0 17 0
0 17 0
0 17 0
0 17 0
0 17 0
0 17 0
0 17 0
0 17 17
0 17 0
0 17 0
0 17 0
0 17 0
221 221 204
221 221 204
221 221 204
221 221 204
221 221 204
221 221 204
221 221 204
204 221 204
221 221 204
221 221 204
221 221 204
221 221 204
221 221 204
221 221 204
221 221 204
221 221 204
221 221 204
221 221 204
221 221 204
221 221 204
221 221 204
221 221 204
221 221 204
221 221 204
221 221 204
221 221 204
221 221 204
221 221 204
221 221 204
221 221 204
221 221 221
221 221 221
221 221 221
221 221 221
221 221 221
221 221 221
221 221 204
221 221 221
221 221 221
221 221 221
221 221 221
221 221 221
221 221 221
221 221 221
221 221 221
221 221 221
221 221 221
221 221 221
221 221 221
221 221 221
221 221 221
221 221 221
221 221 221
221 221 221
221 221 221
221 221 221
221 221 221
221 221 221
221 238 221
221 238 221
221 238 221
221 238 221
221 238 221
221 238 221
221 238 221
221 238 221
221 238 221
221 238 221
221 238 221
221 238 221
221 238 221
221 238 221
221 238 221
221 238 221
221 238 221
221 238 221
221 238 221
221 238 221
221 238 221
238 238 221
238 238 221
238 238 221
238 238 221
238 238 238
238 238 221
238 238 221
238 238 221
238 238 238
238 238 238
238 238 238
238 238 238
238 238 238
204 204 204
119 136 119
51 85 34
51 68 17
34 68 17
51 68 17
51 68 17
34 68 17
34 68 17
34 68 17
34 68 17
51 68 17
51 68 34
34 68 17
34 68 17
34 68 17
51 68 17
51 68 17
51 68 17
51 68 17
51 68 34
51 68 17
34 68 17
34 68 17
51 68 34
51 68 17
51 68 34
51 68 34
51 68 34
68 85 51
85 102 85
136 153 136
187 187 187
221 221 221
238 238 238
238 255 238
255 255 238
238 255 238
238 238 238
238 238 221
221 221 221
221 221 221
221 221 221
221 221 221
221 221 221
221 221 204
221 221 204
221 221 204
204 204 187
187 187 187
187 187 170
187 187 170
170 170 153
170 170 153
170 170 153
170 153 136
153 153 136
153 153 136
153 153 136
153 153 136
153 153 119
136 136 119
153 136 119
153 153 136
153 153 136
136 136 119
136 119 102
136 119 102
119 119 102
119 119 102
119 119 102
153 136 119
153 136 119
153 153 119
153 153 136
153 136 119
153 136 119
153 136 119
153 136 119
153 136 119
153 136 119
136 136 119
153 136 119
136 136 119
153 136 119
153 153 136
170 170 153
170 170 153
153 153 136
170 170 136
170 170 136
170 153 136
187 187 170
187 187 170
187 187 170
187 187 170
187 187 170
187 187 187
204 204 187
221 221 204
221 221 221
221 221 221
221 221 221
221 238 221
238 238 238
238 238 238
255 255 255
238 238 238
204 221 221
85 102 85
34 51 34
17 17 17
0 17 17
0 17 17
0 17 17
0 17 17
0 17 17
0 17 17
0 17 17
0 17 17
0 17 17
0 17 17
0 17 17
0 17 17
0 17 17
0 17 17
0 17 17
0 17 17
0 17 17
0 17 17
0 17 17
0 17 17
0 17 17
0 17 17
0 17 17
0 17 17
0 17 0
0 17 0
0 17 0
0 17 17
0 17 0
0 17 17
0 17 17
0 17 17
0 17 17
0 17 17
0 17 17
0 17 17
0 17 17
0 17 17
0 17 17
0 17 0
0 17 0
0 17 0
0 0 0
0 17 0
0 17 0
0 17 0
0 17 0
0 0 0
0 0 0
0 17 0
0 0 0
0 0 0
0 17 17
0 17 17
0 0 0
0 0 0
0 0 0
0 17 0
0 17 0
0 17 0
0 17 0
0 17 0
0 0 0
0 0 0
0 0 0
0 0 0
0 17 0
0 17 0
0 17 17
0 17 0
0 17 0
0 17 0
0 17 0
0 17 17
0 17 17
17 17 17
17 17 17
0 17 17
0 17 17
0 17 0
0 17 0
0 17 0
0 17 0
0 0 0
0 17 0
0 17 0
0 0 0
0 17 0
0 17 0
0 17 0
0 17 0
0 17 0
0 17 0
0 17 0
0 17 0
0 17 0
0 17 0
0 17 0
0 17 0
0 17 0
0 17 0
0 17 0
0 17 0
0 17 0
0 17 0
0 17 0
0 17 0
0 17 0
0 17 0
0 17 0
0 17 0
0 17 17
0 17 17
0 17 0
0 17 0
0 17 0
204 221 204
221 221 204
204 221 204
221 221 204
221 221 204
221 221 204
221 221 204
221 221 204
204 221 204
221 221 204
221 221 204
221 221 204
221 221 204
221 221 204
221 221 204
221 221 204
221 221 204
221 221 204
221 221 204
221 221 204
221 221 204
221 221 204
221 221 204
221 221 204
221 221 204
221 221 204
221 221 221
221 221 204
221 221 204
221 221 204
221 221 204
221 221 204
221 221 221
221 221 204
221 221 204
221 221 221
221 221 221
221 221 221
221 221 221
221 221 221
221 221 221
221 221 221
221 221 221
221 221 221
221 221 221
221 221 221
221 221 221
221 221 221
221 221 221
221 221 221
221 221 221
221 221 221
221 221 221
221 221 221
221 221 221
221 221 221
221 221 221
221 221 221
221 221 221
221 238 221
221 238 221
221 238 221
221 238 221
221 238 221
221 238 221
221 238 221
221 238 221
221 238 221
221 238 221
221 238 221
221 238 221
221 238 221
221 238 221
221 238 221
221 238 221
221 238 221
221 238 221
238 238 221
221 238 221
238 238 221
238 238 221
238 238 221
238 238 221
238 238 238
238 238 238
238 238 238
238 238 221
238 238 238
238 238 238
238 238 238
238 238 238
238 238 238
221 238 221
170 187 170
85 102 51
51 85 34
51 68 34
51 68 34
51 85 34
51 85 34
51 85 34
51 68 17
51 68 17
51 68 17
51 85 34
51 68 34
51 68 34
51 68 17
51 68 17
51 68 34
51 68 17
51 68 17
51 68 17
51 68 17
51 68 17
51 68 17
51 68 17
51 68 17
51 68 34
51 68 34
51 68 34
85 102 68
102 119 102
136 153 136
187 204 187
238 238 221
238 238 238
238 238 238
238 238 238
238 238 221
221 238 221
221 221 221
221 221 221
221 221 204
221 221 221
221 221 221
221 221 221
221 221 204
221 221 204
221 221 204
204 204 187
204 204 187
187 187 170
187 187 170
187 187 170
170 170 153
170 170 153
170 170 153
170 170 136
153 153 136
153 153 136
153 153 136
153 153 136
153 153 119
153 136 119
153 153 136
153 153 136
153 136 119
136 136 119
136 119 102
119 119 102
119 119 102
119 119 85
119 119 85
119 119 102
136 136 119
153 136 119
136 136 119
136 119 102
119 119 102
136 119 102
136 119 102
136 119 102
136 119 102
136 136 119
153 136 119
153 153 136
153 153 136
170 170 153
170 170 153
170 170 153
170 170 153
170 170 153
187 170 153
187 187 170
187 187 170
187 187 170
187 187 170
204 204 187
204 204 187
221 221 204
221 221 221
221 221 221
221 221 221
221 221 204
221 238 221
221 238 221
238 238 238
238 238 238
238 238 238
187 204 187
102 119 102
68 85 68
51 51 51
34 34 34
34 34 34
17 34 34
17 34 34
34 34 34
17 34 34
17 34 34
17 34 34
17 34 17
17 34 17
17 34 17
17 17 17
17 17 17
0 17 17
0 17 17
0 17 17
0 17 17
0 17 17
0 17 17
0 17 17
0 17 17
0 17 17
0 17 17
0 17 17
0 17 17
0 17 17
0 17 17
0 17 17
0 17 17
0 17 17
0 17 17
0 17 17
0 17 17
0 17 17
0 17 17
0 17 17
0 17 17
0 17 17
0 17 0
0 17 0
0 17 17
0 17 0
0 0 0
0 17 0
0 17 0
0 0 0
0 0 0
0 0 0
0 0 0
0 0 0
0 0 0
0 0 17
0 0 0
0 17 0
0 17 0
0 17 0
0 17 0
0 17 17
0 0 17
0 0 0
0 17 0
0 0 0
0 0 0
0 0 0
0 17 0
0 17 0
0 17 0
0 17 0
0 17 17
0 17 0
0 17 0
0 17 0
0 17 0
0 17 17
17 17 17
17 17 17
17 17 17
0 17 17
0 17 17
0 17 17
0 17 0
0 17 0
0 17 0
0 17 0
0 17 0
0 17 0
0 17 0
0 17 0
0 17 0
0 17 0
0 17 0
0 17 0
0 17 0
0 17 0
0 17 0
0 17 0
0 17 0
0 17 0
0 17 0
0 17 0
0 17 0
0 17 0
0 17 0
0 17 0
0 17 0
0 17 0
0 17 0
0 17 0
0 17 0
0 17 0
0 17 17
0 17 17
0 17 17
0 17 17
0 17 17
0 17 17
204 221 204
204 221 204
221 221 204
204 221 204
221 221 204
221 221 204
221 221 204
221 221 204
221 221 204
204 221 204
204 221 204
221 221 204
221 221 204
221 221 204
204 221 204
221 221 204
221 221 204
221 221 204
221 221 204
221 221 204
221 221 204
221 221 204
221 221 204
221 221 204
221 221 204
221 221 204
221 221 204
221 221 204
221 221 204
221 221 204
221 221 221
221 221 221
221 221 204
221 221 221
221 221 204
221 221 204
221 221 221
221 221 221
221 221 221
221 221 221
221 221 221
221 221 221
221 221 221
221 221 221
221 221 221
221 221 221
221 221 221
221 221 221
221 221 221
221 221 221
221 221 221
221 221 221
221 221 221
221 221 221
221 221 221
221 221 221
221 221 221
221 221 221
221 238 221
221 238 221
221 238 221
221 238 221
221 238 221
221 238 221
221 238 221
221 238 221
221 238 221
221 238 221
221 238 221
221 238 221
221 238 221
221 238 221
221 238 221
221 238 221
221 238 221
221 238 221
221 238 221
238 238 221
238 238 221
238 238 221
238 238 221
238 238 221
238 238 221
238 238 238
238 238 238
238 238 238
238 238 238
238 238 238
238 238 238
238 238 238
238 238 238
238 238 238
238 238 238
204 204 204
119 136 102
51 85 34
51 85 34
51 85 34
51 85 34
68 85 34
51 85 34
51 85 34
51 85 34
51 85 34
51 85 34
51 85 34
51 85 34
51 85 34
51 85 34
51 85 34
51 85 34
51 85 34
51 85 34
51 85 34
51 85 34
51 68 34
51 68 17
51 68 34
51 85 34
51 68 17
51 85 34
85 102 85
136 136 119
170 187 170
204 221 204
204 204 204
221 238 221
238 238 238
221 238 221
221 221 204
221 221 204
221 221 204
221 221 204
221 221 204
221 221 221
238 238 221
221 221 221
221 221 204
221 221 204
221 204 204
204 204 187
204 204 187
187 187 170
187 187 170
187 187 170
170 187 170
170 170 153
170 170 153
170 170 153
153 153 136
153 153 136
170 153 136
153 153 136
153 136 119
153 136 119
136 136 119
136 136 119
136 136 119
136 136 102
136 119 102
136 119 102
136 119 102
119 119 102
136 119 102
136 119 102
136 119 102
136 136 102
136 136 119
136 119 102
136 119 102
136 136 119
136 119 102
136 119 102
136 119 102
136 119 102
136 136 102
136 136 119
153 136 119
170 153 136
170 170 153
170 170 153
170 153 136
170 153 136
170 170 136
170 170 153
187 187 170
187 187 170
204 187 170
204 204 187
204 204 187
221 221 204
221 221 221
221 221 221
221 221 221
221 221 221
221 221 221
238 238 221
238 238 238
238 238 238
221 221 221
170 170 170
119 136 119
136 136 136
102 102 102
68 85 85
68 85 85
68 85 68
68 85 68
68 85 68
68 68 68
68 68 68
51 68 68
51 68 68
51 68 68
51 68 68
51 68 68
51 51 51
51 51 51
34 51 51
34 51 51
34 51 51
34 51 51
34 51 34
34 51 34
34 34 34
17 34 34
17 34 34
17 34 34
17 34 34
17 34 34
17 34 34
17 34 34
17 34 34
17 34 34
17 34 34
17 34 17
17 34 17
17 17 17
17 17 17
0 17 17
0 17 17
0 17 17
0 17 17
0 17 17
0 17 17
0 17 17
0 17 17
0 17 17
0 17 17
0 17 17
0 17 17
0 17 0
0 17 0
0 17 17
0 17 17
0 17 0
0 17 0
0 0 0
0 17 0
0 17 0
0 17 17
0 17 17
0 17 17
0 17 17
0 17 17
0 17 0
0 0 0
0 0 0
0 17 0
0 17 0
0 17 0
0 17 17
0 17 17
0 17 0
0 17 17
0 17 0
0 17 0
0 17 17
17 17 17
17 17 17
17 17 17
0 17 17
0 17 17
0 17 17
0 17 17
0 17 0
0 17 0
0 17 0
0 17 0
0 17 0
0 17 0
0 17 0
0 0 0
0 17 0
0 17 0
0 17 0
0 17 17
0 17 0
0 17 0
0 17 17
0 17 0
0 17 0
0 17 0
0 17 0
0 17 0
0 17 0
0 17 0
0 17 0
0 17 0
0 17 0
0 17 0
0 17 0
0 17 0
0 17 0
0 17 17
0 17 0
0 17 0
0 17 17
0 17 0
0 17 17
221 221 204
221 221 204
221 221 204
221 221 204
221 221 204
221 221 204
221 221 204
221 221 204
221 221 204
221 221 204
204 221 204
221 221 204
221 221 204
221 221 204
221 221 204
221 221 204
221 221 204
221 221 204
221 221 204
221 221 204
221 221 204
221 221 204
221 221 204
221 221 204
221 221 204
221 221 204
221 221 204
221 221 204
221 221 204
221 221 204
221 221 221
221 221 221
221 221 204
221 221 221
221 221 221
221 221 221
221 221 221
221 221 221
221 221 221
221 221 221
221 221 221
221 221 221
221 221 221
221 221 221
221 221 221
221 221 221
221 221 221
221 221 221
221 221 221
221 221 221
221 221 221
221 221 221
221 221 221
221 221 221
221 221 221
221 221 221
221 221 221
221 221 221
221 238 221
221 238 221
221 238 221
221 238 221
221 238 221
221 238 221
221 238 221
221 238 221
221 238 221
221 238 221
221 238 221
221 238 221
221 238 221
221 238 221
221 238 221
221 238 221
238 238 221
238 238 221
238 238 221
238 238 221
238 238 221
238 238 221
238 238 221
238 238 221
238 238 221
238 238 238
238 238 238
238 238 238
238 238 238
238 238 238
238 238 238
238 238 238
238 238 238
238 238 238
238 238 238
221 238 221
170 187 153
85 102 51
51 85 34
51 85 34
68 85 34
68 85 34
51 85 34
51 85 34
51 85 34
68 85 34
68 85 34
51 85 34
51 85 34
51 85 34
51 85 34
51 85 34
51 85 34
51 85 34
51 85 34
51 85 17
51 85 34
51 85 34
51 85 34
51 85 34
51 85 34
51 85 34
51 85 34
85 102 68
153 170 153
204 204 187
187 204 187
204 204 204
221 221 221
221 221 221
221 221 221
221 221 221
221 221 204
204 221 204
204 221 204
221 221 204
238 238 221
221 221 221
221 221 204
221 221 204
204 204 204
204 204 187
204 204 187
204 204 187
187 187 170
187 187 170
170 187 170
170 170 153
170 170 153
170 170 153
170 170 136
170 170 153
170 170 153
170 170 153
170 153 136
153 153 136
153 153 119
153 136 119
153 136 119
136 136 119
136 119 102
136 119 102
119 119 102
119 119 102
119 119 102
136 119 102
136 119 102
136 136 119
136 136 119
136 136 119
153 136 119
153 136 136
153 136 136
136 136 119
136 136 119
136 119 102
136 119 102
136 119 102
136 136 119
153 153 136
170 153 153
170 153 153
170 170 153
170 153 136
170 153 136
170 170 153
187 187 153
187 187 170
187 187 170
204 187 170
204 187 170
204 204 187
204 204 204
221 221 221
221 221 221
221 221 221
221 238 221
221 221 221
238 238 221
238 255 238
238 238 238
221 221 221
170 170 170
153 153 153
187 187 187
119 136 119
85 102 68
85 102 68
85 102 68
85 85 68
85 102 68
68 85 68
85 85 85
85 102 85
85 102 85
85 102 85
85 102 102
85 102 102
85 85 85
85 102 85
85 102 85
85 85 85
85 102 85
85 85 85
68 85 85
68 85 85
68 85 68
68 85 68
68 85 85
68 85 85
68 68 68
68 68 68
68 68 68
68 68 68
68 68 68
68 68 68
51 68 68
51 68 68
51 68 68
51 51 51
34 51 51
34 51 51
51 51 51
51 51 51
51 51 51
34 51 51
34 51 51
34 51 51
34 51 51
34 51 34
34 34 34
34 34 34
17 34 34
17 34 34
17 34 34
17 34 34
17 34 34
17 34 17
17 34 17
17 34 17
17 17 17
17 17 17
0 17 17
0 17 17
0 17 17
0 17 17
0 17 17
0 17 17
0 17 17
0 17 17
0 17 17
0 17 17
0 17 17
0 17 17
0 17 17
0 17 17
0 17 17
0 17 17
0 17 17
0 17 17
17 34 34
17 34 34
17 17 17
0 17 17
0 17 17
0 17 17
0 17 17
0 17 17
0 17 0
0 17 17
0 0 0
0 17 0
0 17 0
0 17 17
0 0 0
0 0 17
0 17 17
0 17 17
0 17 17
0 17 17
0 17 17
0 17 17
0 17 17
0 0 0
0 0 0
0 0 0
0 17 0
0 17 0
0 17 0
0 17 0
0 17 0
0 17 0
0 17 0
0 17 0
0 17 0
0 17 0
0 17 17
0 17 0
0 17 0
0 17 0
0 17 0
0 17 17
204 221 204
204 221 204
204 221 204
204 221 204
221 221 204
221 221 204
221 221 204
221 221 204
221 221 204
221 221 204
221 221 204
221 221 204
221 221 204
221 221 204
221 221 204
221 221 204
204 221 204
221 221 204
221 221 204
204 221 204
221 221 204
221 221 204
221 221 204
221 221 204
221 221 204
221 221 204
221 221 204
221 221 204
221 221 204
221 221 204
221 221 204
221 221 221
221 221 221
221 221 221
221 221 221
221 221 204
221 221 221
221 221 221
221 221 221
221 221 221
221 221 221
221 221 221
221 221 221
221 221 221
221 221 221
221 221 221
221 221 221
221 221 221
221 221 221
221 221 221
221 221 221
221 221 221
221 221 221
221 221 221
221 221 221
221 221 221
221 221 221
221 238 221
221 238 221
221 238 221
221 238 221
221 238 221
221 238 221
221 238 221
221 238 221
221 238 221
221 238 221
221 238 221
221 238 221
221 238 221
221 238 221
221 238 221
221 238 221
221 238 221
238 238 221
238 238 221
238 238 221
238 238 221
238 238 221
238 238 221
238 238 221
238 238 221
238 238 221
238 238 221
238 238 221
238 238 221
238 238 238
238 238 238
238 238 238
238 238 221
238 238 221
221 238 221
238 238 221
238 238 238
204 204 187
119 136 102
68 85 34
68 85 34
68 102 34
68 102 34
68 102 34
51 85 34
51 85 34
51 85 34
68 85 34
68 85 34
68 85 34
68 85 34
68 85 34
68 85 34
51 85 34
68 85 34
51 85 34
51 85 34
51 85 34
51 85 34
51 85 34
51 85 34
51 85 34
51 85 34
68 102 34
85 119 68
136 153 136
187 187 187
221 221 204
221 221 221
221 238 221
221 238 238
238 238 238
238 238 238
238 238 221
221 221 221
221 221 221
221 221 221
221 221 221
221 221 204
221 204 204
204 204 204
204 204 187
204 204 187
204 204 187
204 204 187
187 187 187
187 187 170
187 187 170
187 187 170
170 170 153
170 170 153
170 170 153
170 170 153
170 170 153
170 170 153
170 170 153
153 153 136
153 153 136
153 153 136
153 153 119
153 136 119
136 136 119
136 119 102
119 119 102
119 119 85
119 102 85
136 119 102
136 136 119
136 136 119
153 136 119
153 153 136
153 153 136
170 153 153
153 153 136
153 136 119
136 136 119
136 119 102
136 119 102
136 136 119
153 153 136
170 153 153
170 170 153
187 170 170
187 170 153
170 170 153
170 170 153
187 187 153
187 187 170
187 187 170
204 187 170
187 187 170
204 187 170
204 187 187
204 204 204
221 221 221
221 221 221
221 221 221
221 238 221
221 238 221
238 238 238
238 255 238
238 238 238
221 221 221
204 204 204
204 204 187
204 204 187
102 119 85
51 68 34
51 85 34
51 85 34
51 85 34
51 85 34
51 85 34
51 68 34
68 85 51
68 85 51
68 85 68
85 102 68
85 102 68
68 85 68
68 85 68
85 85 68
85 102 85
85 102 85
85 102 85
85 85 85
85 85 85
68 85 68
85 85 68
85 102 85
85 102 102
85 102 85
85 102 85
85 102 85
85 102 85
85 102 85
85 102 85
85 102 85
85 102 85
85 85 85
85 85 85
68 85 68
68 85 68
68 85 68
85 85 85
85 85 85
85 85 85
85 85 85
85 85 85
68 85 85
68 85 85
68 85 85
68 85 85
68 68 68
68 68 68
51 68 51
68 68 68
68 68 68
51 68 68
51 68 68
51 68 68
51 68 68
51 68 68
51 68 68
51 68 51
51 51 51
34 51 51
34 51 34
34 51 34
34 51 34
34 51 34
34 51 51
34 51 34
34 51 34
17 34 34
17 34 34
17 34 34
17 34 34
17 34 34
17 34 34
34 51 34
51 68 68
51 68 68
34 51 51
17 34 34
17 34 34
0 17 17
0 17 17
0 17 17
0 17 17
0 17 17
0 17 17
0 17 0
0 17 0
0 17 17
0 17 0
0 17 0
0 17 0
0 17 0
0 17 17
0 17 17
0 17 17
0 17 17
0 17 0
0 0 0
0 0 0
0 17 17
0 17 0
0 0 0
0 17 0
0 17 0
0 17 17
0 17 17
0 17 17
0 17 17
0 17 17
0 17 0
0 17 0
0 17 0
0 17 17
0 17 17
0 17 0
0 17 17
221 221 204
221 221 204
221 221 204
221 221 204
221 221 204
221 221 204
221 221 204
221 221 204
221 221 204
221 221 204
221 221 204
204 221 204
204 221 204
221 221 204
221 221 204
221 221 204
221 221 204
221 221 204
221 221 204
221 221 204
221 221 204
221 221 204
221 221 204
221 221 204
221 221 204
221 221 204
221 221 204
221 221 204
221 221 204
221 221 204
221 221 204
221 221 204
221 221 221
221 221 204
221 221 204
221 221 221
221 221 221
221 221 221
221 221 221
221 221 221
221 221 221
221 221 221
221 221 221
221 221 221
221 221 221
221 221 221
221 221 221
221 221 221
221 221 221
221 221 221
221 221 221
221 221 221
221 221 221
221 221 221
221 221 221
221 221 221
221 221 221
221 238 221
221 238 221
221 238 221
221 238 221
221 238 221
221 238 221
221 238 221
221 238 221
221 238 221
221 238 221
221 238 221
221 238 221
221 238 221
221 238 221
221 238 221
221 238 221
221 238 221
221 238 221
221 238 221
221 238 221
238 238 221
238 238 221
238 238 221
238 238 221
238 238 221
238 238 221
238 238 221
238 238 221
238 238 221
238 238 238
238 238 221
238 238 221
238 238 221
238 238 221
238 238 221
238 238 221
238 238 238
221 238 221
153 170 153
85 102 51
68 102 34
68 102 34
68 102 34
68 102 34
68 85 34
68 85 34
68 102 34
68 102 34
68 102 34
68 85 34
68 85 34
68 85 34
68 85 34
68 85 34
68 102 34
68 102 34
68 85 34
68 85 34
68 85 34
68 85 34
51 85 34
51 85 34
51 85 34
68 102 34
85 119 68
119 136 102
153 170 153
187 204 187
221 221 221
238 238 238
238 238 238
238 238 238
238 238 238
238 238 238
238 238 238
238 238 221
221 221 221
221 221 204
221 221 204
221 221 204
204 204 204
204 204 187
204 204 187
204 204 187
204 204 187
204 204 187
187 187 170
187 187 170
187 187 170
187 187 170
170 170 153
170 170 153
170 170 153
170 170 153
170 170 153
170 170 153
153 153 136
153 153 136
170 153 136
153 153 136
153 153 136
153 136 119
136 136 102
136 119 102
119 119 85
119 119 102
136 136 119
153 136 119
153 153 136
153 153 136
153 153 136
170 153 153
170 170 153
170 153 153
153 153 136
136 136 119
136 136 119
153 136 119
153 153 136
170 153 136
170 170 153
187 170 170
187 187 170
187 170 170
170 170 153
187 170 170
187 187 170
187 187 170
204 204 170
204 187 170
187 187 170
187 187 170
204 187 187
204 204 204
221 221 204
221 221 204
221 221 221
238 238 221
238 238 238
238 238 238
238 255 238
238 238 238
221 238 221
221 238 221
221 238 221
170 187 170
68 85 51
51 68 17
51 68 17
51 68 17
51 68 17
51 68 17
51 68 17
51 68 17
51 68 17
51 68 34
51 68 34
51 85 34
68 85 51
51 85 34
51 85 34
51 85 34
51 85 51
51 85 51
68 85 51
68 85 68
68 85 51
68 85 51
68 85 51
68 85 51
68 85 51
68 85 51
68 85 51
68 85 51
68 85 51
68 85 68
68 85 68
68 85 68
68 85 68
68 85 51
68 85 51
51 85 51
51 68 51
68 85 51
68 85 51
68 85 68
68 85 68
85 102 68
85 102 68
85 102 85
85 102 85
85 102 85
85 102 85
85 102 68
68 85 68
68 85 68
85 102 68
85 102 85
85 102 85
85 102 85
85 102 85
85 102 85
85 102 85
85 102 85
85 102 85
85 85 85
68 85 85
68 85 68
68 85 68
68 85 68
68 85 85
85 85 85
85 85 85
68 85 85
68 68 68
68 68 68
68 68 68
68 68 68
68 68 68
68 68 68
68 85 85
85 102 102
102 102 102
85 85 85
51 68 68
51 68 68
34 51 51
34 51 51
34 51 51
34 51 51
34 51 51
34 51 51
34 34 34
34 34 34
34 34 34
17 34 34
17 34 34
17 34 34
17 34 17
17 34 17
17 17 17
0 17 17
17 34 34
17 17 17
0 17 17
0 17 17
0 17 17
0 17 17
0 17 17
0 17 0
0 17 0
0 17 0
0 17 0
0 17 0
0 17 0
0 17 0
0 17 0
0 17 0
0 17 0
0 17 17
0 17 17
0 17 17
0 17 0
221 221 204
221 221 204
221 221 204
221 221 204
221 221 204
221 221 204
221 221 204
221 221 204
221 221 204
221 221 204
221 221 204
221 221 204
221 221 204
221 221 204
221 221 204
221 221 204
221 221 204
221 221 204
221 221 204
221 221 204
221 221 204
221 221 204
221 221 204
221 221 204
221 221 204
221 221 204
221 221 204
221 221 204
221 221 204
221 221 204
221 221 204
221 221 204
221 221 221
221 221 221
221 221 221
221 221 221
221 221 221
221 221 221
221 221 221
221 221 221
221 221 221
221 221 221
221 221 221
221 221 221
221 221 221
221 221 221
221 221 221
221 221 221
221 221 221
221 221 221
221 221 221
221 221 221
221 221 221
221 221 221
221 221 221
221 221 221
221 221 221
221 221 221
221 221 221
221 238 221
221 238 221
221 238 221
221 238 221
221 238 221
221 238 221
221 238 221
221 238 221
221 238 221
221 238 221
221 238 221
221 238 221
221 238 221
221 238 221
221 238 221
221 238 221
238 238 221
238 238 221
238 238 221
238 238 221
238 238 221
238 238 221
238 238 221
238 238 221
238 238 221
238 238 221
238 238 221
238 238 221
238 238 221
238 238 221
221 238 221
221 238 221
221 238 221
238 238 238
238 238 238
238 238 238
187 204 187
102 136 102
68 102 34
68 102 34
68 102 34
68 102 34
68 102 34
68 102 34
68 102 34
68 102 34
68 102 34
51 85 34
68 102 34
68 102 34
68 85 34
68 102 34
68 102 34
68 102 34
68 102 34
68 102 34
68 85 34
68 85 34
68 85 34
51 85 34
68 85 34
68 102 34
85 119 68
119 136 119
153 170 153
187 204 187
221 238 221
238 238 221
238 238 221
238 238 221
221 221 221
221 221 221
221 221 221
238 238 221
221 221 221
221 221 221
221 221 204
204 221 204
204 204 204
204 204 187
204 204 187
204 204 187
204 204 187
204 204 187
187 187 170
187 187 170
187 187 170
187 187 170
170 170 153
170 153 136
153 153 136
170 170 153
170 170 153
170 170 153
153 153 136
153 153 136
153 136 119
153 136 119
153 136 119
153 136 119
136 136 119
136 136 119
136 119 102
136 119 102
153 136 119
153 153 136
153 153 136
153 153 136
170 153 153
170 170 153
170 170 153
153 153 153
153 153 136
153 136 119
153 153 136
170 170 153
170 170 153
170 170 153
170 170 153
170 170 153
170 170 153
170 170 153
187 170 153
187 170 153
187 187 170
187 187 170
187 187 170
204 187 170
187 187 170
187 187 170
204 187 187
204 204 187
204 204 187
221 221 204
221 221 221
221 238 221
238 238 238
238 238 238
238 238 238
238 238 238
238 238 238
238 238 238
204 204 187
119 136 102
51 85 34
51 68 17
51 68 17
51 68 17
51 68 17
51 68 17
51 68 17
51 68 17
51 68 17
51 68 17
34 68 17
51 68 17
51 68 34
51 68 17
51 68 17
51 68 17
51 68 17
51 68 17
51 85 34
51 85 34
51 85 34
51 85 34
51 68 34
51 68 34
51 68 34
51 68 34
51 68 34
51 68 34
51 68 34
68 85 51
68 85 68
51 85 51
51 68 34
51 68 34
51 68 34
51 68 34
51 68 34
51 68 34
51 68 34
51 68 34
51 68 34
51 85 34
51 85 34
51 68 34
68 85 51
68 85 51
51 85 34
51 85 34
51 68 34
51 68 34
51 85 34
68 85 51
68 85 51
68 85 51
68 85 51
68 85 68
68 85 68
68 85 68
68 102 68
68 85 68
68 85 51
68 85 51
68 85 68
68 85 68
68 85 68
85 102 85
85 102 85
85 102 85
85 85 68
85 102 85
85 102 85
85 102 85
85 102 85
85 102 85
85 102 85
85 102 85
102 102 102
102 102 102
85 102 102
85 102 102
85 102 85
85 85 85
85 102 85
85 85 85
85 85 85
85 85 85
68 85 85
68 85 85
68 85 85
68 85 85
68 85 85
68 68 68
68 68 68
68 68 68
68 68 68
68 68 68
68 85 85
51 68 68
34 51 51
34 51 51
34 51 51
34 51 51
34 51 51
34 51 51
34 51 34
34 51 34
34 51 34
34 51 34
34 34 34
17 34 34
17 34 34
17 34 34
17 34 17
17 34 17
17 17 17
17 17 17
0 17 17
221 221 204
204 221 204
221 221 204
221 221 204
221 221 204
221 221 204
221 221 204
221 221 204
221 221 204
221 221 204
221 221 204
221 221 204
221 221 204
221 221 204
221 221 204
221 221 204
221 221 204
221 221 204
221 221 204
221 221 204
221 221 204
221 221 204
221 221 204
221 221 204
221 221 204
221 221 204
221 221 204
221 221 204
221 221 204
221 221 221
221 221 204
221 221 204
221 221 221
221 221 204
221 221 221
221 221 221
221 221 221
221 221 221
221 221 221
221 221 221
221 221 221
221 221 221
221 221 221
221 221 221
221 221 221
221 221 221
221 221 221
221 221 221
221 221 221
221 221 221
221 221 221
221 221 221
221 221 221
221 221 221
221 221 221
221 221 221
221 221 221
221 221 221
221 238 221
221 238 221
221 238 221
221 238 221
221 238 221
221 238 221
221 238 221
221 238 221
221 238 221
221 238 221
221 238 221
221 238 221
221 238 221
221 238 221
221 238 221
221 238 221
221 238 221
238 238 221
238 238 221
238 238 221
238 238 221
238 238 221
238 238 221
238 238 221
238 238 221
238 238 221
238 238 221
238 238 221
238 238 221
238 238 221
238 238 221
221 238 221
238 238 221
238 238 238
238 238 238
238 238 238
238 238 238
221 221 221
153 170 136
68 102 51
68 102 34
68 102 34
68 102 34
68 102 34
68 102 34
68 102 34
51 102 34
51 102 34
51 85 34
51 102 34
51 85 34
51 85 17
68 102 34
68 102 34
68 102 34
68 102 34
68 102 34
68 102 34
68 102 34
68 102 34
68 85 34
68 102 34
68 102 51
102 119 85
153 170 136
187 187 187
221 238 221
238 238 221
238 238 221
221 238 221
221 238 221
221 221 204
221 221 204
221 221 221
238 238 221
221 221 221
221 221 204
204 221 204
204 204 204
204 204 187
204 204 187
204 204 187
204 204 187
204 204 187
204 204 187
204 204 187
204 187 187
187 187 170
187 187 170
170 170 153
170 170 153
170 170 136
170 170 153
170 170 170
170 170 153
170 170 153
153 153 136
153 153 119
153 136 119
153 136 119
136 136 119
136 136 119
153 136 119
136 136 119
136 136 119
153 153 119
153 153 136
153 153 136
153 153 136
170 170 153
170 170 153
170 170 153
153 153 153
153 153 136
153 153 136
170 153 153
170 170 153
187 170 153
187 170 153
170 170 153
170 170 153
170 170 153
187 170 153
187 170 153
170 170 153
187 187 170
187 187 170
187 187 170
187 187 170
187 187 170
187 187 170
204 204 187
204 204 187
204 204 187
204 204 204
221 221 204
221 238 221
238 238 221
238 238 238
238 238 238
238 255 238
238 238 238
221 221 221
170 170 153
85 102 68
51 85 34
51 85 34
51 85 34
51 85 34
51 68 17
51 68 34
51 68 17
51 85 34
51 85 34
51 85 34
51 68 17
51 85 17
51 85 17
51 68 17
51 68 17
51 68 17
51 68 17
51 68 17
51 68 17
34 68 17
51 68 17
34 68 17
34 68 17
51 68 17
68 85 34
68 85 51
68 85 51
51 68 34
68 85 51
102 102 85
102 102 85
68 85 51
51 68 34
34 68 17
34 68 17
34 68 17
51 68 17
34 68 17
34 68 17
51 68 17
34 68 17
51 68 34
51 68 17
34 68 17
34 68 17
51 68 34
51 68 17
51 68 17
51 68 17
51 68 17
51 68 17
51 68 17
51 68 17
51 68 17
51 85 34
51 85 34
51 85 34
51 68 34
51 85 34
51 85 34
51 68 17
51 68 17
51 68 34
51 68 34
68 85 34
68 85 51
68 85 51
68 85 51
68 85 51
68 85 51
68 85 68
68 85 68
68 85 51
68 85 51
68 85 51
68 85 68
85 102 68
85 102 68
85 102 68
85 102 85
85 102 85
85 102 68
85 102 85
85 102 85
102 102 85
85 102 85
102 102 102
102 119 102
102 119 102
102 119 119
102 119 102
102 119 102
102 119 119
102 119 119
102 119 102
102 102 102
102 119 102
85 102 102
85 102 85
85 102 85
85 102 85
85 102 102
85 102 102
85 102 102
85 102 85
85 85 85
85 85 85
85 85 85
85 85 85
68 85 85
68 85 85
68 85 85
68 85 85
68 85 85
68 68 68
68 68 68
51 68 68
221 221 204
221 221 204
221 221 204
221 221 204
221 221 204
221 221 204
221 221 204
221 221 204
221 221 204
221 221 204
221 221 204
221 221 204
221 221 204
221 221 204
221 221 204
221 221 204
221 221 204
221 221 204
221 221 204
221 221 204
221 221 204
221 221 204
221 221 204
221 221 204
221 221 204
221 221 204
221 221 204
221 221 204
221 221 221
221 221 221
221 221 204
221 221 204
221 221 204
221 221 221
221 221 204
221 221 221
221 221 204
221 221 221
221 221 221
221 221 221
221 221 221
221 221 221
221 221 221
221 221 221
221 221 221
221 221 221
221 221 221
221 221 221
221 221 221
221 221 221
221 221 221
221 221 221
221 221 221
221 221 221
221 238 221
221 238 221
221 221 221
221 238 221
221 238 221
221 238 221
221 238 221
221 238 221
221 238 221
221 238 221
221 238 221
221 238 221
221 238 221
221 238 221
221 238 221
221 238 221
221 238 221
221 238 221
221 238 221
221 238 221
221 238 221
238 238 221
238 238 221
238 238 221
238 238 221
238 238 221
238 238 221
238 238 221
238 238 221
238 238 221
238 238 221
238 238 221
238 238 221
238 238 221
238 238 221
238 238 221
238 238 238
238 238 238
238 238 238
238 238 238
238 238 238
238 238 238
187 204 187
102 136 85
68 102 34
68 102 34
68 102 34
68 102 34
68 102 34
51 102 34
51 102 34
51 85 34
68 102 34
51 102 34
51 102 34
51 102 17
51 85 34
68 102 34
68 102 34
68 85 34
68 85 34
68 102 34
68 102 34
68 102 34
51 85 34
68 102 34
85 119 68
136 153 119
170 170 153
204 204 204
221 221 221
221 238 221
221 221 204
221 221 221
221 238 221
221 221 221
221 221 221
238 238 221
238 238 221
221 221 204
221 221 204
221 221 204
204 204 187
204 204 187
204 204 187
204 204 187
204 204 187
204 204 187
204 204 187
204 204 187
204 204 187
187 187 170
170 170 153
187 187 170
187 187 170
170 170 153
170 170 153
170 170 170
170 170 170
170 170 153
153 153 136
153 153 136
153 153 136
170 170 153
170 170 153
170 170 153
170 170 153
153 153 136
153 153 119
153 153 136
153 153 136
153 153 136
153 153 136
170 153 153
170 170 153
170 170 153
170 153 153
170 170 153
170 170 153
170 170 153
170 170 153
170 170 153
170 170 153
170 170 153
170 170 153
170 170 153
187 170 153
187 170 153
187 170 153
187 187 170
187 187 170
187 187 170
187 187 170
187 187 170
204 187 170
204 204 187
204 204 187
204 204 187
204 204 204
221 221 204
221 221 221
221 238 221
238 238 221
238 238 238
238 238 238
238 238 238
204 221 204
119 136 119
68 102 68
68 85 51
68 85 34
68 102 51
68 102 51
51 85 34
51 85 34
51 85 34
51 85 34
51 85 34
51 85 34
51 85 17
51 85 17
51 85 17
51 85 17
51 85 17
51 85 34
51 85 34
51 85 17
51 85 17
51 85 17
51 85 17
51 68 17
51 68 17
51 85 34
85 102 68
102 102 85
85 102 68
68 85 51
68 85 51
85 102 68
102 102 85
85 102 68
51 85 34
51 68 17
51 68 17
51 68 17
51 68 17
51 68 17
51 68 17
51 85 34
51 68 17
51 68 34
51 68 34
51 68 17
34 68 17
51 68 17
34 68 17
34 68 17
34 68 17
34 68 17
51 68 17
34 68 17
51 68 17
51 85 17
51 85 17
51 68 17
51 85 34
51 68 17
51 85 34
51 68 17
34 68 17
34 68 17
34 68 17
51 68 17
51 68 17
51 68 17
51 68 17
51 68 17
51 68 17
51 85 34
51 85 34
51 85 34
51 85 34
51 68 34
51 68 34
51 85 34
51 85 34
51 85 34
51 85 34
68 85 34
68 85 34
51 85 34
68 85 51
68 85 51
68 85 51
68 85 51
68 85 51
68 102 68
85 102 68
85 102 85
85 102 68
85 102 68
85 102 85
85 102 85
85 102 85
102 102 85
85 102 85
85 102 85
85 102 68
85 102 68
85 102 68
85 102 85
102 119 102
102 119 102
102 119 102
85 102 85
85 102 85
102 102 85
102 119 102
102 102 102
102 119 102
102 119 119
102 119 102
102 119 102
102 102 102
85 102 102
85 102 102
221 221 204
221 221 204
221 221 204
221 221 204
221 221 204
221 221 204
221 221 204
204 221 204
221 221 204
204 221 204
221 221 204
221 221 204
221 221 204
221 221 204
221 221 204
221 221 204
221 221 204
221 221 204
221 221 204
221 221 204
221 221 204
204 221 204
221 221 204
221 221 204
221 221 204
221 221 204
221 221 204
221 221 204
221 221 221
221 221 221
221 221 221
221 221 221
221 221 204
221 221 221
221 221 221
221 221 221
221 221 221
221 221 221
221 221 221
221 221 221
221 221 221
221 221 221
221 221 221
221 221 221
221 221 221
221 221 221
221 221 221
221 221 221
221 221 221
221 221 221
221 221 221
221 221 221
221 221 221
221 238 221
221 238 221
221 238 221
221 221 221
221 238 221
221 238 221
221 238 221
221 238 221
221 238 221
221 238 221
221 238 221
221 238 221
221 238 221
221 238 221
221 238 221
221 238 221
221 238 221
221 238 221
221 238 221
221 238 221
221 238 221
221 238 221
221 238 221
238 238 221
221 238 221
238 238 221
238 238 221
238 238 221
238 238 221
238 238 221
238 238 221
238 238 221
238 238 221
238 238 221
238 238 221
238 238 221
238 238 238
238 238 238
238 238 238
238 238 238
238 238 238
238 238 238
238 238 238
221 221 221
153 170 136
85 102 51
68 102 34
68 102 34
68 102 34
68 102 34
51 102 34
51 85 34
51 102 34
51 102 34
51 102 34
68 102 34
51 102 34
68 102 34
68 102 34
51 102 34
51 85 34
51 85 34
68 102 34
68 102 34
68 102 34
68 102 34
85 119 68
119 136 102
187 187 170
170 187 170
170 187 170
221 221 221
221 221 204
204 221 204
221 221 204
221 221 204
221 221 204
221 221 204
221 238 221
221 221 221
221 221 204
221 221 204
204 204 187
204 204 187
204 204 187
204 204 187
204 204 187
204 204 187
204 204 187
204 204 187
204 204 187
204 204 187
187 187 170
170 170 153
187 187 170
187 187 170
187 187 170
170 170 153
170 170 170
170 170 170
170 170 153
153 153 136
153 153 136
153 153 136
170 153 136
170 170 153
170 170 153
153 153 153
153 153 136
153 153 136
153 153 136
153 153 136
153 153 136
170 153 153
170 170 153
170 170 153
153 153 136
170 153 153
170 170 153
170 170 153
170 170 153
170 170 153
170 170 153
170 170 153
187 170 153
187 170 153
187 170 153
187 170 170
187 187 170
187 187 153
187 187 170
187 187 170
187 187 170
187 187 170
187 187 170
204 204 170
204 204 187
204 204 187
204 204 204
221 221 204
221 221 204
221 221 204
221 221 221
221 238 221
238 238 221
238 238 238
221 238 221
187 204 187
136 153 136
102 119 85
85 102 68
85 119 68
102 119 85
102 119 85
68 85 51
68 85 34
51 85 34
51 85 34
51 85 34
51 85 34
51 85 34
51 85 34
51 85 17
51 85 17
51 85 17
51 85 17
68 85 34
51 85 17
51 85 17
51 85 17
51 85 17
51 85 17
51 85 17
51 85 17
68 85 34
85 102 51
85 102 68
85 102 85
85 102 68
68 85 51
68 85 51
51 85 34
51 85 34
51 85 34
51 85 34
51 85 34
51 68 17
51 68 17
51 85 34
51 85 34
51 85 17
51 85 34
51 85 34
51 85 34
51 85 17
51 68 17
51 68 17
51 68 17
51 68 17
51 68 17
34 68 17
51 68 17
51 85 17
51 85 17
51 85 17
51 85 17
51 85 17
51 85 17
51 85 34
51 68 17
34 68 17
34 68 17
34 68 17
51 68 17
51 68 17
51 68 17
51 68 17
34 68 17
34 68 17
34 68 17
51 68 17
51 68 17
34 68 17
34 68 17
34 68 17
51 68 17
51 68 17
51 68 17
51 68 17
51 68 17
51 68 17
51 68 17
51 68 17
51 68 34
51 68 34
51 85 34
51 85 34
51 85 34
51 85 34
68 85 34
68 85 34
68 85 34
68 85 34
68 85 34
68 85 51
68 85 51
68 85 51
68 85 34
51 85 34
51 85 34
68 85 51
68 85 51
85 102 68
68 85 51
68 85 51
68 85 51
68 85 34
68 85 51
68 85 68
85 85 68
85 102 68
85 102 85
85 102 85
85 102 68
85 102 68
85 102 68
85 102 68
221 221 204
204 221 204
221 221 204
221 221 204
221 221 204
221 221 204
221 221 204
221 221 204
221 221 204
221 221 204
221 221 204
221 221 204
221 221 204
221 221 204
221 221 204
221 221 204
221 221 204
221 221 204
221 221 204
221 221 204
221 221 204
221 221 204
221 221 204
221 221 204
221 221 204
221 221 204
221 221 204
221 221 204
221 221 204
221 221 221
221 221 221
221 221 221
221 221 221
221 221 221
221 221 204
221 221 221
221 221 221
221 221 204
221 221 221
221 221 221
221 221 221
221 221 221
221 221 221
221 221 221
221 221 221
221 221 221
221 221 221
221 221 221
221 221 221
221 221 221
221 221 221
221 221 221
221 221 221
221 221 221
221 221 221
221 221 221
221 221 221
221 238 221
221 221 221
221 238 221
221 238 221
221 238 221
221 238 221
221 238 221
238 238 221
221 238 221
221 238 221
221 238 221
221 238 221
221 238 221
221 238 221
221 238 221
221 238 221
221 238 221
221 238 221
221 238 221
238 238 221
221 238 221
238 238 221
238 238 221
238 238 221
238 238 221
238 238 221
238 238 221
238 238 221
238 238 221
238 238 221
238 238 221
238 238 238
238 238 221
238 238 221
238 238 221
238 238 238
238 238 238
238 238 238
238 238 238
238 238 238
187 204 187
102 136 85
68 102 34
68 102 34
68 102 34
68 102 34
51 102 34
51 85 34
51 85 34
51 102 34
68 102 34
51 102 34
51 102 34
51 102 34
51 102 34
68 102 34
68 102 34
68 102 34
68 102 34
68 102 34
68 102 34
68 102 51
102 136 85
136 153 136
204 204 204
221 221 221
221 221 221
221 221 221
187 204 187
221 221 204
221 221 221
221 221 204
204 204 204
221 221 204
221 221 221
221 221 204
221 221 204
221 221 204
204 204 187
204 204 187
187 204 187
187 187 187
187 204 187
187 187 187
204 204 187
187 204 187
187 187 170
187 187 187
187 187 170
170 170 153
187 187 170
204 204 187
187 187 170
187 187 170
170 170 170
187 187 170
170 170 170
170 170 153
170 170 136
153 153 136
153 136 119
153 136 119
136 136 119
153 136 119
153 153 119
153 153 119
153 153 136
153 153 136
153 153 153
170 170 153
170 170 153
153 153 136
153 153 136
170 170 153
170 187 170
187 187 170
170 170 153
170 170 153
170 170 153
170 170 153
187 170 153
187 170 170
187 187 170
187 187 170
187 187 170
187 187 170
187 187 170
187 187 170
187 187 170
187 187 170
187 187 170
204 204 187
204 204 187
204 204 204
221 221 204
221 221 204
221 221 204
221 221 204
221 221 221
221 238 221
221 238 221
221 238 221
221 238 221
204 221 204
153 170 153
136 153 119
119 136 119
119 153 119
153 170 153
102 136 102
85 119 68
68 102 51
68 85 34
51 85 34
51 85 34
68 102 34
68 102 34
51 85 34
51 85 17
51 85 17
51 85 34
68 85 34
68 102 34
68 85 34
51 85 17
51 85 34
51 85 17
51 85 17
51 85 17
51 85 17
68 85 34
51 85 34
51 85 34
85 102 68
102 102 85
85 102 68
68 102 51
51 85 34
51 85 34
51 85 34
68 85 34
51 85 34
51 85 17
51 85 17
51 85 34
51 85 34
51 85 34
51 85 17
51 85 34
51 85 34
51 85 34
51 85 17
51 85 17
51 85 17
51 85 17
51 85 34
51 85 17
51 85 17
51 85 17
51 85 17
51 85 17
51 85 34
51 85 17
51 85 34
51 85 34
51 85 17
34 68 17
34 68 17
51 68 17
51 85 34
51 68 17
51 85 17
51 85 17
51 68 17
34 68 17
51 68 17
51 68 17
51 85 17
51 68 17
34 68 17
51 68 17
51 85 34
51 85 17
51 68 17
51 85 17
51 85 17
51 85 17
51 68 17
51 68 17
51 68 17
51 68 17
51 68 17
51 85 17
51 68 17
51 68 17
51 68 17
51 68 17
51 68 17
51 68 17
51 68 17
51 68 17
51 85 34
51 85 34
51 85 17
51 85 17
51 68 17
51 68 17
51 85 34
51 85 17
51 85 34
51 68 17
51 68 17
51 68 17
51 68 17
51 68 34
68 85 34
68 85 34
68 85 34
68 85 51
68 85 51
68 85 51
68 85 34
51 68 34
221 221 204
204 221 204
221 221 204
221 221 204
221 221 204
221 221 204
221 221 204
221 221 204
221 221 204
221 221 204
221 221 204
221 221 204
221 221 204
221 221 204
221 221 204
221 221 204
221 221 204
221 221 204
221 221 204
221 221 204
221 221 204
221 221 204
221 221 204
221 221 204
221 221 204
221 221 204
221 221 204
221 221 204
221 221 204
221 221 221
221 221 204
221 221 204
221 221 204
221 221 204
221 221 221
221 221 221
221 221 221
221 221 221
221 221 221
221 221 221
221 221 221
221 221 221
221 221 221
221 221 221
221 221 221
221 221 221
221 221 221
221 221 221
221 221 221
221 221 221
221 221 221
221 221 221
221 221 221
221 221 221
221 221 221
221 221 221
221 221 221
221 221 221
221 221 221
221 238 221
221 238 221
221 238 221
221 238 221
221 238 221
238 238 221
238 238 221
221 238 221
221 238 221
221 238 221
221 238 221
221 238 221
221 238 221
221 238 221
221 238 221
238 238 221
238 238 221
221 238 221
238 238 221
238 238 221
238 238 221
238 238 221
238 238 221
238 238 221
238 238 221
238 238 221
238 238 221
238 238 221
238 238 221
238 238 221
238 238 221
238 238 221
238 238 221
238 238 221
238 238 238
238 238 238
238 238 238
238 238 238
221 221 204
153 170 136
68 102 51
68 102 34
68 102 34
68 102 34
68 102 34
68 102 34
51 85 34
51 85 34
51 102 34
68 102 34
68 102 34
68 102 34
68 102 34
68 102 34
68 102 34
51 102 34
51 102 34
68 102 34
68 102 51
85 119 68
119 153 102
153 170 136
204 204 204
204 221 204
238 238 238
204 204 204
187 187 187
221 221 221
221 221 221
221 221 204
204 204 204
221 221 204
221 221 204
221 221 204
221 221 204
221 221 204
204 204 187
204 204 187
187 204 187
187 187 187
187 187 187
187 187 170
204 204 187
187 187 187
187 187 170
187 187 187
187 187 170
187 187 170
187 187 170
187 187 170
187 187 170
170 170 153
170 170 153
187 187 170
170 170 170
170 170 153
170 170 153
153 153 136
153 153 136
136 136 119
136 136 102
136 136 102
136 136 102
136 136 102
136 136 119
153 153 136
170 170 153
170 170 153
170 170 153
170 153 153
170 170 153
187 187 170
187 187 170
170 170 170
170 153 136
170 170 153
170 170 153
170 170 153
187 170 153
187 170 170
187 187 170
187 187 170
187 187 170
187 187 170
187 187 170
187 187 170
187 187 170
187 187 170
187 187 170
204 204 187
204 204 187
204 204 187
221 221 204
221 221 204
221 221 204
221 221 221
221 238 221
221 238 221
221 238 221
221 238 221
221 221 221
204 221 204
204 204 204
187 204 187
204 204 204
204 221 204
170 170 170
136 153 136
102 136 85
68 102 34
51 85 17
51 102 34
68 102 34
68 102 34
68 102 34
51 102 34
68 102 34
68 85 34
51 85 34
68 85 34
68 102 34
51 85 34
51 85 17
68 102 34
51 85 34
51 85 34
68 85 34
68 102 34
68 102 34
68 85 17
51 85 17
51 85 17
68 85 34
68 85 51
68 85 34
68 85 34
51 85 34
68 85 34
68 102 34
68 85 34
51 85 17
51 85 17
51 85 34
51 85 34
51 85 17
51 85 34
51 85 34
51 85 17
51 85 17
51 85 17
51 85 17
51 85 17
51 85 17
51 85 17
51 85 34
51 85 17
51 85 17
51 85 17
51 85 34
51 85 34
51 85 17
51 85 17
51 85 34
51 85 17
51 85 17
51 85 17
51 85 17
51 85 34
51 68 17
51 68 17
51 68 17
51 85 17
51 68 17
51 85 17
51 85 34
51 85 17
51 85 17
51 85 17
51 85 34
51 85 34
51 85 34
51 85 34
51 85 17
51 85 17
51 85 34
51 85 34
51 85 17
51 85 17
51 68 17
51 68 17
51 85 17
51 85 17
51 85 17
51 68 17
51 85 17
51 85 17
51 85 17
51 68 17
51 85 17
51 85 17
51 85 17
51 85 17
51 68 17
51 68 17
51 68 17
51 85 17
34 68 17
51 68 17
51 85 17
51 85 17
51 85 17
51 85 17
51 85 17
51 85 34
51 85 34
51 68 17
51 85 34
51 85 34
51 85 34
51 68 34
51 68 34
221 221 204
204 221 204
221 221 204
221 221 204
221 221 204
221 221 204
221 221 204
221 221 204
221 221 204
221 221 204
221 221 204
221 221 204
221 221 204
221 221 204
221 221 204
221 221 204
221 221 204
221 221 204
221 221 204
221 221 204
221 221 204
221 221 204
221 221 204
221 221 204
221 221 204
221 221 204
221 221 204
221 221 204
221 221 204
221 221 221
221 221 221
221 221 204
221 221 204
221 221 221
221 221 221
221 221 221
221 221 204
221 221 204
221 221 221
221 221 221
221 221 221
221 221 221
221 221 221
221 221 221
221 221 221
221 221 221
221 221 221
221 221 221
221 221 221
221 221 221
221 221 221
221 221 221
221 221 221
221 221 221
221 221 221
221 221 221
221 221 221
221 221 221
221 221 221
221 221 221
221 221 221
221 238 221
221 238 221
221 238 221
238 238 221
238 238 221
238 238 221
221 238 221
221 238 221
221 238 221
221 238 221
221 238 221
221 238 221
238 238 221
238 238 221
221 238 221
221 238 221
221 238 221
221 238 221
238 238 221
238 238 221
221 238 221
238 238 221
238 238 221
238 238 221
238 238 221
238 238 221
238 238 221
238 238 221
238 238 221
238 238 221
238 238 238
238 238 238
238 238 238
238 238 238
238 238 238
238 238 238
238 238 238
187 204 187
102 136 85
68 102 34
68 102 34
68 102 34
68 102 34
51 85 34
51 85 34
68 102 34
68 102 34
68 102 34
68 102 34
68 102 34
68 102 34
68 102 34
68 102 34
68 102 34
68 102 34
68 102 51
102 136 68
102 136 85
119 136 102
170 187 170
221 238 221
204 204 204
221 221 221
187 204 204
204 204 204
221 221 221
221 221 221
221 221 221
221 221 204
221 221 204
221 221 204
221 221 204
221 221 204
221 221 204
204 204 204
204 204 187
204 204 187
187 187 187
187 187 170
187 187 187
204 204 187
187 187 170
187 187 170
204 204 187
187 187 170
187 187 170
187 187 170
187 187 170
170 170 153
170 170 153
170 170 153
170 170 153
170 170 153
170 170 153
170 170 153
153 153 136
153 153 119
153 153 119
153 153 119
153 136 119
153 153 136
153 153 136
170 170 153
170 170 153
170 170 153
170 170 153
170 170 153
170 170 170
187 187 170
187 187 187
187 187 170
170 170 153
153 153 136
170 170 153
170 170 153
170 170 153
170 170 153
187 170 170
187 187 170
187 187 170
187 187 170
187 187 170
187 187 170
187 187 170
187 187 170
187 187 170
204 204 187
204 204 187
204 204 187
204 204 187
221 221 204
221 221 204
221 221 204
221 221 204
221 221 221
221 238 221
221 221 221
221 221 221
221 221 221
221 221 221
221 221 221
221 238 221
238 238 238
204 221 204
170 187 170
136 170 136
85 102 51
51 85 34
51 85 17
51 102 34
68 102 34
68 102 34
68 102 34
51 102 34
68 102 34
68 102 34
68 85 34
68 102 34
68 102 34
51 85 34
51 85 17
51 102 34
51 85 17
51 85 34
68 85 34
68 102 34
68 102 34
51 85 17
51 85 17
51 85 17
51 85 17
51 85 34
68 102 34
68 102 34
68 85 34
68 102 34
68 102 34
68 102 17
51 85 17
51 85 17
51 85 17
51 85 17
51 85 34
51 85 34
68 102 34
68 85 34
51 85 17
51 85 17
51 85 17
51 85 17
51 85 17
68 85 17
68 85 34
51 85 17
51 85 17
51 85 17
68 102 34
68 102 34
51 85 17
51 85 17
51 85 17
51 85 17
51 85 17
51 85 17
51 85 17
51 85 17
51 85 17
51 85 17
51 68 17
51 85 17
51 85 17
51 85 17
51 85 17
51 85 34
51 85 17
51 85 17
51 85 17
51 85 34
51 85 34
51 85 17
51 85 17
51 85 17
68 85 34
51 85 34
51 85 17
51 85 17
51 85 17
51 85 17
51 85 34
51 85 17
51 85 17
51 85 17
51 85 17
51 85 17
51 85 17
51 85 17
51 85 34
51 85 17
51 85 34
51 85 17
51 85 17
51 85 17
51 85 17
51 85 17
51 85 17
51 85 34
51 85 34
51 85 34
51 85 17
51 85 17
51 85 34
51 85 34
68 85 34
51 85 34
51 85 17
51 85 34
51 85 34
51 85 34
51 68 17
221 221 204
221 221 204
221 221 204
221 221 204
221 221 204
221 221 204
221 221 204
221 221 204
221 221 204
221 221 204
204 221 204
204 221 204
221 221 204
221 221 204
221 221 204
221 221 204
221 221 204
221 221 204
221 221 204
221 221 204
221 221 204
221 221 204
221 221 204
221 221 204
221 221 204
221 221 204
221 221 204
221 221 204
221 221 204
221 221 221
221 221 221
221 221 204
221 221 204
221 221 221
221 221 221
221 221 221
221 221 221
221 221 221
221 221 221
221 221 221
221 221 221
221 221 221
221 221 221
221 221 221
221 221 221
221 221 221
221 221 221
221 221 221
221 221 221
221 221 221
221 221 221
221 221 221
221 221 221
221 221 221
221 221 221
221 221 221
221 221 221
221 221 221
221 221 221
221 238 221
238 238 221
221 238 221
221 238 221
221 238 221
238 238 221
238 238 221
238 238 221
238 238 221
221 238 221
221 238 221
221 238 221
238 238 221
221 238 221
221 238 221
221 238 221
221 238 221
238 238 221
238 238 221
238 238 221
238 238 221
238 238 221
238 238 221
238 238 221
238 238 221
238 238 221
238 238 221
238 238 221
238 238 221
238 238 221
238 238 221
238 238 221
238 238 238
238 238 238
238 238 238
238 238 238
238 238 238
238 238 238
238 238 238
221 221 221
153 170 136
68 102 51
68 102 34
51 102 34
68 102 34
51 102 34
51 102 34
68 102 34
68 102 34
68 102 34
68 102 34
68 102 34
68 102 34
68 102 51
68 102 34
68 102 34
68 102 34
85 119 51
85 119 68
102 119 85
119 136 102
170 187 170
221 238 221
221 221 221
221 221 221
204 221 204
204 204 204
221 221 221
221 221 221
221 238 221
238 238 221
221 221 221
221 221 221
221 221 204
221 221 204
221 221 204
221 221 204
204 204 204
204 204 187
187 187 187
187 187 170
204 204 187
204 204 187
187 187 187
187 187 170
204 204 187
187 187 170
187 204 187
187 187 170
170 170 153
170 170 153
170 170 153
170 170 153
170 170 153
170 170 153
153 153 136
153 153 136
153 153 136
153 153 136
170 170 153
153 153 136
153 153 136
153 153 136
170 170 153
170 170 153
170 170 153
170 170 153
170 170 153
170 170 153
187 187 170
187 187 170
187 187 170
187 187 170
170 170 153
153 153 136
170 170 153
170 170 153
170 170 153
170 170 153
187 187 170
187 187 170
187 187 170
187 187 170
187 170 153
187 187 170
187 187 170
187 187 170
187 187 170
204 204 187
204 204 187
204 204 187
204 204 187
204 204 204
221 221 204
221 221 204
221 221 204
221 221 221
221 238 221
238 238 221
238 238 238
238 238 238
238 238 238
238 238 238
238 238 238
221 238 221
204 204 204
153 170 153
102 136 85
68 102 34
68 102 34
68 102 34
68 102 34
68 102 34
68 102 34
68 102 34
51 85 34
68 102 34
68 102 34
68 102 34
68 102 34
68 102 34
68 102 34
68 102 34
68 102 34
51 85 17
51 85 17
68 102 34
68 102 34
51 85 17
51 85 17
51 85 17
51 102 17
51 85 17
51 85 17
68 102 34
68 102 34
51 85 34
68 85 34
68 102 17
51 85 17
51 85 17
51 85 17
51 85 17
51 85 17
51 85 17
51 85 17
68 102 34
68 102 34
68 85 34
51 85 17
51 85 17
51 85 17
51 102 17
68 102 34
68 102 34
68 102 34
51 85 17
51 85 17
68 102 34
68 102 34
51 85 17
51 85 17
51 85 17
51 85 17
51 85 17
51 85 17
51 85 17
51 85 34
51 85 34
51 85 34
51 85 34
51 85 34
51 85 17
51 85 17
51 85 17
51 85 34
51 85 17
51 85 17
51 85 17
68 85 34
51 85 34
51 85 17
51 85 34
68 85 34
68 102 34
68 85 34
51 85 34
51 85 17
51 85 17
51 85 34
68 85 34
51 85 17
51 85 34
51 85 34
51 85 34
68 85 34
51 85 17
51 85 17
51 85 17
51 85 34
51 85 34
51 85 17
51 85 17
51 85 34
51 85 17
51 85 17
51 85 17
68 85 34
68 102 34
68 85 34
51 85 17
51 85 34
68 85 34
68 85 34
68 102 34
68 85 34
51 85 34
68 85 34
68 102 34
68 85 34
51 85 34
221 221 204
221 221 204
221 221 204
221 221 204
221 221 204
221 221 204
221 221 204
221 221 204
221 221 204
221 221 204
221 221 204
221 221 204
221 221 204
221 221 204
221 221 204
221 221 204
221 221 204
221 221 204
221 221 204
221 221 204
221 221 204
221 221 204
221 221 204
221 221 204
221 221 204
221 221 204
221 221 204
221 221 204
221 221 204
221 221 221
221 221 204
221 221 221
221 221 221
221 221 221
221 221 221
221 221 221
221 221 204
221 221 204
221 221 221
221 221 221
221 221 221
221 221 221
221 221 221
221 221 221
221 221 221
221 221 221
221 221 221
221 221 221
221 221 221
221 221 221
221 221 221
221 221 221
221 221 221
221 221 221
221 221 221
221 221 221
221 221 221
221 221 221
221 221 221
221 221 221
238 238 221
221 238 221
221 238 221
238 238 221
238 238 221
238 238 221
221 238 221
221 238 221
221 238 221
221 238 221
221 238 221
238 238 221
238 238 221
221 238 221
221 238 221
238 238 221
238 238 221
221 238 221
238 238 221
238 238 221
238 238 221
238 238 221
238 238 221
238 238 221
238 238 221
238 238 221
238 238 221
238 238 221
238 238 238
238 238 238
238 238 238
238 238 238
238 238 238
238 238 238
238 238 238
238 238 238
238 238 238
238 238 238
238 238 238
187 187 170
102 119 68
51 102 34
51 102 34
68 102 34
68 102 34
68 102 34
68 102 34
68 102 34
68 102 34
68 102 51
68 102 34
68 102 34
68 102 34
68 102 34
68 102 34
68 102 34
68 102 51
85 119 51
102 136 85
119 136 119
153 153 153
204 204 204
238 238 238
221 221 221
204 204 204
221 221 221
221 221 204
221 221 221
238 238 221
238 238 221
238 238 221
238 238 221
221 221 221
221 221 204
221 221 204
204 221 204
204 204 204
204 204 187
204 204 187
187 187 170
204 204 187
204 204 187
187 187 187
187 187 170
204 204 187
204 204 187
204 204 187
187 187 170
170 170 153
170 170 153
170 170 153
170 170 153
170 170 153
170 153 136
153 153 136
153 170 153
170 170 153
170 170 153
153 153 136
153 153 136
153 153 136
153 153 136
170 170 153
170 170 153
170 170 153
170 170 153
170 170 153
170 170 170
187 187 170
187 187 170
187 187 170
187 187 170
170 170 153
153 153 136
170 170 136
170 170 153
187 170 170
187 170 170
187 187 170
187 187 170
187 187 170
187 187 170
187 187 170
187 170 153
187 187 170
187 187 170
187 187 170
204 204 187
204 204 187
204 204 187
204 204 187
204 204 204
221 221 204
221 221 204
221 221 204
221 221 221
221 238 221
221 238 221
238 238 238
238 238 238
238 238 238
238 238 238
204 221 204
204 204 204
153 170 153
119 136 102
85 119 68
68 102 34
68 102 34
68 102 34
68 102 34
68 102 34
68 102 34
68 102 34
68 102 34
68 85 34
68 102 34
68 102 34
68 102 34
68 102 34
68 102 34
68 102 34
68 102 34
51 85 17
51 85 17
68 102 34
68 102 34
68 102 34
68 102 34
68 102 17
68 102 17
68 102 17
51 85 17
51 85 34
68 102 34
68 102 34
51 102 34
51 85 17
51 85 17
51 85 17
68 102 17
51 85 17
51 85 17
51 85 17
68 102 34
68 102 34
68 102 34
51 85 34
51 85 17
51 85 17
68 102 34
68 102 34
68 102 34
68 102 34
68 102 34
68 85 34
68 102 34
68 102 34
68 102 34
51 85 17
51 85 17
68 102 34
51 85 17
51 85 17
51 85 17
51 85 34
68 85 34
51 85 34
68 102 34
68 102 34
68 102 34
51 85 17
51 85 34
68 102 34
68 102 34
51 85 17
51 85 17
51 85 17
68 102 34
68 102 34
68 85 34
68 85 34
68 85 34
68 85 34
68 85 34
51 85 34
51 85 17
51 85 34
68 85 34
68 102 34
68 102 34
68 102 34
68 102 34
51 85 34
68 85 34
68 85 34
51 85 17
51 85 17
68 102 34
68 85 34
51 85 34
51 85 17
51 85 34
68 85 34
51 85 34
51 85 17
68 102 34
68 102 34
68 102 34
51 85 34
51 85 17
68 85 34
68 85 34
68 85 34
51 85 34
68 102 34
68 102 34
51 85 34
51 85 34
51 85 34
221 221 204
221 221 204
221 221 204
221 221 204
221 221 204
221 221 204
221 221 204
221 221 204
221 221 204
221 221 204
221 221 204
221 221 204
221 221 204
221 221 204
221 221 204
221 221 204
221 221 204
221 221 204
221 221 204
221 221 204
221 221 204
221 221 204
221 221 204
221 221 204
221 221 204
221 221 204
221 221 204
221 221 204
221 221 221
221 221 221
221 221 221
221 221 204
221 221 221
221 221 221
221 221 221
221 221 204
221 221 204
221 221 204
221 221 221
221 221 221
221 221 204
221 221 204
221 221 221
221 221 221
221 221 221
221 221 221
221 221 221
221 221 221
221 221 221
221 221 221
221 221 221
221 221 221
221 221 221
221 221 221
221 221 221
221 221 221
221 221 221
221 221 221
221 221 221
221 221 221
221 238 221
238 238 221
221 238 221
238 238 221
238 238 221
221 238 221
221 238 221
221 238 221
221 238 221
221 238 221
221 238 221
221 238 221
221 238 221
221 238 221
238 238 221
238 238 221
221 238 221
238 238 221
238 238 221
238 238 221
238 238 221
238 238 221
238 238 221
238 238 221
238 238 221
238 238 221
238 238 221
238 238 221
238 238 238
238 238 238
238 238 238
238 238 238
238 238 238
238 238 238
238 238 238
238 238 238
238 238 238
238 238 238
238 238 238
204 221 204
136 153 119
68 102 51
68 102 34
68 102 34
68 102 34
68 102 34
68 102 34
68 102 34
68 102 34
68 102 51
68 102 34
68 102 34
68 102 34
68 102 34
68 102 34
68 102 34
68 102 34
85 119 51
102 136 85
153 170 153
187 204 187
238 238 238
204 204 204
187 187 187
204 221 204
221 221 221
221 221 221
238 238 221
238 238 221
238 238 221
238 238 221
221 238 221
221 221 204
221 221 204
204 204 204
204 204 187
204 204 187
204 204 187
187 187 187
187 187 170
187 204 187
204 204 187
187 187 170
187 187 170
187 187 170
204 204 187
187 187 170
187 170 170
170 170 153
170 170 153
170 170 153
170 170 153
170 170 153
170 170 153
170 170 153
170 170 153
170 170 153
170 170 153
170 170 153
170 170 153
153 153 136
153 153 136
153 153 136
170 153 136
153 153 136
153 153 136
170 153 153
170 170 153
187 170 170
187 187 170
187 187 170
170 170 153
170 170 153
170 153 136
170 153 153
170 170 153
187 170 153
187 170 170
187 170 153
187 170 153
187 170 170
187 170 153
187 170 153
187 170 153
187 187 170
187 187 170
187 187 170
187 187 170
204 204 187
204 204 187
204 204 187
221 221 204
221 221 204
221 221 204
221 221 204
221 221 221
221 238 221
221 238 221
238 238 238
238 238 238
238 238 221
221 221 221
204 204 204
153 170 153
119 153 119
119 136 102
102 136 85
68 102 51
68 102 34
68 102 34
68 102 34
68 102 34
68 102 34
68 102 34
68 102 34
51 85 17
68 102 34
68 102 34
68 102 34
68 102 34
68 102 34
68 102 34
68 102 34
51 85 17
68 102 34
68 102 34
68 102 34
68 102 34
68 102 34
51 102 17
68 102 17
68 102 17
51 85 17
68 102 17
68 102 34
68 102 34
51 85 34
68 102 34
51 85 17
68 85 17
51 85 17
68 102 34
68 102 34
68 102 34
68 102 34
68 102 34
68 102 34
51 102 34
51 85 17
68 102 17
68 102 34
68 102 34
68 102 34
68 102 34
68 102 34
68 102 34
68 102 34
68 102 34
68 102 34
51 102 34
51 85 17
68 102 34
68 102 34
51 85 17
51 85 17
51 85 17
51 85 17
51 85 17
68 102 34
68 102 34
68 85 34
51 85 17
51 85 34
68 102 34
68 102 34
68 102 34
51 85 17
68 102 17
68 102 34
68 102 34
68 102 34
51 85 34
51 85 17
68 102 34
68 102 34
68 102 34
68 102 34
68 102 34
68 102 34
68 102 34
68 102 34
68 102 34
68 102 34
68 102 34
68 102 34
68 102 34
68 85 34
68 85 34
68 102 34
68 102 34
51 85 34
68 102 34
51 85 34
68 85 34
68 85 34
68 102 34
68 102 34
68 102 34
68 102 34
68 85 34
68 102 34
68 85 34
51 85 34
51 85 34
51 85 34
68 85 34
68 102 34
68 85 34
51 85 34
51 85 34
221 221 204
221 221 204
221 221 204
221 221 204
221 221 204
221 221 204
221 221 204
221 221 204
221 221 204
221 221 204
221 221 204
221 221 204
221 221 204
221 221 204
221 221 204
221 221 204
221 221 204
221 221 204
221 221 204
221 221 204
221 221 204
221 221 204
221 221 204
221 221 204
221 221 204
221 221 221
221 221 221
221 221 204
221 221 204
221 221 204
221 221 204
221 221 221
221 221 221
221 221 204
221 221 221
221 221 204
221 221 204
221 221 204
221 221 221
221 221 204
221 221 204
221 221 204
221 221 221
221 221 221
221 221 221
221 221 221
221 221 221
221 221 221
221 221 221
221 221 221
221 221 221
221 221 221
221 221 221
221 221 221
221 221 221
221 221 221
221 221 221
221 221 221
221 238 221
221 221 221
238 238 221
238 238 221
238 238 221
221 238 221
238 238 221
238 238 221
221 238 221
221 238 221
221 238 221
221 238 221
221 238 221
221 238 221
221 238 221
238 238 221
238 238 221
238 238 221
238 238 221
238 238 221
238 238 221
238 238 221
238 238 221
238 238 221
238 238 221
238 238 221
238 238 221
238 238 221
238 238 221
238 238 221
238 238 238
238 238 238
238 238 238
238 238 238
238 238 238
238 238 238
238 238 238
238 238 221
238 238 221
238 238 221
238 238 238
221 238 221
170 187 170
85 119 68
68 102 34
68 102 34
68 102 34
68 102 34
68 102 34
68 102 34
68 102 34
68 102 51
68 102 51
68 102 51
68 102 34
68 102 34
68 102 34
68 102 34
68 102 51
102 119 85
119 136 119
187 204 187
238 238 238
187 204 187
170 170 170
187 204 187
221 221 204
221 221 221
238 238 221
238 238 221
221 238 221
238 238 221
221 221 221
221 221 204
204 204 204
204 204 187
204 204 187
204 204 187
204 204 187
204 187 187
187 187 170
187 187 170
187 187 170
187 187 187
187 187 170
187 187 170
187 187 170
187 204 187
187 187 170
187 187 170
170 170 153
170 170 153
170 170 170
170 170 153
170 170 153
170 170 153
170 170 153
170 170 153
170 170 170
187 187 170
170 170 170
170 170 153
153 153 136
153 153 136
153 153 136
153 136 119
153 153 119
170 153 136
170 170 153
170 170 153
187 170 170
187 170 170
170 170 153
170 170 153
170 170 153
170 170 153
170 170 153
170 170 153
187 170 153
187 170 153
187 170 153
187 170 153
187 170 153
187 170 153
187 170 153
187 170 153
187 187 170
204 204 187
204 204 187
187 187 187
204 204 187
204 204 187
204 204 204
221 221 204
221 221 204
221 221 204
221 221 204
221 221 221
221 238 221
238 238 238
238 238 238
238 238 238
238 238 221
221 238 221
221 221 221
204 221 204
187 187 187
153 170 136
119 136 119
85 119 68
68 102 34
68 102 34
68 102 34
68 102 34
68 102 34
68 102 34
68 102 34
68 85 17
68 102 34
68 102 34
68 102 34
68 102 34
68 102 34
68 102 34
68 102 34
68 102 17
68 102 34
68 102 34
68 102 34
68 102 34
68 102 34
68 102 34
51 85 17
51 85 17
51 85 17
68 102 17
68 102 34
68 102 34
68 102 34
68 102 34
68 85 34
68 102 34
68 102 34
68 102 34
68 102 34
68 102 34
68 102 34
68 102 34
68 102 34
68 85 34
51 85 17
68 102 17
68 102 34
68 102 34
68 102 34
68 102 34
68 102 34
68 102 34
68 102 34
68 102 34
68 102 34
68 102 34
51 102 34
51 102 17
51 102 34
51 102 17
51 85 17
51 85 17
68 102 34
68 102 17
68 102 34
68 102 34
68 102 34
68 85 34
51 85 34
68 102 34
68 102 34
68 102 34
68 102 17
68 102 34
68 102 34
68 102 34
68 102 34
51 85 17
68 85 17
68 102 34
68 102 34
68 102 34
68 102 34
68 102 34
68 102 34
68 102 34
68 102 34
68 102 34
68 102 34
68 102 34
68 102 34
68 102 34
68 102 34
68 102 34
68 102 34
68 102 34
68 102 34
51 102 17
68 102 34
68 102 34
68 102 34
68 102 34
68 102 34
68 102 17
68 102 34
68 102 34
68 102 34
68 102 34
68 102 34
68 102 34
68 102 34
68 102 34
68 102 34
68 102 34
68 102 34
51 85 34
204 221 204
204 221 204
221 221 204
221 221 204
221 221 204
221 221 204
221 221 204
221 221 204
221 221 204
221 221 204
221 221 204
221 221 204
204 221 204
221 221 204
221 221 204
221 221 204
221 221 204
221 221 204
221 221 204
221 221 204
221 221 204
221 221 204
221 221 204
221 221 204
221 221 204
221 221 204
221 221 204
221 221 204
221 221 204
221 221 204
221 221 221
221 221 204
221 221 204
221 221 204
221 221 204
221 221 204
221 221 204
221 221 204
221 221 204
221 221 204
221 221 204
221 221 221
221 221 221
221 221 221
221 221 221
221 221 221
221 221 221
221 221 221
221 221 221
221 221 221
221 221 221
221 221 221
221 221 221
221 221 221
221 221 221
221 221 221
221 221 221
221 221 221
221 238 221
221 238 221
238 238 221
238 238 221
238 238 221
238 238 221
238 238 221
238 238 221
238 238 221
238 238 221
238 238 221
221 238 221
221 238 221
238 238 221
221 238 221
238 238 221
238 238 221
221 238 221
238 238 221
238 238 221
238 238 221
238 238 221
238 238 221
238 238 221
238 238 221
238 238 221
238 238 221
238 238 221
238 238 238
238 238 238
238 238 238
238 238 238
238 238 238
238 238 238
238 238 238
238 238 221
238 238 221
238 238 221
238 238 221
238 238 221
238 238 238
238 238 238
204 221 204
136 153 119
68 102 34
68 102 34
68 102 34
68 102 34
68 102 34
68 102 34
68 102 34
68 102 51
68 102 51
68 102 51
68 102 51
68 102 68
85 102 68
85 102 68
102 119 85
119 136 119
187 204 187
221 238 238
187 187 187
136 136 136
170 170 170
204 221 204
221 221 221
221 221 221
221 221 221
221 221 204
221 221 204
221 221 221
221 221 204
204 204 204
204 204 187
204 204 187
204 204 187
204 204 187
204 204 187
187 187 170
187 187 170
187 187 170
187 187 170
187 187 170
187 187 170
187 187 170
187 187 170
187 187 170
187 187 170
187 187 170
170 170 153
170 170 153
170 170 153
170 170 153
170 170 153
170 170 170
187 170 170
187 187 170
187 187 170
170 187 170
170 170 170
170 170 153
153 153 119
136 136 119
136 136 119
136 136 119
153 153 136
170 170 153
170 170 153
170 170 170
170 170 153
170 170 153
170 170 153
170 170 153
170 170 153
170 170 153
170 170 153
170 170 153
187 170 153
187 170 153
187 170 170
187 187 170
187 187 170
187 187 153
170 170 153
170 170 153
187 187 170
204 204 187
204 204 187
204 187 187
204 204 187
204 204 187
204 221 204
221 221 204
221 221 221
221 221 204
221 221 221
221 221 221
221 238 221
238 238 238
238 238 238
238 238 221
221 238 221
221 238 221
221 221 221
204 221 204
187 204 187
170 187 170
136 153 136
85 119 68
68 102 34
68 102 34
68 102 34
68 102 34
68 102 34
68 102 34
68 102 34
68 102 17
68 102 34
68 102 34
68 102 34
68 102 34
68 102 34
68 102 34
68 102 34
68 102 34
68 102 34
68 102 34
68 102 34
68 102 34
68 102 34
68 102 34
51 85 17
51 85 17
51 85 17
68 85 34
68 102 34
68 102 34
68 102 34
68 102 34
68 102 34
68 102 34
68 102 34
68 102 34
68 102 34
68 102 34
68 102 34
68 102 34
68 102 34
68 85 17
51 85 17
68 102 17
68 102 34
68 102 34
51 85 17
68 85 34
68 102 34
51 85 17
68 102 34
68 102 34
68 102 34
68 102 34
68 102 34
51 102 34
68 102 34
68 102 34
68 102 34
68 102 17
68 102 34
68 102 17
68 102 17
68 102 34
68 102 34
68 102 34
68 102 34
68 102 34
68 102 34
68 102 34
51 85 17
68 102 17
68 102 34
68 102 34
68 102 34
51 85 17
51 85 17
68 102 34
68 102 34
68 85 17
68 102 34
68 102 34
68 102 34
68 102 34
68 102 34
68 102 17
68 102 34
85 119 34
68 102 34
68 102 34
68 102 34
68 102 34
68 102 34
68 102 34
68 102 34
68 102 34
68 102 34
68 102 34
68 102 34
68 102 34
68 102 34
68 102 17
51 102 17
68 102 34
68 102 34
68 102 51
68 102 51
68 102 34
68 102 34
68 102 34
68 102 34
68 102 34
68 102 34
68 85 34
221 221 204
221 221 204
221 221 204
221 221 204
221 221 204
221 221 204
221 221 204
221 221 204
221 221 204
221 221 204
221 221 204
221 221 204
221 221 204
221 221 204
221 221 204
221 221 204
221 221 204
221 221 204
221 221 204
221 221 204
221 221 204
221 221 204
221 221 204
221 221 204
221 221 204
221 221 204
221 221 204
221 221 204
221 221 204
221 221 204
221 221 204
221 221 204
221 221 204
221 221 204
221 221 204
221 221 204
221 221 221
221 221 204
221 221 204
221 221 221
221 221 204
221 221 221
221 221 221
221 221 221
221 221 221
221 221 221
221 221 221
221 221 221
221 221 221
221 221 221
221 221 221
221 221 221
221 221 221
221 221 221
221 221 221
221 221 221
221 221 221
221 221 221
221 221 221
238 238 221
238 238 221
221 238 221
221 238 221
238 238 221
238 238 221
238 238 221
238 238 221
238 238 221
238 238 221
238 238 221
238 238 221
238 238 221
238 238 221
238 238 221
221 238 221
238 238 221
238 238 221
238 238 221
238 238 221
238 238 221
238 238 221
238 238 221
238 238 221
238 238 221
238 238 221
238 238 221
238 238 238
238 238 238
238 238 238
238 238 238
238 238 221
238 238 238
238 238 221
238 238 221
221 238 221
221 238 221
238 238 221
238 238 221
238 238 238
238 238 238
238 238 221
187 187 170
85 119 68
68 102 34
68 102 34
68 102 34
68 102 34
68 102 34
68 102 51
68 102 34
68 102 34
68 102 51
85 119 68
119 136 119
170 187 170
136 153 136
136 153 136
204 221 221
221 221 221
170 170 170
119 119 119
153 153 136
204 221 204
221 221 221
221 221 204
221 221 204
221 221 204
221 221 204
221 221 204
221 221 204
204 204 204
204 204 187
204 204 187
204 204 187
187 187 187
187 187 187
187 187 170
187 187 170
187 187 170
187 187 170
187 187 170
187 187 170
187 187 170
204 204 187
187 187 170
170 170 170
170 187 170
187 187 170
170 170 153
170 170 153
170 170 153
170 170 153
170 170 170
187 187 170
187 187 170
170 170 170
170 187 170
187 187 170
170 170 153
153 153 136
136 136 119
136 136 102
136 136 119
153 153 119
153 153 136
170 170 153
170 170 153
170 170 153
170 170 153
170 170 153
170 170 153
170 170 153
170 170 153
170 170 153
170 170 153
170 170 153
170 170 153
187 170 153
187 170 170
187 187 170
187 187 170
187 187 170
187 187 170
187 170 153
170 170 153
187 187 170
204 204 187
204 204 187
204 204 187
204 204 204
204 221 204
221 221 204
221 221 221
221 221 221
221 221 221
221 221 221
221 221 221
221 221 221
221 221 204
221 221 204
221 221 204
221 221 221
221 238 221
221 238 221
221 221 221
204 204 187
153 170 153
102 119 85
68 102 34
68 102 34
68 102 34
68 102 34
68 102 34
68 102 34
68 102 34
68 102 34
68 102 34
68 102 34
68 85 17
68 102 34
68 102 34
68 102 34
68 102 34
68 102 34
68 102 34
68 102 34
68 102 34
68 102 34
68 102 34
68 102 34
51 85 17
68 102 17
68 102 34
68 102 34
68 102 34
51 85 17
51 85 17
51 85 17
68 102 34
68 102 34
68 102 34
68 102 34
68 102 34
68 102 34
68 102 34
68 102 34
68 102 34
68 102 34
68 102 17
68 102 34
68 102 34
68 102 34
51 85 17
51 85 17
51 85 17
51 85 17
68 102 34
68 102 34
68 102 34
68 102 34
68 102 34
68 102 34
68 102 34
68 102 34
68 102 34
68 102 34
68 102 34
51 102 17
51 85 17
68 102 34
68 102 34
68 102 34
68 102 34
68 102 34
68 102 34
68 102 17
68 102 17
51 102 17
68 102 34
51 102 17
68 102 34
68 102 34
68 102 34
68 102 34
51 85 17
51 85 17
51 102 17
68 102 34
68 119 34
68 102 34
68 102 34
68 102 34
68 102 34
68 102 34
68 102 34
68 102 34
68 102 34
68 102 34
51 85 17
68 102 34
68 102 34
68 102 34
68 102 34
68 102 34
68 102 34
68 102 34
68 102 34
68 102 34
68 102 34
68 102 34
68 102 34
68 102 34
68 102 34
68 102 34
68 102 34
68 102 34
68 102 34
68 102 34
68 102 34
68 102 34
221 221 204
221 221 204
221 221 204
221 221 204
221 221 204
221 221 204
221 221 204
221 221 204
221 221 204
221 221 204
221 221 204
221 221 204
221 221 204
221 221 204
221 221 204
221 221 204
221 221 204
221 221 204
221 221 204
221 221 204
221 221 204
221 221 204
221 221 204
221 221 204
221 221 204
221 221 204
221 221 204
221 221 204
221 221 204
221 221 204
221 221 204
221 221 204
221 221 204
221 221 204
221 221 221
221 221 221
221 221 221
221 221 204
221 221 204
221 221 204
221 221 204
221 221 204
221 221 221
221 221 221
221 221 221
221 221 221
221 221 221
221 221 221
221 221 221
221 221 221
221 221 221
221 221 221
221 221 221
221 221 221
221 221 221
221 221 221
221 221 221
221 221 221
221 221 221
221 221 221
238 238 221
221 238 221
221 238 221
221 238 221
238 238 221
238 238 221
238 238 221
238 238 221
238 238 221
238 238 221
238 238 221
238 238 221
238 238 221
238 238 221
238 238 221
238 238 221
238 238 221
238 238 221
238 238 221
238 238 221
238 238 221
238 238 221
238 238 221
238 238 221
238 238 221
238 238 221
238 238 221
238 238 221
238 238 221
238 238 238
238 238 221
238 238 221
238 238 221
238 238 221
238 238 221
238 238 221
238 238 221
238 238 238
238 238 238
238 238 238
238 238 238
204 221 204
136 153 102
68 102 51
68 102 34
68 102 34
68 102 34
68 102 34
68 102 34
68 102 34
68 102 51
85 119 68
136 153 119
187 204 187
136 136 136
102 102 102
136 153 136
187 187 187
153 153 153
119 119 119
170 170 153
221 221 221
238 238 221
221 221 221
221 221 204
204 221 204
221 221 204
221 221 204
221 221 204
221 221 204
204 204 204
204 204 187
204 204 187
187 204 187
187 187 170
187 187 170
187 187 170
187 187 170
187 187 170
187 187 170
187 187 170
187 187 170
187 187 170
204 204 187
204 204 187
170 170 170
170 170 153
187 187 170
170 170 153
153 153 136
170 170 153
170 170 170
170 170 170
187 187 170
170 170 170
170 170 153
170 170 170
170 170 170
170 170 153
153 136 119
136 136 119
153 136 119
153 136 119
170 153 136
170 170 153
170 170 153
170 170 153
170 170 153
170 170 153
170 170 153
170 170 153
170 170 153
170 170 153
170 170 153
170 170 153
170 170 153
170 170 153
170 170 153
187 170 170
187 187 170
187 170 153
187 187 170
204 204 187
187 187 170
187 187 153
187 187 170
204 204 187
204 204 187
204 204 187
204 221 204
221 221 204
221 221 221
221 221 221
221 238 221
221 238 221
221 238 221
221 238 221
221 221 221
204 221 204
170 187 170
136 153 136
136 153 136
170 187 153
170 187 170
170 187 170
153 170 136
119 136 85
85 102 51
68 102 34
68 102 34
68 102 34
68 102 34
68 102 34
68 102 34
68 102 34
68 102 34
68 102 34
68 102 17
51 85 17
51 85 34
68 102 34
68 102 34
68 102 34
51 85 17
51 85 17
68 102 34
68 102 34
68 102 34
51 102 34
51 102 34
68 102 34
68 102 34
68 102 34
68 102 34
51 102 34
51 85 17
51 85 17
51 85 17
68 102 34
68 102 34
68 102 34
68 102 34
68 102 34
68 102 34
68 102 34
68 102 34
51 102 34
51 85 17
68 102 17
68 102 34
68 102 34
68 102 34
68 85 34
68 85 34
51 85 17
68 85 17
68 102 34
85 102 34
68 102 34
68 102 34
68 102 34
68 102 34
68 102 17
51 102 17
51 102 17
51 85 17
68 102 17
51 85 17
51 102 17
68 102 34
68 102 34
68 102 34
68 102 34
68 102 17
51 102 17
68 102 17
68 102 17
68 102 34
68 102 34
51 102 34
68 102 34
68 102 34
68 102 34
68 102 34
68 102 17
51 85 17
51 102 17
68 102 34
68 102 34
68 102 34
68 102 34
68 119 34
68 102 34
68 102 34
68 102 34
68 102 34
68 102 34
68 102 17
68 102 34
68 102 34
68 85 17
68 102 34
68 102 34
68 102 34
68 102 34
68 102 34
68 102 34
68 102 34
68 102 34
68 102 34
68 102 34
68 102 34
68 102 34
68 102 34
68 102 34
68 102 34
68 102 34
68 102 34
68 102 34
68 102 34
221 221 204
204 221 204
221 221 204
221 221 204
221 221 204
221 221 204
221 221 204
221 221 204
221 221 204
221 221 204
221 221 204
221 221 204
221 221 204
221 221 204
221 221 204
221 221 204
221 221 204
221 221 204
221 221 204
221 221 204
221 221 204
221 221 204
221 221 204
221 221 204
221 221 204
221 221 204
221 221 204
221 221 204
221 221 204
221 221 221
221 221 204
221 221 204
221 221 221
221 221 204
221 221 221
221 221 221
221 221 204
221 221 204
221 221 204
221 221 221
221 221 204
221 221 204
221 221 221
221 221 221
221 221 221
221 221 221
221 221 221
221 221 221
221 221 221
221 221 221
221 221 221
221 221 221
221 221 221
221 221 221
221 221 221
221 221 221
221 221 221
221 221 221
221 221 221
221 221 221
221 238 221
238 238 221
238 238 221
238 238 221
238 238 221
238 238 221
238 238 221
238 238 221
238 238 221
221 238 221
238 238 221
238 238 221
221 238 221
238 238 221
238 238 221
238 238 221
238 238 221
238 238 221
238 238 221
238 238 221
238 238 221
238 238 221
238 238 221
238 238 221
238 238 221
238 238 221
238 238 221
238 238 221
238 238 221
238 238 221
238 238 221
238 238 221
238 238 221
238 238 221
238 238 238
238 238 238
238 238 238
238 238 238
238 238 238
238 238 238
238 238 238
238 238 221
187 187 170
119 153 102
68 102 34
68 102 34
68 102 34
68 102 34
68 102 34
68 102 34
85 119 68
136 153 119
204 204 187
119 136 119
119 119 119
136 136 119
119 119 119
85 85 68
102 102 102
170 170 170
221 221 221
238 238 221
221 221 221
221 221 204
221 221 204
221 221 204
204 204 204
221 221 204
204 221 204
204 204 204
204 204 187
204 204 204
204 204 187
204 204 187
187 187 187
187 187 170
187 187 170
187 187 170
187 187 170
187 187 170
187 187 170
187 187 170
187 187 170
187 187 170
204 204 187
170 170 170
153 153 136
170 170 153
170 170 153
153 153 136
170 170 153
170 170 153
187 187 170
187 187 170
170 170 153
170 170 153
170 170 170
170 170 170
170 153 136
153 153 136
153 153 136
153 153 136
170 153 153
170 170 153
170 170 170
187 187 170
170 170 153
170 170 153
170 170 153
170 170 153
170 170 153
170 170 153
170 170 153
170 170 153
170 170 153
170 170 153
170 170 153
170 170 153
170 170 153
170 170 153
170 170 153
187 187 187
204 204 187
187 187 187
187 187 170
187 187 170
187 187 170
187 187 170
204 204 187
204 204 187
221 221 204
221 221 221
221 221 221
221 238 221
238 238 238
238 238 238
238 238 238
221 221 221
204 221 204
187 187 170
153 170 153
119 136 102
85 119 68
102 119 68
85 119 51
102 119 68
85 119 51
68 102 34
68 102 34
68 102 34
68 85 17
68 102 34
68 102 34
68 85 34
68 102 34
68 102 34
68 102 34
68 102 17
51 85 17
68 85 17
68 102 34
68 102 34
68 102 34
68 102 34
68 85 34
68 85 34
68 102 34
68 102 34
51 102 17
51 102 34
68 102 34
68 102 34
51 102 17
68 102 17
68 102 34
68 102 34
51 102 17
51 102 17
68 102 34
68 102 34
68 102 34
68 102 34
68 102 34
68 102 34
68 102 34
68 102 34
68 102 17
51 85 17
51 85 17
68 102 17
68 102 34
68 102 34
68 102 34
68 102 34
68 85 34
68 102 34
68 102 34
68 102 34
68 102 34
68 102 34
68 102 34
68 102 17
68 102 17
51 85 17
51 102 17
51 85 17
51 85 17
68 102 17
51 102 17
68 102 34
68 102 34
68 102 34
68 102 34
68 102 17
68 102 34
68 102 34
68 85 17
68 102 34
68 102 34
68 102 34
68 102 34
68 102 34
68 102 34
68 119 34
68 102 34
68 102 34
68 102 34
68 102 34
68 102 34
68 102 34
68 102 34
68 102 34
85 119 51
85 119 51
68 102 34
68 102 34
68 102 34
51 85 17
68 102 34
68 102 34
68 102 34
68 102 34
68 102 34
68 102 34
68 102 34
68 102 17
68 102 17
51 102 17
68 102 34
68 102 34
68 102 34
68 102 34
68 119 51
85 119 51
68 102 34
68 102 34
68 102 34
68 102 34
68 102 34
68 102 34
221 221 204
221 221 204
221 221 204
221 221 204
221 221 204
221 221 204
221 221 204
221 221 204
221 221 204
204 221 204
221 221 204
221 221 204
221 221 204
221 221 204
221 221 204
221 221 204
221 221 204
221 221 204
221 221 204
221 221 204
221 221 204
221 221 204
221 221 204
221 221 204
221 221 204
221 221 204
221 221 204
221 221 204
221 221 204
221 221 204
221 221 204
221 221 221
221 221 221
221 221 221
221 221 221
221 221 221
221 221 221
221 221 221
221 221 204
221 221 204
221 221 204
221 221 204
221 221 204
221 221 204
221 221 221
221 221 221
221 221 221
221 221 221
221 221 221
221 221 221
221 221 221
221 221 221
221 221 221
221 221 221
221 221 221
221 221 221
221 221 221
221 221 221
221 221 221
221 221 221
221 238 221
238 238 221
238 238 221
238 238 221
221 238 221
238 238 221
238 238 221
238 238 221
238 238 221
238 238 221
238 238 221
238 238 221
238 238 221
238 238 221
238 238 221
238 238 221
238 238 221
238 238 221
238 238 221
238 238 221
238 238 221
238 238 221
238 238 221
238 238 221
238 238 238
238 238 221
238 238 221
238 238 221
238 238 221
238 238 221
238 238 221
238 238 221
238 238 221
238 238 238
238 238 238
238 238 238
238 238 238
238 238 238
238 238 238
238 238 238
238 238 238
238 238 238
204 221 204
170 187 153
85 119 68
68 102 34
68 102 34
68 102 51
85 102 51
85 119 68
136 153 119
187 187 170
102 119 102
102 119 85
170 170 170
136 136 119
85 85 85
102 102 102
119 119 119
204 204 187
238 238 221
238 238 221
221 221 204
204 221 204
204 204 204
204 204 204
221 221 204
221 221 204
221 221 204
221 221 204
204 221 204
204 204 204
204 204 187
204 204 187
187 187 187
187 187 170
187 187 170
187 187 170
187 187 170
187 187 170
187 187 170
187 187 170
187 187 170
170 170 170
187 187 170
170 170 170
170 170 153
170 170 153
170 170 153
153 153 136
170 170 153
170 170 153
170 170 170
187 187 170
170 170 153
170 170 170
187 187 170
187 187 170
153 170 153
170 170 153
153 153 136
170 170 153
170 170 153
187 187 170
187 187 187
187 187 170
170 170 153
170 170 153
170 170 153
187 187 170
170 170 153
170 170 153
170 170 170
170 170 170
170 170 170
187 170 153
170 170 153
170 170 153
170 170 153
170 170 153
187 187 170
204 204 187
204 204 187
204 204 187
204 187 187
187 187 170
187 187 170
187 187 170
187 187 170
204 187 187
204 204 187
221 221 204
221 221 221
221 221 221
221 238 221
238 238 238
238 238 238
221 221 221
204 204 204
170 187 170
136 153 119
102 119 85
85 119 51
85 119 51
68 102 34
68 102 34
68 102 34
68 102 34
68 102 34
68 102 34
51 85 17
68 85 34
68 85 34
68 85 34
68 102 34
68 102 34
68 102 34
68 102 17
51 102 17
51 85 17
68 85 34
68 102 17
68 102 34
68 102 34
68 102 34
68 102 34
68 102 34
68 102 17
51 85 17
51 102 34
68 102 34
68 102 34
68 102 34
51 85 17
51 85 17
51 102 17
51 102 17
51 102 17
51 85 17
68 102 34
68 102 34
68 102 34
68 102 34
68 102 34
68 102 34
68 102 34
51 102 17
51 102 17
68 102 34
68 102 34
68 102 17
68 102 34
68 102 34
68 102 34
68 102 34
68 102 34
68 102 34
68 102 34
68 102 34
68 102 34
68 102 34
68 102 17
51 102 17
51 85 17
51 85 17
51 102 17
51 102 17
68 102 17
51 102 17
68 102 34
68 102 34
68 102 34
68 102 34
68 102 17
68 102 34
68 102 34
51 85 17
68 102 34
68 102 34
68 102 34
68 102 34
68 102 34
68 102 34
68 102 34
68 102 17
68 102 17
68 102 34
68 102 34
68 102 34
68 102 34
85 119 51
68 102 34
68 102 34
85 119 34
85 119 34
68 102 34
68 102 34
68 102 34
68 102 34
68 102 34
68 102 34
68 102 34
68 102 17
68 102 34
68 102 34
68 102 34
68 102 17
68 102 17
68 102 34
68 102 34
51 102 17
68 102 34
85 119 51
68 102 34
68 102 34
68 102 34
68 102 34
68 102 34
68 102 34
68 102 34
221 221 204
221 221 204
221 221 204
221 221 204
221 221 204
221 221 204
221 221 204
221 221 204
221 221 204
221 221 204
221 221 204
221 221 204
221 221 204
221 221 204
221 221 204
221 221 204
221 221 204
221 221 204
221 221 204
221 221 204
221 221 204
221 221 204
221 221 204
221 221 204
221 221 204
221 221 204
221 221 204
221 221 204
221 221 204
221 221 204
221 221 204
221 221 221
221 221 204
221 221 221
221 221 221
221 221 221
221 221 221
221 221 221
221 221 204
221 221 204
221 221 204
221 221 204
221 221 204
221 221 204
221 221 221
221 221 221
221 221 221
221 221 221
221 221 221
221 221 221
221 221 221
221 221 221
221 221 221
221 221 221
221 221 221
221 221 221
221 221 221
221 221 221
221 221 221
221 221 221
221 238 221
221 238 221
221 221 221
238 238 221
238 238 221
221 238 221
238 238 221
238 238 221
238 238 221
238 238 221
221 238 221
238 238 221
238 238 221
238 238 221
238 238 221
238 238 221
238 238 221
238 238 221
238 238 221
238 238 221
238 238 221
238 238 221
238 238 221
238 238 221
238 238 221
238 238 221
238 238 238
238 238 221
238 238 221
238 238 238
238 238 221
238 238 221
238 238 238
238 238 238
238 238 238
238 238 238
238 238 238
238 238 238
238 238 238
238 238 238
238 238 238
238 238 238
238 238 221
221 221 204
136 153 102
85 102 51
85 102 68
102 136 85
153 153 136
187 187 170
153 153 136
119 119 102
85 102 51
68 102 51
119 136 102
136 136 119
136 136 136
136 153 136
170 170 153
221 221 204
221 221 221
221 221 221
221 221 204
204 204 187
204 204 187
204 204 187
204 204 187
204 204 204
221 221 204
221 221 204
204 204 204
204 204 187
204 204 187
187 187 187
187 187 187
187 187 170
187 187 170
187 187 170
187 187 170
187 187 170
187 187 170
187 187 170
187 187 170
170 170 153
170 170 153
170 170 153
170 170 153
170 170 153
170 170 153
153 153 153
170 170 153
170 170 153
170 170 153
170 170 153
170 170 153
170 170 153
187 187 187
170 187 170
170 170 153
170 170 170
170 170 153
170 170 153
187 187 170
187 187 187
187 187 170
170 170 153
170 153 153
170 170 153
187 187 170
170 170 170
170 170 153
170 170 153
187 170 170
187 170 170
187 170 153
187 170 153
187 170 153
170 170 153
170 170 153
187 187 170
204 204 187
204 204 187
187 187 170
204 204 187
204 204 187
187 187 170
187 187 170
204 204 187
204 204 187
204 204 187
204 204 187
204 204 204
221 221 204
221 221 204
221 221 221
221 238 221
221 238 238
204 221 204
170 187 170
136 153 119
102 136 85
85 102 51
68 102 34
68 102 34
68 102 34
68 102 34
68 102 34
68 102 34
68 102 34
68 102 34
68 102 34
68 102 34
51 85 34
68 102 34
68 102 34
68 102 34
68 102 34
68 85 17
51 85 17
68 85 17
68 102 34
68 102 34
68 102 34
68 102 34
68 102 34
68 102 34
51 102 17
51 85 17
51 85 17
51 102 17
68 102 34
68 102 34
68 102 34
51 85 17
51 85 17
51 102 17
51 102 17
68 102 17
68 102 17
51 102 17
68 102 34
68 102 34
68 102 34
68 102 34
68 102 34
68 102 17
51 102 17
68 102 17
68 102 34
68 102 34
68 102 17
68 102 34
68 102 34
68 102 51
68 102 34
68 102 34
68 102 34
68 102 34
68 102 34
68 102 34
68 102 34
68 102 17
51 102 17
51 85 17
51 85 17
51 102 17
68 102 17
51 102 17
68 102 17
68 102 34
68 102 34
68 102 34
68 102 34
68 102 34
68 102 34
68 102 34
68 102 34
68 102 34
68 102 34
68 102 34
68 102 34
68 102 34
68 102 34
68 102 34
68 102 34
68 102 34
68 102 34
68 102 34
68 102 34
68 102 34
85 119 51
68 102 34
85 102 34
85 119 51
68 119 34
68 102 34
51 102 17
68 102 34
68 102 34
68 102 17
68 102 34
68 102 34
51 102 17
51 85 17
68 102 17
68 102 34
68 102 34
68 102 17
68 102 17
68 102 34
68 102 34
85 119 34
68 102 34
68 102 34
68 102 34
68 102 34
68 102 34
68 102 34
68 102 34
68 102 34
221 221 204
221 221 204
221 221 204
221 221 204
221 221 204
221 221 204
221 221 204
221 221 204
221 221 204
221 221 204
221 221 204
221 221 204
221 221 204
221 221 204
221 221 204
221 221 204
221 221 204
221 221 204
221 221 204
221 221 204
221 221 204
221 221 204
221 221 204
221 221 204
221 221 204
221 221 204
221 221 204
221 221 204
221 221 204
221 221 204
221 221 204
221 221 204
221 221 221
221 221 221
221 221 221
221 221 204
221 221 204
221 221 204
221 221 204
221 221 204
221 221 204
221 221 204
221 221 204
221 221 221
221 221 221
221 221 221
221 221 221
221 221 221
221 221 221
221 221 221
221 221 221
221 221 221
221 221 221
221 221 221
221 221 221
221 221 221
221 221 221
221 221 221
221 221 221
221 221 221
221 221 221
238 238 221
221 221 221
238 238 221
238 238 221
238 238 221
238 238 221
238 238 221
238 238 221
238 238 221
238 238 221
238 238 221
238 238 221
238 238 221
238 238 221
238 238 221
238 238 221
238 238 221
238 238 221
238 238 221
238 238 221
238 238 221
238 238 221
238 238 221
238 238 221
238 238 238
238 238 238
238 238 238
238 238 238
238 238 221
238 238 238
238 238 238
238 238 238
238 238 238
238 238 238
238 238 238
238 238 238
238 238 238
238 238 238
238 238 238
238 238 238
238 238 238
238 238 238
221 238 221
170 187 153
153 170 136
153 170 136
187 187 153
204 204 170
187 187 170
170 170 136
153 153 136
102 119 85
68 102 51
85 119 85
136 136 136
153 170 153
153 170 153
204 204 187
221 221 221
221 221 204
221 221 204
204 204 204
204 204 187
204 204 187
204 204 187
204 204 187
204 204 187
204 204 204
204 204 187
204 204 187
204 204 187
187 187 187
187 187 187
187 187 170
187 187 170
187 187 170
187 187 170
187 187 170
170 170 170
170 187 170
187 187 170
170 170 153
170 153 153
153 153 136
170 170 153
170 170 153
170 170 170
170 170 153
170 170 153
170 170 153
170 170 153
170 170 153
170 170 153
170 170 153
170 170 153
187 187 170
170 170 170
170 170 170
187 187 170
170 170 153
170 187 170
170 170 153
170 170 153
170 170 170
170 170 153
170 170 153
170 170 170
187 187 170
170 170 153
170 170 153
187 170 170
187 170 170
187 187 170
187 187 170
170 170 153
187 170 153
170 170 153
170 170 153
187 187 170
204 204 187
204 204 187
187 187 170
187 187 187
204 204 187
187 187 170
187 187 170
204 187 187
204 204 187
204 204 187
204 204 204
204 204 204
204 221 204
204 221 204
221 221 221
221 221 221
221 238 221
221 221 221
187 204 187
153 170 153
119 136 102
68 102 51
68 102 34
68 102 34
68 102 34
68 102 34
68 102 34
68 102 34
68 102 34
68 102 34
68 102 34
68 102 34
51 102 34
51 102 34
68 102 34
68 102 34
68 102 34
68 102 34
68 102 34
68 102 34
68 102 17
68 102 34
68 102 34
68 102 34
68 102 34
68 102 34
51 102 17
51 102 17
68 102 34
68 102 34
68 102 34
68 102 34
68 102 34
51 102 17
51 102 17
51 102 17
51 85 17
51 102 17
68 102 34
68 102 34
68 102 34
68 102 34
68 102 34
68 102 34
51 102 17
68 102 17
68 102 17
68 102 34
68 102 34
68 102 34
68 85 17
68 102 34
68 102 34
68 102 51
85 119 51
68 102 34
68 102 34
68 102 34
68 102 34
68 102 34
68 102 34
68 102 34
51 102 17
51 102 17
51 102 17
51 102 17
68 102 34
68 102 17
68 102 34
68 102 34
68 102 34
68 102 34
68 102 34
68 102 34
68 102 34
68 102 34
68 102 34
68 102 34
68 102 34
68 102 34
68 102 34
68 102 34
68 102 34
68 102 34
68 102 34
68 102 34
68 102 34
68 102 34
68 102 34
68 102 34
68 119 34
85 119 34
85 119 34
68 119 34
68 102 34
68 102 34
68 102 34
68 102 34
68 102 17
68 102 17
68 102 34
68 102 34
68 102 34
68 102 17
68 102 34
68 102 34
68 102 17
68 102 34
68 102 34
68 102 34
68 102 34
85 119 51
68 102 34
68 102 34
68 102 34
68 102 34
68 102 34
68 102 34
85 119 51
68 102 34
221 221 204
221 221 204
221 221 204
221 221 204
221 221 204
221 221 204
221 221 204
221 221 204
221 221 204
221 221 204
221 221 204
221 221 204
221 221 204
221 221 204
221 221 204
221 221 204
221 221 204
221 221 204
221 221 204
221 221 204
221 221 204
221 221 204
221 221 204
221 221 204
221 221 204
221 221 204
221 221 204
221 221 204
221 221 204
221 221 204
221 221 204
221 221 221
221 221 221
221 221 221
221 221 204
221 221 204
221 221 204
221 221 204
221 221 204
221 221 204
221 221 204
221 221 204
221 221 204
221 221 204
221 221 221
221 221 221
221 221 221
221 221 204
221 221 204
221 221 221
221 221 221
221 221 221
221 221 221
221 221 221
221 221 221
221 221 221
221 221 221
221 221 221
221 221 221
221 221 221
221 221 221
221 238 221
221 221 221
221 238 221
238 238 221
238 238 221
238 238 221
238 238 221
238 238 221
238 238 221
238 238 221
238 238 221
238 238 221
238 238 221
238 238 221
238 238 221
238 238 221
238 238 221
238 238 221
238 238 221
238 238 221
238 238 221
238 238 221
238 238 221
238 238 221
238 238 238
238 238 238
238 238 238
238 238 238
238 238 238
238 238 238
238 238 238
238 238 238
238 238 238
238 238 238
238 238 238
238 238 238
238 238 238
238 238 238
238 238 238
238 238 221
238 238 221
221 221 204
204 204 187
170 170 136
153 153 136
136 119 102
153 136 119
187 170 153
187 170 153
170 153 136
153 153 119
136 136 102
85 119 85
119 136 119
187 187 187
187 187 187
204 204 187
238 238 221
221 221 221
221 221 204
221 221 204
204 204 204
204 204 187
204 204 187
204 204 187
204 204 187
204 204 187
204 204 187
204 204 187
204 204 187
187 204 187
187 187 170
187 187 170
187 187 170
187 187 170
187 187 170
170 170 170
170 170 153
170 170 153
170 170 170
187 187 170
170 170 153
153 153 136
170 170 153
170 170 153
170 170 153
170 170 153
170 170 153
170 170 153
170 170 170
170 170 153
170 170 153
153 170 153
170 170 153
170 170 153
187 187 170
170 170 170
187 187 170
187 187 170
170 170 170
170 170 153
153 153 153
187 187 170
187 187 187
170 170 153
170 170 170
170 170 153
170 170 153
170 170 153
170 170 170
187 170 170
170 170 153
187 187 170
187 187 170
187 170 170
170 170 153
170 170 153
170 170 153
187 187 170
204 204 187
187 187 187
187 187 170
187 187 187
204 204 187
187 187 170
187 187 187
204 204 187
204 204 187
204 204 204
204 204 204
204 221 204
221 221 204
221 221 221
221 221 221
221 238 221
221 238 238
221 238 238
221 221 221
187 204 187
136 153 136
85 119 68
68 102 34
68 102 34
68 102 34
68 102 34
68 102 34
68 102 34
51 85 34
68 102 34
68 102 34
68 102 34
68 102 34
68 102 34
68 102 34
68 102 34
68 102 34
68 102 34
68 102 34
68 102 34
68 102 34
68 102 34
68 102 34
68 102 34
68 102 34
68 102 34
68 102 17
51 102 17
68 102 34
68 102 34
68 102 34
68 102 34
68 102 34
51 102 34
51 102 17
68 102 34
68 102 34
51 102 34
68 102 34
68 102 34
68 102 34
68 102 34
68 102 34
68 102 34
68 102 34
68 102 34
68 102 34
68 102 34
68 102 34
68 85 34
68 102 34
68 102 34
68 102 34
85 119 51
68 102 34
68 102 34
68 102 17
68 102 34
68 102 34
68 102 34
68 102 34
68 102 34
68 102 34
51 102 17
51 85 17
51 85 17
68 102 34
68 102 34
68 102 34
85 119 34
68 102 34
68 102 34
68 102 34
68 102 34
68 102 34
68 102 34
68 102 34
68 102 34
68 85 34
68 102 34
68 102 34
68 102 34
85 119 34
68 102 34
68 102 34
68 102 34
68 102 34
68 102 34
68 102 34
68 102 34
68 102 34
68 102 34
68 102 34
68 102 34
68 102 34
68 102 34
68 102 34
68 102 34
68 102 34
51 102 17
68 102 34
68 102 34
68 102 34
68 102 34
68 102 34
68 102 34
68 102 34
68 102 34
68 102 34
68 102 34
68 102 34
68 102 34
68 102 34
85 119 51
68 102 34
68 102 34
68 102 34
68 102 34
68 102 34
68 102 34
221 221 204
221 221 204
221 221 204
221 221 204
221 221 204
221 221 204
221 221 204
221 221 204
221 221 204
221 221 204
221 221 204
221 221 204
221 221 204
221 221 204
221 221 204
221 221 204
221 221 204
221 221 204
221 221 204
221 221 204
221 221 204
221 221 204
221 221 204
221 221 204
221 221 204
221 221 204
221 221 204
221 221 221
221 221 221
221 221 221
221 221 221
221 221 221
221 221 221
221 221 221
221 221 204
221 221 204
221 221 204
221 221 204
221 221 204
221 221 204
221 221 221
221 221 204
221 221 204
221 221 221
221 221 221
221 221 204
221 221 204
221 221 204
221 221 204
221 221 221
221 221 221
221 221 221
221 221 221
221 221 221
221 221 221
221 221 221
221 221 221
221 221 221
221 238 221
221 221 221
221 238 221
221 238 221
221 238 221
221 238 221
238 238 221
238 238 221
238 238 221
238 238 221
238 238 221
238 238 221
238 238 221
238 238 221
238 238 221
238 238 221
238 238 221
238 238 221
238 238 238
238 238 221
238 238 221
238 238 221
238 238 221
238 238 221
238 238 238
238 238 238
238 238 221
238 238 238
238 238 238
238 238 238
238 238 238
238 238 238
238 238 238
238 238 238
238 238 238
238 238 238
238 238 238
238 238 238
238 238 238
238 238 221
238 238 221
221 221 204
204 204 187
204 187 170
204 187 170
187 187 153
136 119 102
119 119 102
119 102 85
136 136 102
170 153 136
153 153 136
153 153 136
136 136 119
153 153 136
153 170 153
187 187 187
187 187 170
204 204 187
238 238 221
238 238 221
221 238 221
221 221 221
221 221 221
221 221 204
204 204 187
204 204 187
204 204 187
204 204 187
204 204 187
204 204 187
204 204 187
204 204 187
187 187 170
187 187 170
187 187 170
187 187 170
187 187 170
170 170 170
187 187 170
187 187 170
187 187 170
187 187 170
187 187 170
170 170 153
170 170 153
170 170 153
170 170 153
170 170 153
170 170 153
170 170 170
170 170 170
170 170 170
170 170 153
153 153 153
153 153 153
170 170 153
170 170 153
170 170 153
170 170 170
187 187 170
187 187 170
170 170 170
153 153 153
170 170 170
187 187 187
187 187 170
170 170 153
170 170 153
153 153 136
170 153 153
170 170 153
170 170 170
170 170 170
170 170 153
170 170 170
187 187 170
187 187 170
170 170 153
170 170 153
170 170 153
187 187 170
187 187 170
187 187 170
204 187 187
204 204 187
204 204 204
204 204 187
204 204 187
204 204 187
204 204 187
204 221 204
204 221 204
221 221 204
221 221 221
221 221 221
221 238 221
238 238 238
238 238 238
221 221 221
204 204 204
187 187 170
153 170 136
85 119 68
68 102 34
68 102 34
68 102 34
68 102 34
68 102 34
68 102 34
68 102 34
68 102 51
68 102 34
68 102 34
68 102 34
68 102 34
68 102 34
68 102 34
68 102 34
68 102 34
68 102 34
68 102 34
68 102 34
68 102 34
68 102 34
68 102 34
68 102 34
68 102 34
68 102 17
68 102 34
68 102 34
68 102 34
68 102 34
68 102 34
68 102 34
68 102 34
51 102 17
68 102 34
68 102 34
68 102 34
68 102 34
68 102 34
68 102 34
68 102 34
68 102 34
68 102 34
68 102 34
68 102 34
68 102 34
68 102 17
68 102 34
68 85 34
68 102 34
68 102 34
68 102 34
68 102 34
68 102 34
68 102 34
68 102 34
68 119 34
68 102 34
51 102 17
68 102 34
68 102 34
68 102 34
68 102 34
51 85 17
51 85 17
68 102 34
68 102 34
68 102 34
68 102 34
68 102 34
68 102 34
68 102 34
68 102 34
68 102 34
68 102 34
68 102 34
68 102 34
68 102 34
68 102 34
68 102 34
68 102 34
68 102 34
68 102 34
51 102 17
51 102 17
68 102 17
68 102 34
68 102 34
68 102 34
68 102 34
68 102 17
68 102 17
68 102 34
68 102 34
68 102 34
68 102 34
68 102 34
68 102 17
68 102 17
68 102 34
68 102 34
68 102 34
68 102 34
68 102 34
68 102 34
68 102 34
68 119 34
68 102 34
68 102 34
68 102 34
68 102 34
68 102 34
68 102 34
68 102 34
68 102 34
68 102 34
68 102 34
68 102 34
68 102 34
221 221 204
221 221 204
221 221 204
221 221 204
221 221 204
221 221 204
221 221 204
221 221 204
221 221 204
221 221 204
221 221 204
221 221 204
221 221 204
221 221 204
221 221 204
221 221 204
221 221 204
221 221 204
221 221 204
221 221 204
221 221 204
221 221 204
221 221 204
221 221 204
221 221 204
221 221 204
221 221 221
221 221 204
221 221 204
221 221 221
221 221 221
221 221 221
221 221 221
221 221 221
221 221 204
221 221 204
221 221 204
221 221 204
221 221 204
221 221 204
221 221 204
221 221 204
221 221 204
221 221 204
221 221 204
221 221 204
221 221 204
221 221 221
221 221 221
221 221 221
221 221 221
221 221 221
221 221 221
221 221 221
221 221 221
221 221 221
221 221 221
221 221 221
221 238 221
221 238 221
221 238 221
221 238 221
238 238 221
238 238 221
221 238 221
238 238 221
238 238 221
238 238 221
238 238 221
238 238 221
238 238 221
238 238 221
238 238 221
238 238 221
238 238 221
238 238 221
238 238 221
238 238 221
238 238 221
238 238 221
238 238 221
238 238 221
238 238 238
238 238 221
238 238 238
238 238 238
238 238 238
238 238 238
238 238 238
238 238 238
238 238 238
238 238 238
238 238 238
238 238 238
238 238 221
238 238 221
221 221 204
204 204 187
204 187 170
204 187 170
204 187 170
204 187 170
204 187 170
187 187 170
153 153 136
136 136 119
136 136 102
136 136 102
136 136 102
119 136 102
102 119 85
102 119 85
136 136 119
170 170 170
204 204 204
221 221 221
238 238 221
238 238 221
221 221 221
221 221 204
221 221 204
221 221 204
204 204 204
204 204 187
204 204 187
187 187 187
187 187 187
204 204 187
204 204 187
187 187 187
187 187 170
187 187 170
187 187 170
187 187 170
187 187 170
187 187 170
187 187 170
187 187 170
187 187 170
187 187 170
187 187 170
170 170 153
170 170 153
170 170 170
170 170 153
170 170 153
170 170 153
170 170 153
170 170 153
187 187 170
170 170 170
170 170 153
153 153 136
170 170 153
187 187 170
170 170 170
170 170 153
170 170 153
187 187 170
187 187 187
170 170 170
170 170 153
187 187 170
170 170 153
153 153 136
170 170 153
153 153 136
153 153 136
170 170 153
170 170 153
170 170 153
170 170 153
170 170 153
170 170 170
187 187 170
187 187 170
187 187 170
187 187 170
170 170 170
187 170 170
187 187 170
187 187 170
204 204 187
204 204 204
204 204 204
204 204 204
204 204 204
204 204 204
204 204 204
204 204 204
204 221 204
221 221 204
221 221 221
221 221 221
221 238 221
221 238 238
238 238 238
238 238 238
221 221 221
187 187 170
136 153 119
102 119 68
68 102 34
68 102 34
68 102 34
68 102 34
68 102 34
68 102 34
68 102 34
68 102 34
68 102 51
68 102 34
68 102 34
68 102 34
68 102 34
85 119 51
68 102 34
68 102 34
68 102 34
68 102 34
68 102 34
68 102 34
68 102 34
68 102 34
68 102 34
68 102 34
68 102 17
68 102 34
68 102 34
68 102 34
68 102 34
68 102 34
68 102 34
68 102 34
68 102 34
68 102 34
68 102 34
68 102 34
68 102 34
68 102 34
68 102 34
68 102 34
68 102 34
68 102 34
68 102 34
68 102 34
68 102 34
51 102 17
51 102 17
51 85 34
68 102 34
68 102 34
68 102 34
68 102 34
68 102 17
68 102 34
68 119 34
68 119 34
68 102 34
51 102 17
68 102 17
68 102 34
68 102 34
68 102 34
68 102 34
68 102 17
51 102 17
51 102 17
68 102 17
68 102 34
68 102 34
68 102 34
68 102 34
68 102 34
68 102 34
85 102 34
68 102 34
68 102 34
68 102 34
68 102 34
68 102 34
68 102 34
68 102 34
68 102 34
51 102 17
51 85 17
68 102 17
68 102 34
68 102 34
68 102 34
68 102 17
68 102 17
68 102 34
68 102 34
68 102 34
68 102 34
68 102 34
68 102 34
68 102 34
68 102 34
68 102 34
68 102 34
68 102 34
68 102 34
68 102 34
68 102 34
68 102 34
68 102 34
68 102 34
68 102 34
68 102 34
68 102 34
68 102 34
68 102 34
68 102 34
68 102 34
68 102 34
68 102 34
68 119 34
85 119 34
204 221 204
204 221 204
221 221 204
221 221 204
221 221 204
221 221 204
221 221 204
221 221 204
221 221 204
221 221 204
221 221 204
221 221 204
221 221 204
221 221 204
221 221 204
221 221 204
221 221 204
221 221 204
221 221 204
221 221 204
221 221 204
221 221 204
221 221 204
221 221 204
221 221 204
221 221 204
221 221 204
221 221 221
221 221 221
221 221 221
221 221 221
221 221 221
221 221 221
221 221 221
221 221 204
221 221 204
221 221 204
221 221 204
221 221 204
221 221 204
221 221 204
221 221 204
221 221 204
221 221 204
221 221 204
221 221 221
221 221 221
221 221 221
221 221 204
221 221 221
221 221 221
221 221 221
221 221 221
221 221 221
221 221 221
221 221 221
221 221 221
221 221 221
221 221 221
221 221 221
221 238 221
221 238 221
221 238 221
238 238 221
238 238 221
238 238 221
238 238 221
238 238 221
238 238 221
221 238 221
238 238 221
238 238 221
238 238 221
238 238 221
238 238 221
238 238 221
238 238 221
238 238 221
238 238 221
238 238 221
238 238 221
238 238 221
238 238 238
238 238 238
238 238 238
238 238 238
238 238 238
238 238 238
238 238 238
238 238 238
238 238 238
238 238 238
238 238 221
221 221 204
204 204 187
187 187 153
187 187 153
187 187 153
204 187 170
204 204 170
204 204 170
204 204 170
187 204 170
204 204 187
204 204 204
187 187 170
136 136 102
85 102 51
68 102 34
68 85 34
68 85 34
85 119 68
153 153 136
221 238 221
255 255 238
238 238 238
238 238 221
221 238 221
221 221 204
221 221 204
204 204 204
204 204 187
204 204 187
204 204 187
204 204 187
187 204 187
187 187 170
187 187 170
204 204 187
187 187 187
187 187 170
187 187 170
187 187 187
187 187 170
187 187 170
187 187 170
187 187 170
187 187 170
187 187 170
187 187 170
187 187 170
170 170 153
170 170 170
170 170 170
170 170 153
170 170 153
170 170 170
170 170 153
170 170 170
170 187 170
170 170 170
170 170 153
170 170 153
170 170 170
187 187 170
170 170 170
153 153 136
170 170 153
187 187 170
187 187 187
187 187 170
170 170 170
170 170 153
153 153 136
153 153 136
170 170 153
170 170 153
170 170 153
170 170 153
170 170 153
170 170 153
170 170 153
170 170 153
170 170 170
187 187 170
187 187 170
187 187 170
187 187 170
187 187 170
187 187 170
187 187 170
187 187 187
187 204 187
204 204 204
204 221 204
204 221 204
204 221 204
204 221 204
204 221 204
221 221 204
204 221 204
204 221 204
204 221 204
221 221 221
221 221 221
238 238 238
221 238 238
221 238 238
221 221 221
204 204 204
153 170 153
102 136 85
85 102 51
68 102 34
68 102 34
68 102 34
68 102 34
68 102 34
68 102 34
68 102 34
68 102 34
68 102 34
68 102 34
68 102 34
68 102 34
68 102 51
68 102 34
68 102 34
68 102 34
68 102 17
68 102 34
68 102 34
68 102 34
85 119 51
85 119 51
68 102 34
68 102 17
68 102 17
68 102 34
68 102 34
68 102 34
68 102 34
68 102 34
68 102 34
51 102 34
68 102 34
68 102 34
68 102 34
68 102 34
68 102 34
68 102 34
68 102 34
68 102 34
68 119 34
68 102 34
68 102 34
51 85 17
51 85 17
68 102 34
68 102 34
68 102 34
51 102 34
68 102 34
68 102 34
68 102 34
68 102 34
68 119 34
68 102 34
68 102 34
68 102 17
68 102 17
68 102 34
68 102 34
68 102 34
68 102 34
68 102 34
68 102 34
51 102 17
51 102 17
68 102 34
68 102 34
68 102 34
68 102 34
68 102 34
68 102 34
68 102 34
85 119 34
68 102 34
85 119 34
85 119 34
68 119 34
85 119 34
85 119 34
68 102 34
68 102 34
68 102 17
68 102 34
68 102 34
68 102 34
68 102 34
68 102 34
51 102 17
68 102 34
68 102 34
68 102 34
68 102 34
68 119 34
68 102 34
68 102 34
68 102 34
68 102 34
68 102 34
68 102 34
68 119 34
68 102 34
68 102 34
68 102 34
68 102 34
68 102 34
68 102 34
68 102 34
68 102 34
85 119 34
85 119 51
85 119 51
85 119 34
68 102 34
68 102 34
68 102 34
85 119 34
221 221 204
204 221 204
221 221 204
221 221 204
221 221 204
221 221 204
221 221 204
221 221 204
221 221 204
221 221 204
221 221 204
221 221 204
221 221 204
221 221 204
221 221 204
221 221 204
221 221 204
221 221 204
221 221 204
221 221 204
221 221 204
221 221 204
221 221 204
221 221 204
221 221 204
221 221 204
221 221 204
221 221 221
221 221 204
221 221 221
221 221 204
221 221 204
221 221 221
221 221 204
221 221 204
221 221 204
221 221 204
221 221 204
221 221 204
221 221 204
221 221 204
221 221 204
221 221 204
221 221 221
221 221 204
221 221 204
221 221 221
221 221 221
221 221 221
221 221 221
221 221 221
221 221 221
221 221 221
221 221 221
221 221 221
221 221 221
221 221 221
221 221 221
221 238 221
221 238 221
221 238 221
221 238 221
238 238 221
238 238 221
238 238 221
238 238 221
238 238 221
238 238 221
238 238 221
238 238 221
238 238 221
238 238 221
238 238 221
238 238 221
238 238 221
238 238 221
238 238 221
238 238 221
238 238 221
238 238 221
238 238 221
238 238 238
238 238 238
238 238 238
238 238 238
238 238 238
238 238 238
238 238 238
238 238 238
238 238 221
238 238 221
221 221 204
204 204 170
187 187 153
170 170 136
170 170 136
187 187 153
187 187 170
204 204 187
204 204 187
204 221 204
221 221 204
221 238 221
238 238 238
255 255 255
238 238 221
170 170 136
85 119 51
68 102 34
68 102 34
68 102 51
119 136 102
187 204 187
238 238 238
238 238 238
221 238 221
221 221 204
221 221 204
221 221 204
221 221 204
204 204 187
204 204 187
204 204 187
204 204 187
204 204 187
204 204 187
187 187 170
187 187 170
187 187 187
187 187 170
187 187 170
187 187 170
187 187 170
187 187 170
187 187 170
187 187 170
187 187 170
187 187 170
187 187 187
187 187 170
170 170 170
170 170 170
170 170 153
170 170 153
170 170 153
170 170 153
170 170 153
170 170 153
170 170 153
187 187 170
170 187 170
170 170 170
170 170 170
187 187 170
187 187 170
170 170 170
153 153 136
153 153 153
170 170 170
187 187 170
187 187 170
170 170 153
170 170 153
153 153 136
170 170 153
187 187 170
170 170 153
170 170 153
170 170 153
170 170 153
170 170 153
170 187 170
187 187 170
187 187 170
187 187 170
187 187 170
187 187 170
187 170 170
187 187 170
187 187 170
187 187 170
187 204 187
204 204 187
204 204 187
204 204 204
204 221 204
221 221 221
221 221 221
221 221 204
204 221 204
204 221 204
204 221 204
221 221 204
221 221 221
221 221 221
221 238 238
238 238 238
221 221 221
204 204 204
187 204 187
170 187 153
119 136 102
85 102 51
68 102 34
68 102 34
68 102 34
68 102 34
68 102 34
68 102 34
68 102 34
68 102 34
68 102 34
68 102 34
68 102 34
68 102 34
68 102 34
68 102 34
68 102 34
68 102 34
68 102 34
68 102 34
68 102 34
68 102 34
85 119 51
85 119 51
68 102 51
68 102 34
68 102 34
68 102 34
68 102 34
68 102 34
68 102 34
68 119 51
68 102 34
68 102 34
68 102 34
68 102 34
68 102 34
68 102 34
68 102 34
68 102 34
68 102 34
68 102 34
68 102 34
68 102 34
68 102 34
51 85 17
51 85 17
68 102 34
68 102 34
68 102 34
68 102 34
68 102 34
68 102 34
68 102 34
68 119 34
68 102 34
68 102 34
68 102 34
68 102 34
68 102 34
68 102 34
68 102 34
68 102 34
68 102 34
68 102 34
68 102 34
68 102 34
68 102 34
68 102 34
68 102 34
68 102 34
68 102 34
68 102 34
68 102 34
68 102 34
68 102 17
68 102 34
68 119 34
68 102 34
68 102 34
68 119 34
68 119 34
68 102 34
68 102 34
68 102 34
68 102 34
68 102 34
68 102 34
68 119 34
68 102 34
68 102 34
68 102 34
68 119 34
68 102 34
68 102 34
68 102 34
68 102 34
68 102 34
68 102 34
68 102 34
68 102 34
68 102 34
68 102 34
68 102 34
68 102 34
68 102 34
68 102 34
68 102 34
68 102 34
68 102 34
68 102 34
68 102 34
68 102 34
68 102 34
68 119 34
68 102 34
68 102 17
68 102 34
68 102 34
221 221 204
221 221 204
204 221 204
221 221 204
221 221 204
221 221 204
221 221 204
221 221 204
221 221 204
221 221 204
221 221 204
221 221 204
221 221 204
221 221 204
221 221 204
221 221 204
221 221 204
221 221 204
221 221 204
221 221 204
221 221 204
221 221 204
221 221 204
221 221 204
221 221 204
221 221 204
221 221 204
221 221 221
221 221 221
221 221 221
221 221 221
221 221 221
221 221 204
221 221 204
221 221 221
221 221 204
221 221 204
221 221 204
221 221 204
221 221 204
221 221 204
221 221 204
221 221 204
221 221 204
221 221 204
221 221 204
221 221 221
221 221 221
221 221 221
221 221 221
221 221 221
221 221 221
221 221 221
221 221 221
221 221 221
221 221 221
221 221 221
221 221 221
221 238 221
221 238 221
221 238 221
221 238 221
238 238 221
221 238 221
238 238 221
238 238 221
238 238 221
238 238 221
238 238 221
238 238 221
238 238 221
238 238 221
238 238 221
238 238 221
238 238 221
238 238 221
238 238 221
238 238 221
238 238 221
238 238 221
238 238 238
238 238 238
238 238 238
238 238 238
238 238 238
238 238 238
238 238 221
238 238 221
221 221 221
204 204 187
204 187 170
187 187 153
187 187 153
187 187 153
187 187 170
187 187 170
204 204 187
221 221 221
238 238 221
238 238 238
238 238 238
238 238 238
238 255 238
238 255 238
238 255 238
238 255 238
204 204 187
119 136 85
68 102 34
68 102 34
85 119 68
153 170 153
221 221 221
238 238 221
238 238 221
221 221 204
221 221 204
221 221 204
221 221 204
221 221 204
204 204 187
204 204 187
204 204 187
204 204 187
204 204 187
187 187 187
187 187 170
187 187 170
187 187 187
187 187 170
187 187 170
170 170 170
187 187 170
187 187 170
187 187 170
187 187 187
204 204 187
204 204 187
187 187 187
187 187 170
170 187 170
170 170 170
170 170 153
170 170 153
170 170 153
170 170 153
170 170 153
170 170 153
170 170 153
187 187 170
187 187 170
187 187 170
170 187 170
170 187 170
187 187 170
170 170 153
153 153 136
170 170 153
170 170 153
187 187 170
170 187 170
170 170 170
170 170 153
170 153 136
170 170 153
187 187 170
187 187 170
170 170 153
170 170 153
170 170 153
170 170 153
187 187 170
187 187 170
187 187 170
187 187 170
187 187 170
187 187 170
187 187 170
187 187 170
187 187 170
187 187 170
187 187 170
204 204 187
204 204 204
204 204 204
204 204 204
221 221 221
221 221 221
221 221 221
221 221 221
221 221 221
221 221 221
221 221 221
221 221 221
221 238 221
221 238 238
221 238 238
221 221 221
204 204 187
170 170 153
136 153 119
102 136 85
85 119 51
68 102 34
68 102 34
68 102 34
68 102 51
68 102 34
68 102 34
68 102 34
68 102 34
68 102 34
68 102 34
68 102 34
68 102 34
68 102 34
68 102 34
68 102 34
68 102 34
68 102 34
68 102 34
68 102 34
68 102 34
68 102 34
68 102 51
68 102 51
68 102 34
68 102 34
68 102 34
68 102 34
68 102 34
68 119 34
68 119 34
68 102 34
68 102 34
68 102 34
68 102 34
68 102 34
68 102 34
68 102 34
68 102 34
68 102 34
68 102 34
68 102 34
68 102 34
51 85 34
51 102 34
68 102 34
68 102 34
68 102 34
68 102 34
68 102 34
68 102 34
68 102 34
68 102 34
68 119 34
68 102 34
68 119 34
68 102 34
68 102 34
68 102 34
68 102 34
68 102 34
68 102 34
68 102 34
68 102 34
68 119 34
68 102 34
51 102 17
68 102 34
68 102 34
68 102 34
68 102 34
68 102 34
68 102 34
68 102 34
68 102 17
68 102 17
68 102 34
68 102 34
68 102 17
68 102 17
68 102 34
51 102 17
68 102 34
68 102 34
68 119 34
68 119 34
68 102 34
85 119 34
68 102 34
68 102 34
68 102 34
85 119 34
68 102 34
68 102 34
68 102 17
68 102 17
68 102 34
68 102 34
68 102 34
68 102 34
68 102 34
68 102 34
68 102 34
68 119 34
68 102 34
68 102 34
68 102 34
68 102 34
68 102 34
68 102 34
68 102 34
68 102 34
68 102 34
85 119 51
85 119 51
68 102 34
68 102 34
68 102 34
0 0 255
0 0 255
0 0 255
0 0 255
0 0 255
0 0 255
0 0 255
0 0 255
0 0 255
0 0 255
0 0 255
0 0 255
0 0 255
0 0 255
0 0 255
0 0 255
0 0 255
0 0 255
0 0 255
0 0 255
0 0 255
0 0 255
0 0 255
0 0 255
0 0 255
0 0 255
0 0 255
0 0 255
0 0 255
0 0 255
0 0 255
0 0 255
0 0 255
0 0 255
0 0 255
0 0 255
0 0 255
0 0 255
0 0 255
0 0 255
0 0 255
0 0 255
0 0 255
0 0 255
0 0 255
0 0 255
0 0 255
0 0 255
0 0 255
0 0 255
0 0 255
0 0 255
0 0 255
0 0 255
0 0 255
0 0 255
0 0 255
0 0 255
0 0 255
0 0 255
0 0 255
0 0 255
0 0 255
0 0 255
0 0 255
0 0 255
0 0 255
0 0 255
0 0 255
0 0 255
0 0 255
0 0 255
0 0 255
0 0 255
0 0 255
0 0 255
0 0 255
0 0 255
0 0 255
0 0 255
0 0 255
0 0 255
0 0 255
0 0 255
0 0 255
0 0 255
0 0 255
0 0 255
0 0 255
0 0 255
0 0 255
0 0 255
0 0 255
0 0 255
0 0 255
0 0 255
0 0 255
0 0 255
0 0 255
0 0 255
0 0 255
0 0 255
0 0 255
0 0 255
0 0 255
0 0 255
0 0 255
0 0 255
0 0 255
0 0 255
0 0 255
0 0 255
0 0 255
0 0 255
0 0 255
0 0 255
0 0 255
0 0 255
0 0 255
0 0 255
0 0 255
0 0 255
0 0 255
0 0 255
0 0 255
0 0 255
0 0 255
0 0 255
0 0 255
0 0 255
0 0 255
0 0 255
0 0 255
0 0 255
0 0 255
0 0 255
0 0 255
0 0 255
0 0 255
0 0 255
0 0 255
0 0 255
0 0 255
0 0 255
0 0 255
0 0 255
0 0 255
0 0 255
0 0 255
0 0 255
0 0 255
0 0 255
0 0 255
0 0 255
0 0 255
0 0 255
0 0 255
0 0 255
0 0 255
0 0 255
0 0 255
0 0 255
0 0 255
0 0 255
0 0 255
0 0 255
0 0 255
0 0 255
0 0 255
0 0 255
0 0 255
0 0 255
0 0 255
0 0 255
0 0 255
0 0 255
0 0 255
0 0 255
0 0 255
0 0 255
0 0 255
0 0 255
0 0 255
0 0 255
0 0 255
0 0 255
0 0 255
0 0 255
0 0 255
0 0 255
0 0 255
0 0 255
0 0 255
0 0 255
0 0 255
0 0 255
0 0 255
0 0 255
0 0 255
0 0 255
0 0 255
0 0 255
0 0 255
0 0 255
0 0 255
0 0 255
0 0 255
0 0 255
0 0 255
0 0 255
0 0 255
0 0 255
0 0 255
0 0 255
0 0 255
0 0 255
0 0 255
0 0 255
0 0 255
0 0 255
0 0 255
0 0 255
0 0 255
0 0 255
0 0 255
0 0 255
0 0 255
0 0 255
0 0 255
0 0 255
0 0 255
0 0 255
0 0 255
0 0 255
0 0 255
0 0 255
0 0 255
0 0 255
0 0 255
0 0 255
0 0 255
0 0 255
0 0 255
0 0 255
0 0 255
0 0 255
0 0 255
0 0 255
0 0 255
0 0 255
0 0 255
0 0 255
0 0 255
0 0 255
0 0 255
0 0 255
0 0 255
0 0 255
0 0 255
0 0 255
0 0 255
0 0 255
0 0 255
0 0 255
0 0 255
0 0 255
0 0 255
0 0 255
0 0 255
0 0 255
0 0 255
0 0 255
0 0 255
0 0 255
0 0 255
0 0 255
0 0 255
0 0 255
0 0 255
0 0 255
0 0 255
0 0 255
0 0 255
0 0 255
0 0 255
0 0 255
0 0 255
0 0 255
0 0 255
0 0 255
0 0 255
0 0 255
0 0 255
0 0 255
0 0 255
0 0 255
0 0 255
0 0 255
0 0 255
0 0 255
0 0 255
0 0 255
0 0 255
0 0 255
0 0 255
0 0 255
0 0 255
0 0 255
0 0 255
0 0 255
0 0 255
0 0 255
0 0 255
0 0 255
0 0 255
0 0 255
0 0 255
0 0 255
0 0 255
0 0 255
0 0 255
0 0 255
0 0 255
0 0 255
0 0 255
0 0 255
0 0 255
0 0 255
0 0 255
0 0 255
0 0 255
0 0 255
0 0 255
0 0 255
0 0 255
0 0 255
0 0 255
0 0 255
0 0 255
0 0 255
0 0 255
0 0 255
0 0 255
0 0 255
0 0 255
0 0 255
0 0 255
0 0 255
0 0 255
0 0 255
0 0 255
0 0 255
0 0 255
0 0 255
0 0 255
0 0 255
0 0 255
0 0 255
0 0 255
0 0 255
0 0 255
0 0 255
0 0 255
0 0 255
0 0 255
0 0 255
0 0 255
0 0 255
0 0 255
0 0 255
0 0 255
0 0 255
0 0 255
0 0 255
0 0 255
0 0 255
0 0 255
0 0 255
0 0 255
0 0 255
0 0 255
0 0 255
0 0 255
0 0 255
0 0 255
0 0 255
0 0 255
0 0 255
0 0 255
0 0 255
0 0 255
0 0 255
0 0 255
0 0 255
0 0 255
0 0 255
0 0 255
0 0 255
0 0 255
0 0 255
0 0 255
0 0 255
0 0 255
0 0 255
0 0 255
0 0 255
0 0 255
0 0 255
0 0 255
0 0 255
0 0 255
0 0 255
0 0 255
0 0 255
0 0 255
0 0 255
0 0 255
0 0 255
0 0 255
0 0 255
0 0 255
0 0 255
0 0 255
0 0 255
0 0 255
0 0 255
0 0 255
0 0 255
0 0 255
0 0 255
0 0 255
0 0 255
0 0 255
0 0 255
0 0 255
0 0 255
0 0 255
0 0 255
0 0 255
0 0 255
0 0 255
0 0 255
0 0 255
0 0 255
0 0 255
0 0 255
0 0 255
0 0 255
0 0 255
0 0 255
0 0 255
0 0 255
0 0 255
0 0 255
0 0 255
0 0 255
0 0 255
0 0 255
0 0 255
0 0 255
0 0 255
0 0 255
0 0 255
0 0 255
0 0 255
0 0 255
0 0 255
0 0 255
0 0 255
0 0 255
0 0 255
0 0 255
0 0 255
0 0 255
0 0 255
0 0 255
0 0 255
0 0 255
0 0 255
0 0 255
0 0 255
0 0 255
0 0 255
0 0 255
0 0 255
0 0 255
0 0 255
0 0 255
0 0 255
0 0 255
0 0 255
0 0 255
0 0 255
0 0 255
0 0 255
0 0 255
0 0 255
0 0 255
0 0 255
0 0 255
0 0 255
0 0 255
0 0 255
0 0 255
0 0 255
0 0 255
0 0 255
0 0 255
0 0 255
0 0 255
0 0 255
0 0 255
0 0 255
0 0 255
0 0 255
0 0 255
0 0 255
0 0 255
0 0 255
0 0 255
0 0 255
0 0 255
0 0 255
0 0 255
0 0 255
0 0 255
0 0 255
0 0 255
0 0 255
0 0 255
0 0 255
0 0 255
0 0 255
0 0 255
0 0 255
0 0 255
0 0 255
0 0 255
0 0 255
0 0 255
0 0 255
0 0 255
0 0 255
0 0 255
0 0 255
0 0 255
0 0 255
0 0 255
0 0 255
0 0 255
0 0 255
0 0 255
0 0 255
0 0 255
0 0 255
0 0 255
0 0 255
0 0 255
0 0 255
0 0 255
0 0 255
0 0 255
0 0 255
0 0 255
0 0 255
0 0 255
0 0 255
0 0 255
0 0 255
0 0 255
0 0 255
0 0 255
0 0 255
0 0 255
0 0 255
0 0 255
0 0 255
0 0 255
0 0 255
0 0 255
0 0 255
0 0 255
0 0 255
0 0 255
0 0 255
0 0 255
0 0 255
0 0 255
0 0 255
0 0 255
0 0 255
0 0 255
0 0 255
0 0 255
0 0 255
0 0 255
0 0 255
0 0 255
0 0 255
0 0 255
0 0 255
0 0 255
0 0 255
0 0 255
0 0 255
0 0 255
0 0 255
0 0 255
0 0 255
0 0 255
0 0 255
0 0 255
0 0 255
0 0 255
0 0 255
0 0 255
0 0 255
0 0 255
0 0 255
0 0 255
0 0 255
0 0 255
0 0 255
0 0 255
0 0 255
0 0 255
0 0 255
0 0 255
0 0 255
0 0 255
0 0 255
0 0 255
0 0 255
0 0 255
0 0 255
0 0 255
0 0 255
0 0 255
0 0 255
0 0 255
221 221 204
221 221 204
221 221 204
221 221 204
221 221 204
221 221 204
221 221 204
221 221 204
221 221 204
221 221 204
221 221 204
221 221 204
221 221 204
221 221 204
221 221 204
221 221 204
221 221 204
221 221 204
221 221 204
221 221 204
221 221 204
221 221 204
221 221 204
221 221 221
221 221 204
221 221 204
221 221 204
221 221 221
221 221 221
221 221 204
221 221 204
221 221 221
221 221 221
221 221 204
221 221 204
221 221 204
221 221 204
221 221 204
221 221 204
221 221 204
221 221 221
221 221 204
221 221 204
221 221 221
221 221 204
221 221 221
221 221 221
221 221 221
221 221 221
221 221 221
221 221 221
221 221 221
221 221 221
221 221 221
221 221 221
221 221 221
221 221 221
221 221 221
221 221 221
221 221 221
221 238 221
221 238 221
238 238 221
238 238 221
238 238 221
238 238 221
238 238 221
238 238 221
238 238 221
238 238 221
238 238 221
238 238 221
238 238 221
238 238 221
238 238 221
238 238 221
238 238 221
238 238 221
221 238 221
221 221 221
204 204 204
204 204 187
204 204 187
204 204 187
204 204 204
221 221 204
238 238 221
238 238 221
238 238 238
238 238 238
238 238 238
238 238 238
238 238 238
238 238 238
238 238 238
238 238 238
238 255 238
238 255 238
238 255 238
238 255 238
238 255 238
238 255 238
238 255 238
255 255 238
238 255 238
238 255 238
0 0 255
0 0 255
170 187 170
136 153 136
204 204 187
238 238 221
238 238 221
238 238 221
221 221 221
221 221 204
221 221 204
221 221 204
204 204 204
204 204 187
204 204 187
204 204 187
204 204 187
187 187 170
187 187 170
187 187 170
187 187 170
187 187 170
170 170 153
170 170 153
170 170 153
170 170 153
170 170 153
170 170 153
170 170 170
187 187 170
187 187 187
187 187 187
187 187 187
187 187 170
187 187 170
187 187 170
187 187 170
187 187 170
170 170 153
170 170 153
170 170 153
153 153 136
153 153 136
170 170 153
170 187 170
187 187 170
187 187 187
187 187 187
187 187 187
170 170 153
153 153 136
170 170 153
170 170 153
170 170 153
170 170 170
187 187 170
170 170 170
187 187 170
187 187 187
187 187 170
187 187 170
170 170 153
170 170 153
170 170 153
187 187 170
187 187 187
187 187 187
170 170 170
170 170 153
170 153 153
170 170 153
170 170 153
170 170 153
170 170 170
187 187 170
187 187 170
187 187 170
187 187 170
187 187 170
187 187 187
204 204 187
204 204 204
204 204 204
204 204 187
204 204 204
204 204 204
204 204 204
204 221 204
221 221 221
221 221 221
221 221 221
204 221 204
170 187 153
119 136 102
85 102 51
68 102 34
68 102 34
68 102 34
68 102 34
68 102 34
68 102 34
68 102 34
68 102 34
68 102 34
68 102 51
68 102 51
68 102 34
0 0 255
0 0 255
68 102 34
68 102 34
68 102 34
68 102 34
68 102 34
68 102 34
68 102 34
68 102 34
51 102 34
68 85 34
68 102 34
68 102 34
68 102 34
68 102 34
68 102 34
51 85 17
51 85 17
68 102 34
68 102 34
68 102 34
68 102 17
51 102 17
68 102 34
68 102 34
68 102 34
68 102 34
68 102 34
68 102 34
68 102 34
68 102 34
68 102 34
68 102 34
68 102 34
68 102 34
68 102 34
68 102 34
68 102 51
68 102 51
68 102 34
68 102 34
68 102 34
68 102 34
68 102 34
68 102 34
68 102 34
51 102 17
68 102 34
68 102 34
68 102 34
68 102 34
68 102 34
68 102 34
68 102 34
68 102 34
68 102 34
68 102 34
68 102 34
68 102 34
68 102 34
68 102 34
51 102 17
68 102 34
68 102 34
68 102 34
68 102 17
68 102 34
68 102 34
68 102 34
68 102 34
68 102 34
51 102 17
68 102 34
68 102 34
68 102 34
68 102 34
68 102 34
68 102 34
68 119 34
68 102 34
68 102 34
68 102 34
68 102 34
68 102 34
68 102 34
68 102 34
68 102 34
68 102 34
68 102 34
68 102 34
68 102 34
68 85 34
51 85 17
68 102 34
68 102 34
68 102 34
68 102 34
68 102 34
68 102 34
68 119 34
68 102 34
68 102 34
68 102 34
68 102 34
68 102 34
68 102 34
221 221 204
221 221 204
221 221 204
221 221 204
221 221 204
221 221 204
221 221 204
221 221 204
221 221 204
221 221 204
221 221 204
221 221 204
221 221 204
221 221 204
221 221 204
221 221 204
221 221 204
221 221 204
221 221 204
221 221 204
221 221 221
221 221 204
221 221 204
221 221 204
221 221 204
221 221 204
221 221 204
221 221 204
221 221 204
221 221 204
221 221 221
221 221 221
221 221 221
221 221 204
221 221 204
221 221 204
221 221 204
221 221 204
221 221 204
221 221 204
221 221 221
221 221 204
221 221 221
221 221 221
221 221 204
221 221 221
221 221 204
221 221 221
221 221 221
221 221 221
221 221 221
221 221 221
221 221 221
221 221 221
221 221 221
221 221 221
221 221 221
221 221 221
221 221 221
221 238 221
221 238 221
221 238 221
238 238 221
238 238 221
238 238 221
238 238 221
238 238 221
238 238 221
238 238 221
238 238 221
238 238 221
238 238 221
238 238 221
238 238 221
221 221 221
221 221 221
204 221 204
204 204 204
187 187 187
187 187 170
170 187 170
187 187 170
204 204 204
238 238 221
238 238 238
238 238 238
238 238 238
238 238 238
238 238 238
238 238 238
238 238 238
238 238 238
238 238 238
238 238 238
238 238 238
238 238 238
238 255 238
238 255 238
238 255 238
238 255 238
238 255 238
238 255 238
238 255 238
238 255 238
238 255 238
255 255 238
0 0 255
0 0 255
221 221 221
204 204 187
221 221 204
238 221 221
238 238 221
221 221 221
221 221 204
221 221 204
221 221 204
221 221 204
221 221 204
204 204 187
204 204 187
204 204 187
187 204 170
187 187 170
187 187 170
187 187 170
187 187 170
187 187 170
170 170 153
170 170 153
170 170 153
170 153 153
153 153 136
153 153 136
170 153 153
187 170 170
187 187 187
187 187 187
187 187 187
187 187 187
187 187 187
187 187 170
170 170 170
170 170 170
170 170 153
170 170 153
153 153 153
153 153 136
153 153 153
170 170 170
187 187 170
170 187 170
187 187 187
187 204 187
187 187 187
153 153 153
153 153 136
170 170 153
170 170 153
170 170 153
170 187 170
187 187 170
187 187 170
187 187 170
187 187 187
187 187 170
170 170 170
170 170 170
170 170 153
170 170 170
187 187 170
187 187 187
187 187 187
187 187 170
170 170 153
170 170 153
170 170 153
170 170 153
170 170 153
170 170 170
187 187 170
187 187 170
187 187 170
187 187 170
187 187 170
187 187 170
187 187 187
187 187 187
187 187 187
187 187 187
187 204 187
204 204 204
204 204 204
204 204 204
204 221 204
221 221 221
221 221 221
204 221 204
153 170 153
102 136 85
68 102 51
68 102 34
68 102 34
68 102 34
68 102 34
68 102 34
68 102 51
68 102 34
68 102 34
68 102 34
85 102 51
85 102 51
68 102 34
0 0 255
0 0 255
68 102 34
68 102 34
68 102 34
68 85 34
68 102 34
68 102 34
68 102 34
68 102 34
68 102 34
68 102 34
68 102 34
68 102 34
68 102 34
68 102 34
68 102 34
51 102 34
51 102 34
68 102 34
68 102 34
68 102 34
68 102 34
51 85 17
68 102 34
68 102 34
68 102 34
68 102 34
68 102 34
68 102 34
68 102 34
68 102 34
68 102 34
68 102 34
68 102 34
68 102 34
68 102 34
68 102 51
68 102 34
68 102 51
85 119 51
85 119 51
68 102 34
68 102 34
68 102 34
68 102 51
68 102 34
68 102 34
68 102 34
68 102 34
68 102 34
85 119 51
85 119 51
85 119 51
68 102 34
68 102 34
68 102 34
68 102 34
68 102 34
68 102 34
68 102 34
68 102 34
68 102 34
68 102 34
68 102 34
68 102 34
68 102 17
68 102 34
68 102 34
51 102 17
68 102 34
68 102 34
68 102 17
68 102 17
68 102 34
68 102 34
68 102 34
85 119 51
68 119 34
68 102 34
68 119 34
68 102 34
68 102 34
68 102 34
68 102 34
68 102 34
68 102 34
68 119 34
68 102 34
68 102 34
68 102 34
68 102 34
68 102 34
68 102 34
68 102 34
68 119 34
68 119 51
68 102 34
68 102 34
68 102 34
68 102 34
68 119 51
68 102 34
68 119 51
68 102 34
68 102 34
68 102 34
221 221 204
221 221 204
221 221 204
221 221 204
204 221 204
221 221 204
221 221 204
221 221 204
221 221 204
221 221 204
221 221 204
221 221 204
221 221 204
221 221 204
221 221 204
221 221 204
221 221 204
221 221 204
221 221 204
221 221 204
221 221 221
221 221 204
221 221 204
221 221 204
221 221 204
221 221 204
221 221 204
221 221 204
221 221 204
221 221 204
221 221 221
221 221 204
221 221 204
221 221 204
221 221 204
221 221 204
221 221 204
221 221 221
221 221 204
221 221 204
221 221 204
221 221 221
221 221 204
221 221 204
221 221 204
221 221 221
221 221 204
221 221 221
221 221 221
221 221 221
221 221 221
221 221 221
221 221 221
221 221 221
221 221 221
221 221 221
221 221 221
221 221 221
221 221 221
221 238 221
221 221 221
221 238 221
238 238 221
238 238 221
238 238 221
238 238 221
238 238 221
238 238 221
238 238 221
238 238 221
238 238 221
238 238 221
221 221 221
187 187 187
187 187 187
187 187 187
170 187 170
187 187 170
187 187 170
187 187 187
204 204 187
221 221 204
238 238 221
238 238 238
238 238 238
238 238 238
238 238 238
238 238 238
238 238 238
238 238 238
238 238 238
238 238 238
238 238 238
238 238 238
238 238 238
238 255 238
238 255 238
238 255 238
238 255 238
238 255 238
238 255 238
238 255 238
238 255 238
238 255 238
238 255 238
255 255 238
0 0 255
0 0 255
238 238 221
221 221 221
221 238 221
221 221 221
221 221 221
221 221 204
221 221 204
221 221 204
221 221 204
221 221 204
221 221 204
204 204 187
204 204 187
187 187 170
187 187 170
187 187 170
187 187 170
187 187 170
187 187 170
187 187 170
187 170 170
170 170 153
170 170 153
170 170 153
153 153 136
153 136 136
153 136 136
170 153 136
187 170 153
187 187 170
204 187 187
187 187 187
187 187 170
187 187 170
170 170 170
170 170 170
170 170 153
170 170 153
170 170 153
170 170 153
170 170 153
170 170 170
187 187 170
170 170 153
187 187 187
204 204 187
187 187 170
153 153 153
153 153 153
153 153 153
170 170 153
170 170 153
170 187 170
170 187 170
187 187 170
187 187 170
187 187 170
170 170 170
170 170 170
170 170 170
170 170 153
170 170 170
170 170 153
187 187 170
187 187 170
187 187 170
170 170 170
170 170 153
170 170 153
170 170 170
170 170 153
170 170 153
187 187 170
187 187 187
187 187 170
187 187 187
187 187 170
187 187 187
187 187 170
187 170 170
187 170 170
187 187 170
187 187 187
204 204 187
204 204 204
204 221 204
204 221 204
221 221 221
221 238 238
221 221 221
170 187 170
119 153 119
85 119 68
68 102 34
68 102 34
68 102 34
68 102 34
68 102 51
68 102 51
85 119 51
85 102 51
68 102 51
68 102 51
68 102 51
68 102 51
0 0 255
0 0 255
51 102 34
51 102 34
51 85 34
51 85 34
51 85 34
68 102 34
68 102 34
68 102 51
68 102 51
68 102 51
68 102 51
68 102 34
68 102 34
68 102 34
68 102 34
68 102 34
68 102 34
68 102 34
68 102 34
68 102 34
68 102 34
68 102 34
68 102 34
68 102 34
68 102 34
68 102 34
68 102 34
68 102 34
68 102 34
68 102 34
68 102 34
68 102 34
68 102 34
68 102 34
68 102 34
68 102 34
68 102 34
68 102 34
68 102 51
68 102 34
68 102 34
68 102 34
68 102 34
68 102 34
68 102 34
68 102 34
68 102 34
68 102 34
68 102 34
68 102 34
68 102 34
68 102 34
68 102 34
68 102 34
68 102 34
68 119 34
68 102 34
68 102 34
68 102 34
68 102 34
68 102 34
68 102 34
68 102 34
51 102 17
51 102 17
68 102 34
68 102 34
68 102 34
68 102 34
68 102 34
68 102 34
51 102 17
68 102 17
68 102 34
85 119 34
85 119 51
68 102 34
68 102 34
68 102 34
68 102 34
68 102 34
68 102 34
68 102 34
68 102 34
68 102 34
85 119 51
68 119 34
68 102 34
68 102 34
68 102 34
68 102 34
68 102 34
68 102 34
68 102 34
68 102 34
68 102 34
68 102 34
68 102 34
68 102 34
68 102 34
68 102 34
68 119 51
68 102 34
68 102 34
68 102 34
204 221 204
221 221 204
221 221 204
221 221 204
221 221 204
221 221 204
221 221 204
204 221 204
221 221 204
221 221 204
221 221 204
221 221 204
221 221 204
221 221 221
221 221 204
221 221 221
221 221 221
221 221 204
221 221 204
221 221 221
221 221 221
221 221 221
221 221 221
221 221 204
221 221 204
221 221 204
221 221 204
221 221 221
221 221 204
221 221 204
221 221 204
221 221 204
221 221 204
221 221 204
221 221 204
221 221 204
221 221 204
221 221 204
221 221 204
221 221 204
221 221 204
221 221 204
221 221 204
221 221 204
221 221 204
221 221 221
221 221 204
221 221 221
221 221 204
221 221 221
221 221 221
221 221 221
221 221 221
221 221 221
221 221 221
221 221 221
221 221 221
221 221 221
221 238 221
221 238 221
221 238 221
238 238 221
238 238 221
238 238 221
238 238 221
221 238 221
238 238 221
238 238 221
238 238 221
238 238 221
238 238 221
221 221 221
221 221 204
187 187 170
170 187 170
187 187 187
204 204 187
204 204 204
221 221 221
238 238 221
238 238 238
238 238 238
238 238 238
238 238 238
238 238 238
238 238 238
238 238 238
238 238 238
238 238 238
238 238 238
238 238 238
238 238 238
238 238 238
238 238 238
255 238 238
238 255 238
238 255 238
238 255 238
238 255 238
238 255 238
238 255 238
238 255 238
238 255 238
238 255 238
238 238 238
238 238 238
0 0 255
0 0 255
238 238 221
238 238 221
221 221 221
221 221 204
221 221 204
221 221 204
221 221 204
221 221 204
221 221 204
221 221 204
204 204 204
204 204 187
204 204 187
187 187 170
187 187 170
187 187 170
187 187 170
187 187 170
187 187 170
170 170 170
170 170 153
170 170 153
170 170 153
170 153 136
153 153 136
153 153 136
153 136 136
153 136 119
170 136 119
187 170 153
187 187 187
187 187 170
187 187 170
187 170 170
170 170 170
170 170 153
170 170 153
170 170 153
170 170 170
187 187 170
170 170 170
170 170 153
170 170 153
170 170 153
187 187 187
204 204 187
187 187 187
170 170 153
170 170 153
153 153 153
170 170 153
170 170 153
170 170 170
170 170 170
170 170 170
187 187 170
187 187 170
170 170 153
170 170 153
170 170 170
187 187 170
187 187 170
170 170 153
170 170 153
170 170 153
170 170 170
170 170 170
170 170 170
170 170 170
170 170 170
170 170 153
170 170 153
187 187 170
187 187 187
187 187 170
187 187 170
187 187 170
187 187 187
187 187 170
187 170 170
170 170 170
187 187 170
187 187 187
204 204 187
204 204 204
204 221 204
221 221 221
221 221 221
221 238 238
238 238 238
221 221 221
170 187 170
119 136 102
85 119 68
68 102 51
68 102 34
68 102 34
68 102 51
68 102 34
68 102 34
68 102 51
68 102 51
68 102 51
68 102 51
68 102 51
0 0 255
0 0 255
51 102 34
51 102 34
68 102 34
68 102 34
68 102 34
68 102 34
68 102 34
68 102 34
68 102 34
68 102 34
68 102 51
68 102 51
68 102 34
68 102 34
68 102 34
51 102 34
68 102 34
68 102 34
68 102 34
68 102 34
68 102 34
68 102 34
68 102 34
68 102 34
68 102 34
68 102 34
68 102 34
68 102 34
68 102 34
68 102 34
68 102 34
68 102 34
68 102 34
68 102 34
68 102 34
68 102 34
68 102 34
68 102 51
68 102 34
68 102 34
68 102 34
68 102 34
68 119 51
68 102 34
68 102 34
68 102 34
68 102 34
68 102 34
68 102 34
51 102 17
68 102 34
68 102 34
68 102 34
68 102 34
68 102 34
68 102 34
68 102 34
68 102 34
68 102 34
68 102 34
68 102 34
68 102 34
68 102 34
68 102 17
68 102 34
68 102 34
68 102 34
68 102 34
68 102 34
68 102 34
68 102 34
68 102 34
68 102 17
68 102 17
68 102 34
68 102 34
68 102 34
68 102 34
68 102 34
68 102 34
68 102 34
68 102 34
68 102 34
68 102 34
68 102 34
68 102 34
68 102 34
68 102 34
68 102 34
68 102 34
68 102 34
68 102 34
68 102 34
68 102 34
68 102 34
68 102 34
68 102 34
68 102 34
68 102 34
68 119 51
68 102 34
68 119 34
68 102 34
68 102 34
68 102 34
204 221 204
221 221 204
221 221 204
221 221 204
221 221 204
221 221 204
221 221 204
221 221 204
221 221 204
221 221 204
221 221 204
221 221 204
221 221 204
221 221 204
221 221 221
221 221 204
221 221 204
221 221 204
221 221 221
221 221 221
221 221 221
221 221 204
221 221 204
221 221 204
221 221 204
221 221 204
221 221 204
221 221 204
221 221 221
221 221 221
221 221 221
221 221 204
221 221 204
221 221 204
221 221 204
221 221 204
221 221 204
221 221 204
221 221 204
221 221 204
221 221 204
221 221 204
221 221 204
221 221 204
221 221 204
221 221 204
221 221 204
221 221 221
221 221 221
221 221 221
221 221 221
221 221 221
221 221 221
221 221 221
221 221 221
221 221 221
221 221 221
221 221 221
221 221 221
221 238 221
221 238 221
221 238 221
221 238 221
238 238 221
238 238 221
221 221 221
221 221 204
221 221 204
221 221 204
221 221 204
221 221 204
221 221 221
221 221 221
221 221 204
221 221 204
238 238 221
238 238 221
238 238 221
238 238 238
238 238 238
238 238 238
238 238 238
238 238 238
238 238 238
238 238 238
238 238 238
238 238 238
238 238 238
238 238 238
238 238 238
238 238 238
238 255 238
238 255 238
238 238 238
255 255 238
238 255 238
238 255 238
238 255 238
238 255 238
238 255 238
238 255 238
238 255 238
238 255 238
238 238 238
238 238 221
238 238 204
0 0 255
0 0 255
238 238 221
221 221 221
221 221 204
221 221 204
221 221 204
221 221 204
221 221 204
221 221 204
221 221 204
221 221 204
221 221 204
204 204 204
204 204 187
187 187 170
187 187 170
187 187 170
187 187 170
187 187 170
187 187 170
170 170 153
170 170 153
170 170 153
170 170 153
170 153 136
153 153 136
153 153 136
153 153 136
153 136 119
153 136 119
170 136 136
187 170 153
187 170 170
187 170 170
170 170 153
170 153 153
170 170 153
170 153 153
170 170 153
187 187 170
187 187 170
170 170 153
153 153 136
153 153 153
170 170 153
187 187 170
187 204 187
187 187 187
170 170 153
170 170 153
153 153 153
170 170 153
170 170 153
170 170 153
170 170 153
170 170 170
187 187 170
187 187 170
170 170 170
170 170 153
170 187 170
187 187 187
187 187 170
170 170 153
170 170 153
170 170 153
187 187 170
187 187 170
170 170 170
170 170 170
187 187 170
170 170 153
170 170 153
187 187 170
187 187 187
170 170 170
170 170 170
170 170 170
187 187 170
170 170 170
170 170 170
187 170 170
187 187 187
187 187 187
187 204 187
204 204 204
204 204 204
221 221 221
221 238 221
238 238 238
238 238 238
221 238 238
204 221 221
170 187 170
136 153 119
85 119 68
68 102 51
68 102 51
68 102 51
68 102 51
68 102 51
68 102 51
68 102 51
68 102 51
68 102 51
68 102 51
0 0 255
0 0 255
51 102 34
51 102 34
68 102 34
68 102 34
68 102 34
68 102 34
68 102 34
68 102 34
68 102 34
68 102 34
68 102 51
85 102 51
68 102 51
68 102 34
68 102 34
68 102 34
51 102 34
51 102 34
68 102 34
68 102 34
68 102 34
68 102 34
68 102 34
68 102 34
51 102 34
51 85 17
51 102 34
68 102 34
68 102 34
68 102 34
68 102 34
68 102 34
68 102 34
68 102 34
68 102 34
68 102 51
68 102 34
68 102 34
68 102 34
68 102 34
68 102 34
68 102 34
68 102 34
85 119 51
68 102 34
68 102 34
68 102 34
68 102 34
68 102 34
68 102 34
68 102 34
68 102 34
68 102 34
68 102 34
68 102 34
68 102 34
68 102 34
68 102 34
68 102 34
68 102 34
68 102 34
68 102 34
68 102 34
68 102 34
68 102 34
68 102 34
85 119 51
68 102 34
68 102 34
68 102 34
68 102 34
68 102 34
68 102 34
68 102 34
68 102 34
68 102 34
68 102 34
51 102 34
68 102 34
68 102 34
68 102 34
68 102 34
68 102 34
68 102 34
68 102 34
51 85 34
51 85 34
51 85 34
68 102 34
68 102 34
51 85 34
51 85 17
51 85 17
68 102 34
68 102 34
68 102 34
68 102 34
68 102 34
85 119 51
85 119 51
85 119 51
85 119 51
68 102 34
68 102 34
68 102 34
221 221 204
204 221 204
221 221 204
221 221 204
221 221 204
221 221 204
221 221 204
221 221 204
221 221 204
221 221 204
221 221 204
221 221 204
221 221 221
221 221 204
221 221 204
221 221 204
221 221 204
221 221 221
221 221 221
221 221 221
221 221 204
221 221 204
221 221 204
221 221 221
221 221 204
221 221 204
221 221 204
221 221 204
221 221 221
221 221 204
221 221 204
221 221 204
221 221 204
221 221 204
221 221 204
221 221 204
221 221 204
136 136 119
0 0 0
204 204 187
221 221 221
221 221 221
221 221 221
221 221 221
221 221 221
221 221 204
221 221 221
221 221 221
221 221 221
221 221 221
221 221 221
221 221 221
221 221 221
221 221 221
221 221 221
221 221 221
221 221 221
221 221 221
221 221 221
204 204 204
85 85 68
0 0 0
221 221 204
221 221 204
221 221 204
221 221 204
221 221 204
221 221 221
238 238 221
238 238 221
238 238 221
238 238 221
238 238 221
238 238 221
238 238 221
238 238 221
238 238 221
238 238 221
238 238 221
238 238 238
238 238 238
238 238 238
238 238 238
238 238 238
238 238 238
238 238 238
238 238 238
238 238 238
238 238 238
238 238 238
238 238 238
238 255 238
255 255 238
255 255 238
255 255 238
255 255 238
255 255 238
255 255 238
238 255 238
238 255 238
238 255 238
238 238 238
238 238 238
238 238 221
238 238 204
221 221 204
0 0 255
0 0 255
238 238 221
221 221 204
221 221 204
221 221 204
221 221 204
221 221 204
221 221 204
221 221 204
221 221 204
221 221 204
221 221 204
204 204 204
204 204 187
187 187 170
187 187 170
187 187 170
187 187 170
187 187 170
187 187 170
170 170 153
170 170 153
187 170 170
170 170 153
170 153 136
153 153 136
153 153 136
153 153 136
153 153 136
153 136 119
153 119 102
170 136 136
187 153 153
187 170 153
170 153 153
102 85 85
0 0 0
153 136 136
187 170 170
187 187 187
187 187 170
170 170 153
153 136 136
153 153 153
170 170 170
187 187 170
187 187 187
187 204 187
170 170 153
153 153 153
153 153 153
170 170 153
170 170 153
170 170 153
170 170 153
170 170 170
187 187 170
119 119 102
34 34 34
34 34 17
136 136 119
187 187 187
170 170 170
170 170 153
170 170 170
170 170 153
187 187 170
187 187 187
187 187 170
187 187 170
187 187 170
170 170 170
153 153 153
170 170 170
170 170 170
170 170 153
170 170 153
170 170 153
170 170 170
170 170 170
187 170 170
187 187 170
187 187 187
187 204 187
204 204 187
204 204 204
204 221 221
221 221 221
238 238 238
238 238 238
238 238 238
238 238 238
221 221 221
187 204 187
153 170 153
119 136 119
119 136 102
102 136 102
102 136 85
102 136 85
85 119 85
85 119 68
85 119 68
68 119 68
85 119 68
68 119 68
0 0 255
0 0 255
68 102 51
68 102 51
68 102 51
68 102 51
68 102 51
68 102 51
68 102 34
68 102 34
51 102 34
51 102 34
68 102 51
68 102 51
68 102 51
68 102 51
68 102 34
68 102 34
68 102 34
51 102 34
68 102 34
68 102 34
68 102 34
51 102 34
51 102 34
51 102 34
68 102 34
68 102 34
68 102 34
68 102 34
68 102 34
68 102 34
68 102 34
68 102 34
68 102 34
68 102 34
68 102 51
68 102 51
68 102 34
34 51 17
0 0 255
68 102 34
68 102 34
68 102 34
68 102 34
68 102 51
68 102 34
68 102 34
51 102 17
68 102 34
68 102 34
68 102 34
68 102 34
68 102 34
68 102 34
68 102 34
68 102 34
68 102 34
68 102 34
68 102 34
51 85 34
17 34 0
17 17 0
0 17 0
51 68 17
68 102 34
68 102 34
68 102 34
85 119 51
85 119 51
68 102 34
68 102 34
68 119 51
68 102 34
68 102 34
68 102 34
85 119 51
85 119 51
68 102 34
68 102 34
68 102 34
68 102 34
68 102 34
68 102 34
68 102 34
68 102 34
68 102 34
51 85 34
51 85 17
68 85 34
68 102 34
68 102 34
68 102 34
51 102 34
51 102 34
68 102 34
68 102 34
68 119 51
68 102 51
68 102 51
85 119 51
85 119 51
68 102 51
68 102 34
68 119 51
68 119 51
68 119 51
221 221 204
204 221 204
221 221 204
221 221 204
221 221 204
221 221 204
221 221 204
221 221 204
221 221 204
221 221 204
221 221 204
221 221 204
221 221 204
221 221 221
221 221 221
221 221 221
221 221 221
221 221 221
221 221 221
221 221 204
221 221 204
221 221 204
221 221 204
221 221 204
221 221 204
221 221 204
221 221 204
221 221 221
221 221 221
221 221 204
221 221 204
221 221 204
221 221 204
221 221 204
221 221 204
221 221 204
221 221 204
68 68 68
102 102 85
136 136 136
221 221 204
221 221 204
221 221 204
221 221 204
221 221 204
221 221 204
221 221 204
221 221 204
221 221 221
221 221 221
221 221 221
221 221 204
221 221 204
221 221 221
221 221 204
221 221 204
221 221 204
221 221 204
221 221 204
51 51 34
119 119 119
0 0 0
221 221 221
221 238 221
238 238 221
238 238 221
238 238 221
238 238 221
238 238 221
238 238 221
238 238 221
238 238 221
238 238 221
238 238 221
238 238 221
238 238 221
238 238 221
238 238 221
238 238 238
238 238 238
238 238 238
238 238 238
238 238 238
238 238 238
238 238 238
238 238 238
238 238 221
238 238 221
238 238 238
238 238 238
238 238 238
255 255 238
255 255 238
255 255 238
255 255 238
255 255 238
255 255 238
255 255 238
255 255 238
238 255 238
238 238 238
238 238 221
238 238 221
238 238 204
221 221 204
238 238 221
0 0 255
0 0 255
221 221 204
221 221 204
221 221 204
221 221 204
221 221 204
221 221 204
221 221 204
221 221 204
221 221 204
204 204 204
204 204 204
204 204 187
204 204 187
187 187 170
187 187 170
187 187 170
187 187 170
187 187 170
187 187 170
170 170 153
170 170 153
187 170 170
170 170 153
170 170 153
170 153 153
170 153 136
153 153 136
153 153 136
153 153 136
153 136 136
153 136 136
170 136 136
170 136 136
170 153 153
51 34 34
68 68 68
102 102 102
187 187 170
187 187 170
170 170 153
153 153 136
153 136 136
170 153 153
187 187 170
187 187 170
187 187 187
187 204 187
170 170 153
153 153 153
153 153 153
170 170 153
170 170 153
153 153 153
170 170 153
170 170 153
170 170 153
34 34 34
187 187 170
153 153 136
17 17 17
170 170 170
170 170 153
170 170 153
170 170 153
153 153 153
187 170 170
187 187 187
187 187 170
187 187 187
187 187 170
187 187 170
153 153 153
170 170 153
170 170 170
170 170 153
170 170 153
170 170 153
170 170 170
170 170 170
187 187 170
187 187 170
187 187 187
204 204 187
204 204 204
204 221 204
221 221 221
221 221 221
221 238 238
238 238 238
238 238 238
238 238 238
238 238 238
221 238 238
221 238 221
221 221 221
221 221 221
204 221 204
204 204 187
187 204 187
170 187 170
153 170 153
153 170 153
136 170 136
136 170 136
136 153 136
0 0 255
0 0 255
102 136 102
102 136 102
102 136 85
85 119 85
85 119 85
85 119 85
68 102 68
68 102 68
68 102 51
51 102 51
68 102 68
68 119 68
68 102 51
68 102 51
68 102 51
51 102 34
51 85 34
51 85 34
51 102 34
68 102 34
68 102 34
68 102 34
68 102 34
68 102 34
68 102 34
68 102 34
68 102 34
68 102 34
68 102 34
68 102 17
68 102 34
68 102 34
68 102 34
68 102 34
68 102 51
68 102 34
68 102 34
17 17 0
17 34 17
34 68 17
68 102 34
68 119 51
68 102 51
68 102 34
68 102 34
51 102 17
51 102 17
68 102 34
68 102 34
68 102 34
68 102 34
68 102 51
68 102 51
68 102 34
68 102 34
68 102 34
68 102 34
68 102 34
34 51 17
34 51 17
68 102 34
68 85 34
0 0 0
68 102 34
68 102 34
68 102 34
68 102 34
68 102 34
68 102 34
68 102 34
68 119 51
68 102 34
68 102 34
68 102 34
68 102 34
68 102 34
68 102 34
68 119 34
68 119 34
68 102 34
68 102 34
68 102 34
68 102 34
68 102 34
68 102 34
51 102 34
51 102 34
68 102 34
68 102 51
68 102 51
68 102 51
68 102 34
68 102 34
85 119 51
85 119 51
85 119 51
85 119 51
68 102 51
68 102 34
68 102 34
68 102 34
68 102 34
68 102 34
68 119 51
68 102 51
221 221 204
204 221 204
221 221 204
221 221 204
221 221 204
221 221 204
221 221 204
221 221 204
221 221 204
221 221 204
221 221 204
221 221 221
221 221 204
221 221 204
221 221 204
221 221 221
221 221 204
221 221 204
221 221 204
221 221 221
221 221 204
221 221 204
221 221 204
221 221 204
221 221 204
221 221 204
221 221 204
221 221 204
221 221 204
221 221 204
221 221 204
221 221 221
221 221 204
221 221 204
221 221 204
221 221 221
221 221 204
51 51 51
187 187 170
68 68 68
221 221 204
221 221 204
0 0 0
85 85 68
119 119 119
204 204 204
68 68 68
51 51 51
51 51 34
170 170 153
204 204 187
170 170 153
34 34 34
34 34 34
119 119 102
221 221 204
221 221 204
221 221 204
221 221 221
204 204 204
238 238 221
0 0 0
238 238 221
238 238 221
238 238 221
238 238 221
238 238 221
238 238 221
238 238 221
238 238 221
238 238 221
238 238 221
238 238 221
238 238 221
238 238 221
238 238 221
238 238 221
238 238 238
238 238 238
238 238 238
238 238 238
238 238 238
238 238 238
238 238 238
238 238 238
238 238 221
238 238 221
238 238 221
238 238 238
255 255 238
255 255 238
255 255 238
255 255 238
255 255 238
255 255 238
255 255 238
255 255 238
255 255 238
238 255 238
238 238 238
238 238 221
238 238 221
238 221 204
221 221 204
238 221 221
255 255 238
0 0 255
0 0 255
221 221 204
221 221 204
221 221 204
221 204 204
204 204 204
221 204 204
221 221 204
221 221 204
204 204 204
204 204 187
204 204 187
204 204 187
204 204 187
187 187 170
187 187 170
187 187 170
187 187 170
187 187 170
187 187 170
170 170 153
170 170 153
187 187 170
187 187 170
170 170 153
170 170 153
170 170 153
170 153 153
170 170 153
170 170 153
187 187 170
187 170 170
170 153 153
153 136 136
153 119 119
34 34 34
153 136 136
51 51 51
170 170 153
170 153 153
0 0 0
51 51 51
85 85 68
153 153 136
51 51 51
34 34 34
34 34 34
153 153 153
153 153 153
136 119 119
34 34 34
17 17 17
85 85 85
153 170 153
153 153 136
170 170 153
153 153 153
119 119 119
187 187 170
170 170 153
0 0 0
170 170 170
170 170 153
170 170 153
153 153 136
153 153 136
170 170 153
187 187 187
187 187 170
187 187 187
187 187 170
170 170 170
153 153 153
170 153 153
170 170 170
170 170 153
170 170 153
170 170 170
170 170 170
187 187 170
187 187 170
187 187 170
187 187 187
204 204 204
204 204 204
204 221 204
221 221 221
238 238 238
238 238 238
238 238 238
238 238 238
238 238 238
238 238 238
238 238 238
255 255 255
255 255 255
255 255 255
255 255 255
255 255 255
255 255 255
255 255 255
255 255 255
255 255 255
238 255 255
238 255 238
238 238 238
0 0 255
0 0 255
221 221 221
204 221 221
204 221 204
187 204 187
187 204 187
170 187 170
170 187 170
153 170 153
136 153 136
119 153 119
119 136 119
119 136 102
102 136 102
102 136 102
85 119 85
85 119 68
68 102 68
68 102 51
68 102 51
68 102 51
68 102 51
68 102 51
68 102 51
68 102 34
68 102 34
68 102 34
68 102 34
51 85 34
51 85 17
51 85 17
51 85 17
68 102 34
68 102 34
68 102 34
68 102 34
68 102 34
68 102 34
17 17 0
51 85 17
17 34 0
68 102 34
68 102 34
0 0 0
17 34 17
34 51 17
51 85 34
17 34 0
17 17 0
17 17 0
51 68 17
68 102 34
51 85 34
17 17 0
0 17 0
34 51 17
68 102 34
68 102 34
51 85 34
51 85 34
51 102 34
51 102 34
51 68 17
0 0 0
68 102 34
68 102 34
68 102 34
51 102 17
68 102 34
68 102 34
68 102 34
68 102 34
68 102 34
68 102 34
68 102 34
68 102 34
68 102 34
68 102 34
68 102 34
68 119 34
68 102 34
68 102 34
68 102 34
68 102 34
68 102 34
68 102 34
51 102 34
68 102 34
68 102 34
68 102 34
85 119 51
68 102 51
68 102 34
68 119 51
85 119 51
68 119 51
85 119 51
85 119 51
68 102 51
68 102 34
68 102 34
68 102 34
68 102 34
68 102 34
68 102 51
68 102 51
204 221 204
221 221 204
204 221 204
204 221 204
204 221 204
221 221 204
221 221 204
221 221 204
221 221 204
221 221 221
221 221 221
221 221 221
221 221 221
221 221 221
221 221 221
221 221 221
221 221 204
221 221 204
221 221 204
221 221 204
221 221 204
221 221 204
221 221 204
221 221 204
221 221 221
221 221 204
221 221 204
221 221 204
221 221 204
221 221 204
221 221 204
221 221 204
221 221 221
221 221 221
221 221 221
221 221 221
153 153 136
119 119 119
221 221 221
34 34 34
221 221 204
221 221 204
0 0 0
153 153 136
204 204 187
68 68 68
153 153 136
204 204 187
170 170 170
34 34 34
204 221 204
85 85 85
170 170 153
204 204 204
17 17 17
221 221 221
221 221 221
221 221 221
221 221 221
221 221 221
221 238 221
0 0 0
238 238 221
238 238 221
238 238 221
238 238 221
238 238 221
238 238 221
238 238 221
238 238 221
238 238 221
238 238 221
238 238 221
238 238 221
238 238 221
238 238 221
238 238 221
238 238 238
238 238 238
238 238 238
238 238 238
238 238 238
238 238 238
238 238 238
238 238 238
238 238 221
238 238 221
238 238 238
238 255 238
238 255 238
255 255 238
255 255 238
255 255 238
255 255 238
255 255 238
238 255 238
238 255 238
238 255 238
238 238 238
238 238 221
238 238 221
238 221 204
221 221 187
221 221 204
255 255 238
238 238 238
0 0 255
0 0 255
221 221 204
221 221 204
204 204 204
204 204 204
204 204 204
204 204 204
204 204 204
204 204 187
204 204 187
204 204 187
204 204 187
204 204 187
187 187 187
187 187 170
187 187 170
187 187 170
187 187 170
187 187 170
187 187 170
187 187 170
187 187 170
187 187 170
187 187 170
187 187 170
187 187 170
187 187 170
187 187 170
187 187 187
187 187 187
187 187 187
187 187 170
187 187 170
170 170 153
102 102 102
85 68 68
136 136 136
17 17 17
136 136 119
136 119 119
0 0 0
102 85 85
153 136 136
51 51 51
136 136 119
170 170 170
170 170 170
34 34 34
153 153 153
51 51 51
119 119 102
153 136 136
0 0 0
153 170 153
153 153 153
170 170 153
170 170 170
187 187 170
170 170 170
102 102 85
51 51 51
170 170 153
170 153 153
153 136 136
153 119 119
153 136 136
170 153 153
170 170 170
170 170 170
187 187 170
170 170 170
170 170 153
153 153 153
170 153 153
170 170 153
170 170 153
170 170 153
170 170 170
187 187 170
187 187 170
187 187 187
187 187 187
187 204 187
204 204 204
204 204 204
204 221 221
221 221 221
221 238 238
238 238 238
238 238 238
238 238 238
238 238 238
221 238 238
221 238 238
238 238 238
238 255 255
255 255 255
255 255 255
255 255 255
255 255 255
255 255 255
255 255 255
255 255 255
255 255 255
255 255 255
255 255 255
0 0 255
0 0 255
255 255 255
255 255 255
255 255 255
255 255 255
255 255 255
255 255 255
255 255 255
238 255 238
238 238 238
238 238 238
221 238 221
221 221 221
204 221 221
204 204 204
187 204 187
170 187 170
153 170 153
153 170 136
136 153 136
119 153 119
102 136 102
102 136 102
85 119 85
85 119 68
68 119 68
85 119 68
68 102 68
68 102 51
51 102 34
51 102 34
51 85 34
68 102 34
51 102 34
68 102 34
68 102 34
68 102 34
34 68 17
34 51 17
68 102 34
0 17 0
68 102 34
68 102 34
0 0 255
51 68 34
68 102 34
17 34 0
51 85 17
68 102 34
51 85 17
0 17 0
68 102 34
17 34 17
51 68 17
51 85 34
0 0 0
68 102 34
51 102 34
51 85 34
68 102 34
68 102 34
17 34 0
0 0 0
51 68 17
68 102 34
68 102 34
51 102 34
51 102 34
68 102 34
68 102 34
68 102 34
68 102 34
68 102 34
68 102 34
68 102 34
85 102 34
68 102 34
68 102 34
68 102 34
68 102 34
68 102 34
51 102 34
68 102 34
68 102 34
68 102 34
68 102 34
68 102 34
68 102 34
51 102 34
68 102 34
68 102 34
85 119 51
68 119 51
68 119 51
68 102 51
68 102 34
68 102 34
68 102 34
68 102 34
68 102 51
85 119 51
85 119 51
68 102 51
68 102 51
68 102 34
68 102 34
204 221 204
221 221 204
221 221 204
221 221 204
221 221 204
221 221 204
221 221 204
221 221 204
221 221 204
221 221 204
221 221 221
221 221 221
221 221 204
221 221 204
221 221 204
221 221 221
221 221 204
221 221 204
221 221 221
221 221 204
221 221 204
221 221 204
221 221 204
221 221 204
221 221 221
221 221 221
221 221 221
221 221 204
221 221 221
221 221 221
221 221 221
221 221 221
221 221 221
221 221 221
221 221 221
221 221 204
68 85 68
34 34 34
34 34 34
17 17 17
136 136 119
187 187 170
0 0 0
187 187 170
204 204 187
17 17 17
51 51 51
51 51 51
51 51 51
17 17 17
221 221 221
221 221 204
136 136 119
102 102 102
0 0 0
221 221 221
221 221 221
221 221 221
221 221 221
221 221 221
221 221 221
0 0 0
238 238 221
238 238 221
238 238 221
238 238 221
238 238 221
238 238 221
238 238 221
238 238 221
238 238 221
238 238 221
238 238 221
238 238 221
238 238 221
238 238 221
238 238 221
238 238 221
238 238 238
238 238 238
238 238 238
238 238 238
238 238 238
238 238 238
238 238 238
238 238 221
238 238 221
238 238 238
238 255 238
238 255 238
255 255 238
255 255 238
238 255 238
255 255 238
255 255 238
255 255 238
238 255 238
238 238 238
238 238 221
238 238 221
238 221 204
221 221 187
221 221 204
238 255 238
255 255 238
238 238 221
0 0 255
0 0 255
221 221 204
221 221 204
221 204 204
221 204 204
204 204 204
204 204 204
204 204 187
204 204 187
204 204 187
204 204 187
187 187 170
187 187 170
187 187 170
187 187 170
187 187 170
187 187 170
187 187 170
187 187 170
170 170 170
187 187 170
187 187 170
187 187 170
187 187 187
187 187 170
187 187 187
204 187 187
204 187 187
204 187 187
204 187 187
187 187 187
187 187 187
187 187 170
187 187 170
68 68 51
17 17 17
34 34 34
0 0 0
102 102 102
136 119 119
0 0 0
153 136 136
136 119 119
0 0 0
34 34 34
34 34 34
34 34 34
17 17 17
170 153 153
136 136 136
102 85 85
68 68 68
0 0 0
153 153 153
153 153 153
153 153 153
170 170 153
170 170 153
136 119 119
17 17 17
153 153 136
170 170 153
170 153 136
153 136 136
136 119 102
136 119 119
153 153 153
170 170 153
170 170 170
187 187 170
170 170 153
170 153 153
153 153 153
170 170 153
170 170 153
170 170 170
170 170 170
170 170 170
187 187 170
187 187 187
187 204 187
187 204 187
187 204 187
204 204 204
204 221 204
221 221 221
221 221 221
221 221 221
221 238 221
221 238 238
221 238 221
221 238 221
221 238 238
238 238 238
238 238 238
255 255 255
255 255 255
255 255 255
255 255 255
255 255 255
255 255 255
255 255 255
255 255 255
255 255 255
255 255 255
255 255 255
0 0 255
0 0 255
255 255 255
255 255 255
255 255 255
255 255 255
255 255 255
255 255 255
255 255 255
255 255 255
255 255 255
255 255 255
255 255 255
255 255 255
255 255 255
255 255 255
255 255 255
255 255 255
255 255 255
238 255 255
238 238 238
238 238 238
238 238 238
221 221 221
204 221 204
187 204 187
170 187 170
170 187 170
153 170 153
136 153 136
119 153 119
102 136 102
85 119 85
85 119 68
68 119 68
68 102 68
68 102 51
68 102 51
17 34 17
0 17 0
0 17 0
0 0 0
51 68 17
68 102 34
0 0 0
68 102 34
68 102 34
0 0 0
17 17 0
17 17 0
0 17 0
0 0 0
68 102 34
68 102 34
34 51 17
17 34 17
0 0 0
68 102 34
51 85 34
51 102 34
51 85 34
68 102 34
68 102 34
51 68 17
17 34 0
51 102 17
68 102 34
51 102 34
68 102 34
68 102 34
68 102 34
68 102 34
68 102 34
68 102 34
68 102 34
68 102 34
68 102 34
68 102 51
68 102 34
68 102 34
68 102 51
68 102 34
68 102 34
68 102 34
68 102 34
68 102 34
68 102 34
68 102 34
68 102 34
51 102 34
68 102 17
68 102 34
68 102 34
68 102 51
68 102 34
68 102 34
68 102 34
85 119 51
68 102 51
68 102 34
68 102 34
85 119 51
85 119 51
68 102 51
68 102 51
68 102 51
68 102 34
221 221 204
221 221 204
221 221 204
221 221 204
221 221 204
221 221 204
221 221 204
221 221 221
221 221 204
221 221 204
221 221 204
221 221 204
221 221 204
221 221 204
221 221 204
221 221 221
221 221 204
221 221 204
221 221 204
221 221 221
221 221 221
221 221 204
221 221 204
221 221 221
221 221 204
221 221 221
221 221 221
221 221 204
221 221 221
221 221 221
221 221 204
221 221 204
221 221 204
204 204 187
204 204 187
187 187 170
34 34 34
187 187 170
187 187 170
136 136 119
85 85 68
204 204 187
0 0 0
221 221 204
221 221 221
17 17 17
221 221 204
221 221 221
221 221 204
170 170 153
221 221 221
51 51 51
136 136 119
204 204 187
0 0 0
221 221 221
221 221 221
221 221 221
221 221 221
221 221 221
221 221 221
0 0 0
221 238 221
221 238 221
238 238 221
238 238 221
238 238 221
238 238 221
238 238 221
238 238 221
238 238 221
238 238 221
238 238 221
238 238 221
238 238 221
238 238 221
238 238 221
238 238 221
238 238 221
238 238 238
238 238 238
238 238 238
238 238 238
238 238 238
238 238 238
238 238 221
238 238 221
238 238 238
238 238 238
238 255 238
238 255 238
238 255 238
255 255 238
255 255 238
255 255 238
238 255 238
238 238 238
238 238 221
238 238 221
238 221 204
221 221 187
221 221 204
238 255 238
255 255 238
238 238 238
221 221 204
0 0 255
0 0 255
221 221 204
221 221 204
204 204 204
221 204 204
204 204 204
204 204 204
204 204 187
204 204 187
187 187 170
187 187 170
187 187 170
187 187 170
187 187 170
187 187 170
187 187 170
187 187 187
187 187 187
187 187 170
170 170 170
187 187 170
187 187 170
204 204 187
204 204 187
187 187 187
187 187 187
187 187 187
204 187 187
187 187 187
187 187 187
187 187 187
187 187 187
187 187 170
187 187 170
34 34 34
187 170 170
170 170 170
119 119 119
68 68 68
153 153 153
0 0 0
153 153 153
153 153 136
0 0 0
153 136 136
153 153 153
170 170 170
136 136 136
170 170 153
34 34 34
102 102 85
136 136 119
0 0 0
153 153 153
153 153 136
153 153 153
153 153 136
136 136 136
17 17 17
102 102 102
170 170 170
153 136 136
170 136 136
170 136 136
136 102 102
136 102 102
153 153 136
153 153 153
170 170 153
170 170 170
170 170 170
170 170 153
170 170 153
170 170 153
170 170 170
170 170 170
187 187 170
187 187 170
187 187 170
187 187 187
204 204 204
204 204 204
204 204 204
204 204 204
204 221 204
204 221 221
221 221 221
221 221 221
221 238 238
221 238 238
221 238 238
221 238 238
238 238 238
238 238 238
238 255 238
255 255 255
255 255 255
255 255 255
255 255 255
255 255 255
255 255 255
255 255 255
255 255 255
255 255 255
255 255 255
255 255 255
0 0 255
0 0 255
255 255 255
255 255 255
255 255 255
255 255 255
255 255 255
255 255 255
255 255 255
255 255 255
255 255 255
255 255 255
255 255 255
255 255 255
255 255 255
255 255 255
255 255 255
255 255 255
255 255 255
255 255 255
255 255 255
255 255 255
255 255 255
255 255 255
255 255 255
255 255 255
255 255 255
255 255 255
238 255 255
238 238 238
221 238 221
221 221 221
204 204 204
187 204 187
170 187 170
153 170 153
136 153 136
119 153 119
17 17 17
85 136 85
85 119 85
51 85 51
34 51 17
68 102 68
0 0 0
68 102 51
68 102 51
0 0 0
51 102 34
51 102 34
51 85 34
51 68 17
68 102 34
17 17 0
34 51 17
51 85 34
0 0 0
68 102 34
68 102 34
68 102 34
17 34 0
68 102 34
68 102 34
51 85 34
0 0 0
68 102 34
68 102 34
68 102 34
68 102 34
68 102 34
68 102 34
68 102 34
68 102 34
68 102 34
68 102 34
68 102 34
68 102 34
68 102 34
85 102 51
68 102 34
68 102 34
68 102 34
68 102 34
68 102 34
68 102 34
68 102 34
68 102 34
68 102 34
68 102 34
68 102 34
68 102 34
68 102 34
68 102 34
68 102 51
68 102 51
85 119 51
68 102 51
85 119 51
85 119 51
85 119 51
85 119 51
85 119 51
68 102 34
68 102 51
68 102 34
85 119 51
68 102 34
221 221 204
221 221 204
221 221 204
221 221 204
221 221 204
221 221 204
221 221 221
221 221 221
221 221 221
221 221 221
221 221 204
221 221 221
221 221 221
221 221 221
221 221 204
221 221 221
221 221 221
221 221 221
221 221 204
221 221 221
221 221 221
221 221 204
221 221 204
221 221 204
221 221 204
221 221 204
204 204 187
204 204 187
204 204 187
187 187 170
187 187 170
187 187 170
187 187 170
187 187 153
187 187 153
136 136 136
68 85 68
204 204 204
221 221 204
221 221 204
34 34 34
221 221 221
0 0 0
221 221 221
221 221 221
68 68 68
136 136 136
221 221 221
153 153 153
51 51 51
221 221 221
17 17 0
204 204 204
187 187 187
0 0 0
221 221 221
221 221 221
221 221 221
221 221 221
221 221 221
221 221 221
0 0 0
221 221 221
221 238 221
221 238 221
221 238 221
238 238 221
238 238 221
238 238 221
238 238 221
238 238 221
238 238 221
238 238 221
238 238 221
238 238 221
238 238 221
238 238 221
238 238 221
238 238 221
238 238 238
238 238 238
238 238 238
238 238 238
238 238 238
238 238 238
238 238 221
238 238 221
238 238 221
238 238 238
238 255 238
238 255 238
238 255 238
255 255 238
255 255 238
255 255 238
238 238 238
238 238 221
238 238 221
238 221 204
221 221 187
221 221 204
238 238 238
255 255 238
255 255 238
238 238 221
221 221 204
0 0 255
0 0 255
221 221 204
221 221 204
204 204 204
204 204 204
204 204 204
204 204 187
204 204 187
204 204 187
204 187 170
187 187 170
187 187 170
187 187 170
187 187 170
187 187 170
187 187 170
187 187 170
187 187 170
187 187 170
187 187 170
187 187 170
187 187 170
204 204 187
204 204 187
204 204 187
204 187 187
187 187 187
187 187 187
204 204 187
204 204 187
204 204 187
187 204 187
204 204 187
136 136 136
68 68 68
187 187 170
187 187 170
170 170 153
17 17 17
170 170 153
0 0 0
153 153 153
153 153 153
51 51 34
85 85 85
153 136 136
119 119 102
51 51 34
170 170 170
0 0 0
170 170 153
136 136 119
0 0 0
153 153 153
153 153 153
153 153 136
136 136 136
34 34 34
85 85 85
153 153 136
170 170 170
136 119 119
153 136 119
153 119 102
119 85 85
119 102 102
153 136 136
153 136 136
170 153 153
170 170 153
170 170 153
170 170 153
170 170 153
170 170 170
170 170 170
170 170 170
187 187 170
187 187 170
187 187 170
187 187 187
204 204 187
204 204 204
204 221 204
204 221 204
221 221 221
221 221 221
221 221 221
221 221 221
221 221 221
221 238 238
221 238 238
238 238 238
238 238 238
238 238 238
238 255 238
255 255 255
255 255 255
255 255 255
255 255 255
255 255 255
255 255 255
255 255 255
255 255 255
255 255 255
255 255 255
255 255 255
0 0 255
0 0 255
255 255 255
255 255 255
255 255 255
255 255 255
255 255 255
255 255 255
255 255 255
255 255 255
255 255 255
255 255 255
255 255 255
255 255 255
255 255 255
255 255 255
255 255 255
255 255 255
255 255 255
255 255 255
255 255 255
255 255 255
255 255 255
255 255 255
255 255 255
255 255 255
255 255 255
255 255 255
255 255 255
255 255 255
255 255 255
255 255 255
255 255 255
255 255 255
255 255 255
238 255 255
238 238 238
170 170 170
85 85 85
204 221 204
187 204 187
170 187 170
17 17 17
153 170 153
0 0 0
119 153 119
102 136 102
34 34 34
51 68 51
68 119 68
51 68 34
17 17 17
68 102 51
0 0 0
68 102 51
51 85 34
0 0 255
51 85 34
68 102 34
51 85 34
17 34 0
34 68 17
68 102 34
51 68 17
0 17 0
68 102 34
68 102 34
68 102 34
68 119 34
68 102 34
68 102 34
68 102 34
68 102 34
85 119 34
68 102 34
68 102 34
68 102 34
85 102 51
85 119 51
68 102 34
68 102 34
68 102 34
68 102 34
68 102 34
68 102 34
68 102 34
68 102 34
68 102 34
68 102 34
51 102 34
51 85 17
68 102 34
68 102 34
68 102 34
85 119 51
85 119 51
85 119 51
68 119 51
85 119 51
85 119 51
85 119 51
68 119 51
68 102 34
68 102 34
68 119 51
85 119 51
68 102 34
221 221 204
221 221 204
221 221 204
221 221 204
221 221 204
221 221 221
221 221 204
221 221 221
221 221 221
221 221 221
221 221 221
221 221 204
221 221 204
221 221 204
221 221 204
221 221 204
221 221 204
221 221 204
204 204 187
204 204 187
204 204 187
204 204 170
204 204 170
187 187 170
187 187 153
187 170 153
170 170 153
170 170 153
170 170 153
170 170 153
187 187 170
187 187 170
204 204 187
204 204 204
221 221 204
102 102 85
153 153 136
221 221 221
221 221 221
221 221 221
51 51 51
187 187 187
0 0 0
221 221 221
221 221 221
204 204 187
51 51 51
51 51 51
51 51 51
187 187 187
221 221 204
102 102 102
34 34 34
68 68 68
17 17 17
221 221 204
221 221 221
221 221 221
221 221 221
221 221 221
221 221 221
0 0 0
221 238 221
221 221 221
221 221 221
221 238 221
238 238 221
238 238 221
238 238 221
238 238 221
238 238 221
238 238 221
238 238 221
238 238 221
238 238 221
238 238 221
238 238 221
238 238 221
238 238 221
238 238 221
238 238 221
238 238 238
238 238 238
238 238 238
238 238 238
238 238 221
238 238 221
238 238 221
238 238 221
238 238 238
238 238 238
238 255 238
255 255 238
238 255 238
238 238 238
238 238 221
238 238 221
238 221 204
221 221 187
221 221 204
238 238 238
255 255 238
255 255 238
238 238 238
221 221 221
204 221 204
0 0 255
0 0 255
221 221 204
204 204 204
204 204 204
204 204 187
204 204 187
204 204 187
204 204 187
204 204 187
204 187 170
187 187 170
187 187 170
187 187 170
187 187 170
187 187 170
187 187 170
187 187 170
187 187 170
187 187 170
187 187 170
187 187 170
187 187 187
204 204 187
204 204 187
204 204 187
204 204 187
204 204 187
204 204 187
204 204 187
187 187 187
204 204 187
204 204 187
204 204 187
85 85 68
119 119 119
187 187 170
187 187 170
170 170 170
34 34 34
136 136 136
0 0 0
170 170 153
153 153 153
136 136 119
34 34 34
34 34 34
34 34 34
136 136 136
170 170 170
85 85 85
17 17 17
51 51 51
0 0 0
153 153 153
153 153 153
153 136 136
85 85 85
0 0 0
34 34 34
34 34 34
34 34 34
136 102 102
170 153 136
153 119 102
136 102 102
119 102 102
136 136 119
153 136 136
153 153 136
170 153 153
170 170 153
170 170 170
170 170 170
170 170 170
187 187 170
187 170 170
187 187 170
187 187 170
187 187 170
187 187 170
187 187 187
204 204 204
204 204 204
204 221 204
221 221 221
221 221 221
221 221 221
221 221 221
221 221 221
221 221 221
221 221 221
221 238 221
221 238 238
238 238 238
238 255 255
255 255 255
255 255 255
255 255 255
255 255 255
255 255 255
255 255 255
255 255 255
255 255 255
255 255 255
255 255 255
255 255 255
0 0 255
0 0 255
255 255 255
255 255 255
255 255 255
255 255 255
255 255 255
255 255 255
255 255 255
255 255 255
255 255 255
255 255 255
255 255 255
255 255 255
255 255 255
255 255 255
255 255 255
255 255 255
255 255 255
255 255 255
255 255 255
255 255 255
255 255 255
255 255 255
255 255 255
255 255 255
255 255 255
255 255 255
255 255 255
255 255 255
255 255 255
255 255 255
255 255 255
255 255 255
255 255 255
255 255 255
255 255 255
102 119 119
170 170 170
255 255 255
255 255 255
255 255 255
51 51 51
204 204 204
0 0 0
238 238 238
221 238 221
187 204 187
51 51 51
34 51 34
34 51 34
136 153 136
136 170 136
51 68 51
17 17 17
34 34 34
0 0 0
68 119 68
68 119 68
68 102 68
51 85 51
17 17 0
17 17 0
17 17 0
51 85 34
68 102 34
68 102 34
68 102 34
68 119 51
85 119 51
68 102 34
68 102 34
68 102 34
68 102 34
68 102 34
68 102 34
68 102 34
68 102 34
68 102 34
68 102 34
68 102 34
68 102 34
68 102 34
68 102 34
68 102 34
68 102 34
68 102 34
68 102 34
68 102 34
51 102 34
68 102 34
68 102 34
68 102 34
68 102 34
68 102 34
68 102 34
68 102 34
68 102 34
85 119 51
68 119 51
85 119 51
85 119 51
68 102 34
68 102 51
85 119 51
68 102 51
68 102 34
221 221 204
221 221 204
221 221 204
221 221 204
221 221 204
221 221 204
221 221 204
221 221 204
204 204 204
204 204 187
204 204 187
204 204 187
204 204 187
187 187 170
187 187 170
187 187 153
170 170 153
170 170 153
170 170 153
170 170 153
170 170 153
170 170 153
170 170 153
170 170 153
170 187 170
187 187 170
187 187 170
204 204 187
204 204 204
221 221 204
221 221 204
221 221 221
221 221 221
221 221 221
221 221 221
221 221 221
221 221 204
221 221 204
221 221 221
221 221 221
221 221 221
221 221 204
221 221 221
221 221 221
221 221 204
221 221 204
221 221 204
221 221 204
221 221 221
221 221 221
221 221 204
221 221 221
221 221 221
221 221 221
221 221 221
221 221 221
221 221 221
221 221 221
221 221 221
221 221 221
221 221 221
221 221 221
221 221 221
221 221 221
221 221 221
221 238 221
238 238 221
238 238 221
238 238 221
238 238 221
238 238 221
238 238 221
238 238 221
238 238 221
238 238 221
238 238 221
238 238 221
238 238 221
238 238 221
238 238 221
238 238 221
238 238 221
238 238 221
238 238 221
238 238 238
238 238 221
238 238 221
238 221 221
238 238 221
238 238 221
238 238 221
238 255 238
238 255 238
238 238 238
238 238 221
238 238 221
238 221 204
221 221 204
238 221 221
238 238 238
238 255 238
255 255 238
255 255 238
238 238 221
221 221 204
204 204 204
0 0 255
0 0 255
221 204 204
204 204 204
204 204 187
204 204 187
204 204 187
204 204 187
204 204 187
204 204 187
204 204 170
187 187 170
187 187 170
187 187 170
187 187 170
187 187 170
187 187 170
187 187 170
187 187 170
187 187 170
187 204 187
204 204 187
204 204 187
221 221 204
204 204 204
204 204 187
204 204 187
204 204 187
187 204 187
187 187 187
204 204 187
204 204 187
204 204 187
204 204 187
187 204 187
187 187 187
187 187 170
187 187 170
170 170 170
170 170 170
170 170 170
153 153 153
170 170 153
153 153 153
153 153 136
136 136 136
136 136 136
153 153 136
153 153 153
170 170 153
170 170 170
170 170 153
153 153 153
153 153 153
153 153 153
153 153 136
153 136 136
153 153 136
153 153 136
170 153 153
170 170 170
136 136 119
153 136 119
187 153 136
170 102 102
119 68 68
119 102 102
136 136 119
153 136 136
153 153 136
153 153 136
170 170 153
170 170 170
170 170 170
187 187 170
187 187 170
187 187 170
187 187 170
187 187 170
187 187 187
187 187 170
187 187 170
187 187 187
204 204 187
204 204 204
204 221 204
221 221 221
221 221 221
221 221 221
221 221 221
221 221 221
221 221 221
221 221 221
221 238 238
238 238 238
238 238 238
255 255 255
255 255 255
255 255 255
255 255 255
255 255 255
255 255 255
255 255 255
255 255 255
255 255 255
255 255 255
255 255 255
0 0 255
0 0 255
255 255 255
255 255 255
255 255 255
255 255 255
255 255 255
255 255 255
255 255 255
255 255 255
255 255 255
255 255 255
255 255 255
255 255 255
255 255 255
255 255 255
255 255 255
255 255 255
255 255 255
255 255 255
255 255 255
255 255 255
255 255 255
255 255 255
255 255 255
255 255 255
255 255 255
255 255 255
255 255 255
255 255 255
255 255 255
255 255 255
255 255 255
255 255 255
255 255 255
255 255 255
255 255 255
255 255 255
255 255 255
255 255 255
255 255 255
255 255 255
255 255 255
255 255 255
255 255 255
255 255 255
255 255 255
255 255 255
255 255 255
255 255 255
255 255 255
255 255 255
255 255 255
238 255 238
238 238 238
221 238 221
221 221 221
204 221 204
187 204 204
170 187 170
153 170 153
153 170 153
136 153 136
119 136 119
102 136 102
85 119 85
68 102 68
68 102 51
68 102 51
68 102 51
51 102 34
68 102 34
51 85 34
51 85 34
68 102 34
68 102 34
68 102 34
68 102 34
68 102 34
68 102 34
68 102 34
68 102 34
68 102 34
68 102 34
68 102 34
68 102 34
68 102 34
68 102 34
68 102 34
68 102 34
68 102 34
68 102 34
68 102 34
68 102 34
68 102 34
68 102 34
68 102 34
68 102 34
68 102 51
68 102 34
68 102 34
68 119 51
68 102 51
68 102 51
85 119 51
85 119 51
68 102 34
204 204 204
204 204 187
204 204 187
204 204 187
204 187 170
187 187 170
187 187 170
187 187 170
187 187 153
187 170 153
170 170 153
170 170 153
170 170 153
170 170 153
170 170 153
170 170 153
170 170 153
170 170 153
170 170 153
187 187 170
187 187 170
204 204 187
204 204 204
204 204 204
221 221 204
221 221 221
221 221 221
221 221 221
221 221 221
221 221 221
221 221 221
221 221 221
221 221 221
221 221 221
221 221 221
221 221 204
221 221 204
221 221 204
221 221 204
221 221 204
221 221 204
221 221 221
221 221 204
221 221 221
221 221 204
221 221 204
221 221 204
221 221 204
221 221 204
221 221 221
221 221 221
221 221 221
221 221 221
221 221 221
221 221 221
221 221 221
221 221 221
221 221 221
221 221 221
221 221 221
221 221 221
221 221 221
221 221 221
221 221 221
221 221 221
221 238 221
221 238 221
238 238 221
238 238 221
238 238 221
238 238 221
238 238 221
238 238 221
238 238 221
238 238 221
238 221 221
238 238 221
238 238 221
238 238 221
238 238 221
238 238 221
238 238 221
238 238 221
238 238 221
238 238 221
238 238 221
238 238 221
238 238 221
238 238 221
238 238 221
238 238 221
238 238 221
238 238 238
238 238 221
238 238 221
238 238 204
221 221 204
238 238 221
238 238 238
238 255 238
255 255 238
255 255 238
238 238 238
238 238 221
221 221 204
221 221 204
0 0 255
0 0 255
204 204 204
204 204 187
204 204 187
204 204 187
204 204 187
204 204 187
204 204 187
204 204 187
204 204 187
187 204 170
187 187 170
187 187 170
187 187 170
187 187 170
187 187 170
187 187 170
187 187 170
187 187 170
187 187 187
204 204 187
221 204 204
221 221 204
204 204 204
204 204 187
204 204 187
204 204 187
204 204 187
204 204 187
204 204 187
204 204 187
204 204 187
204 204 187
187 187 187
187 187 187
187 187 170
187 187 170
170 170 170
170 170 170
170 170 153
153 170 153
170 170 170
153 153 153
153 153 153
153 153 136
153 153 136
153 153 136
153 153 136
153 153 153
153 153 153
153 153 153
153 153 153
170 153 153
153 153 153
153 153 136
153 153 136
153 153 136
153 153 136
170 170 170
170 153 153
153 136 136
153 136 136
170 119 119
153 102 85
136 85 85
119 102 102
136 136 119
153 136 136
153 136 119
153 153 136
170 170 153
170 170 170
187 187 170
187 187 187
187 187 187
187 187 187
187 187 187
187 187 170
187 187 187
187 187 170
187 187 170
187 187 187
187 187 187
204 204 187
204 204 204
204 221 204
204 221 204
204 221 204
204 221 204
221 221 221
221 221 221
221 221 221
221 238 238
238 238 238
238 255 238
255 255 255
255 255 255
255 255 255
255 255 255
255 255 255
255 255 255
255 255 255
255 255 255
255 255 255
255 255 255
255 255 255
0 0 255
0 0 255
255 255 255
255 255 255
255 255 255
255 255 255
255 255 255
255 255 255
255 255 255
255 255 255
255 255 255
255 255 255
255 255 255
255 255 255
255 255 255
255 255 255
255 255 255
255 255 255
255 255 255
255 255 255
255 255 255
255 255 255
255 255 255
255 255 255
255 255 255
255 255 255
255 255 255
255 255 255
255 255 255
255 255 255
255 255 255
255 255 255
255 255 255
255 255 255
255 255 255
255 255 255
255 255 255
255 255 255
255 255 255
255 255 255
255 255 255
255 255 255
255 255 255
255 255 255
255 255 255
255 255 255
255 255 255
255 255 255
255 255 255
255 255 255
255 255 255
255 255 255
255 255 255
255 255 255
255 255 255
255 255 255
255 255 255
255 255 255
255 255 255
255 255 255
255 255 255
238 255 255
238 255 238
238 238 238
221 238 221
221 221 221
187 204 187
170 187 187
153 187 153
136 170 136
119 153 119
102 136 102
85 119 85
85 119 68
85 119 68
68 102 51
68 102 51
51 102 34
68 102 34
68 102 34
68 102 51
68 102 51
68 102 34
68 102 34
51 102 34
51 102 34
68 102 34
68 102 34
68 102 34
68 102 34
68 102 34
68 102 34
85 102 51
85 102 51
68 102 34
68 102 34
68 102 34
68 102 34
68 102 34
68 102 34
68 102 34
85 119 51
85 119 51
68 102 51
68 102 51
68 102 51
68 102 34
170 170 153
170 170 153
170 170 153
170 170 153
170 170 153
170 170 153
170 170 153
170 170 153
170 170 153
170 170 153
170 170 153
187 187 170
187 187 170
187 187 170
187 187 170
187 187 187
204 204 187
204 204 204
221 221 204
221 221 204
221 221 221
221 221 221
221 221 221
221 221 221
221 221 221
221 221 221
221 221 221
221 221 221
221 221 221
221 221 221
221 221 221
221 221 204
221 221 204
221 221 204
221 221 204
221 221 204
221 221 204
221 221 204
221 221 221
221 221 204
221 221 221
221 221 204
221 221 204
221 221 204
221 221 204
221 221 204
221 221 204
221 221 204
221 221 204
221 221 221
221 221 221
221 221 221
221 221 221
221 221 221
221 221 221
221 221 221
221 221 221
221 221 221
221 221 221
221 221 221
221 221 221
221 221 221
221 221 221
221 221 221
221 221 221
221 238 221
221 238 221
238 238 221
238 238 221
221 221 221
221 221 204
221 221 204
221 221 204
221 221 204
221 221 204
238 221 204
238 221 204
238 221 204
238 238 204
238 238 204
238 238 221
238 238 221
238 238 221
238 238 221
238 238 221
238 238 221
238 238 238
238 238 238
238 238 221
238 238 221
238 238 221
238 238 238
238 238 221
238 238 221
238 238 221
238 238 204
238 238 221
238 238 238
238 255 238
238 255 238
238 255 238
255 255 238
238 238 221
238 238 221
221 221 204
221 221 204
0 0 255
0 0 255
204 204 187
204 204 187
204 204 187
204 204 187
187 187 170
204 204 187
204 204 187
204 204 187
204 204 187
187 187 170
187 187 170
187 187 170
187 187 170
187 187 170
187 187 170
187 187 170
187 187 170
187 187 187
204 204 187
204 204 204
221 221 204
204 204 204
204 204 187
204 204 187
204 204 187
204 204 187
204 204 187
204 204 187
204 204 187
204 204 187
204 204 187
204 187 187
187 187 187
187 187 187
187 187 170
170 187 170
170 170 170
170 170 153
170 170 153
170 170 153
170 170 170
153 153 153
153 153 153
153 153 136
153 153 136
153 153 136
153 153 136
153 153 153
170 170 153
170 170 153
170 170 153
170 153 153
153 153 153
170 153 153
153 153 136
153 153 136
153 153 153
170 170 170
153 153 153
153 153 136
153 153 136
153 136 119
153 119 119
136 102 102
136 119 119
153 136 119
136 136 119
136 136 119
153 136 136
170 170 153
170 170 170
187 187 170
187 187 187
187 204 187
187 187 187
187 187 187
187 187 187
187 204 187
187 187 187
187 187 170
187 187 187
187 187 187
187 187 187
187 204 187
204 204 187
204 204 204
204 221 204
204 221 204
221 221 221
221 221 221
221 221 221
221 238 238
238 238 238
255 255 255
255 255 255
255 255 255
255 255 255
255 255 255
255 255 255
255 255 255
255 255 255
255 255 255
255 255 255
255 255 255
255 255 255
0 0 255
0 0 255
255 255 255
255 255 255
255 255 255
255 255 255
255 255 255
255 255 255
255 255 255
255 255 255
255 255 255
255 255 255
255 255 255
255 255 255
255 255 255
255 255 255
255 255 255
255 255 255
255 255 255
255 255 255
255 255 255
255 255 255
255 255 255
255 255 255
255 255 255
255 255 255
255 255 255
255 255 255
255 255 255
255 255 255
255 255 255
255 255 255
255 255 255
255 255 255
255 255 255
255 255 255
255 255 255
255 255 255
255 255 255
255 255 255
255 255 255
255 255 255
255 255 255
255 255 255
255 255 255
255 255 255
255 255 255
255 255 255
255 255 255
255 255 255
255 255 255
255 255 255
255 255 255
255 255 255
255 255 255
255 255 255
255 255 255
255 255 255
255 255 255
255 255 255
255 255 255
255 255 255
255 255 255
255 255 255
255 255 255
255 255 255
255 255 255
255 255 255
255 255 255
238 255 255
238 238 238
238 238 238
221 221 221
204 221 221
187 204 187
170 187 170
153 170 153
136 153 136
119 153 119
102 136 102
102 136 102
85 119 85
68 102 68
68 102 51
68 102 51
51 85 34
51 102 34
51 102 34
51 102 34
51 102 34
68 102 51
68 102 51
68 102 51
68 102 51
68 102 51
68 102 34
51 85 34
68 85 34
51 85 34
68 102 34
68 102 34
68 102 34
85 119 51
68 102 51
68 102 34
68 102 34
68 102 51
170 170 153
170 170 153
170 170 153
170 170 153
170 170 153
170 170 153
187 187 170
187 187 170
187 187 187
187 187 187
204 204 187
204 204 204
204 221 204
221 221 204
221 221 204
221 221 221
221 221 221
221 221 204
221 221 204
221 221 221
221 221 221
221 221 221
221 221 221
221 221 204
221 221 221
221 221 221
221 221 221
221 221 221
221 221 221
221 221 221
221 221 221
221 221 204
221 221 204
221 221 204
221 221 204
221 221 204
221 221 204
221 221 204
221 221 204
221 221 204
221 221 204
221 221 204
221 221 204
221 221 204
221 221 204
221 221 204
221 221 204
221 221 204
221 221 204
221 221 221
221 221 221
221 221 221
221 221 221
221 221 221
221 221 221
221 221 221
221 221 221
221 221 221
221 221 221
221 221 221
221 221 221
221 221 221
221 221 221
221 221 221
221 221 221
221 238 221
221 238 221
238 238 221
238 221 221
238 221 221
221 221 204
221 221 204
221 221 187
221 221 187
221 221 187
221 221 204
221 221 204
221 221 204
221 221 204
238 221 204
238 221 204
238 221 204
238 221 204
238 221 204
238 238 221
238 238 221
238 238 221
238 238 238
238 238 238
238 238 238
238 238 221
238 238 221
238 238 221
238 238 221
238 238 221
238 238 221
238 238 238
255 255 238
255 255 238
255 255 238
255 255 238
238 238 238
238 238 221
221 221 204
204 204 204
204 204 204
0 0 255
0 0 255
221 204 204
204 204 204
204 204 187
187 204 170
187 204 170
204 204 187
204 204 187
204 204 187
187 204 170
187 187 170
187 187 170
187 187 170
187 187 170
187 187 170
187 170 153
187 187 170
187 187 170
187 187 187
204 204 187
204 204 204
204 204 204
204 204 187
204 204 187
204 204 187
204 204 187
187 187 187
187 187 170
187 187 187
204 204 187
204 204 187
187 204 187
187 204 187
187 204 187
187 187 187
187 187 170
170 170 170
170 170 170
170 170 153
170 170 153
170 170 170
170 170 153
153 170 153
153 153 153
153 153 136
153 153 136
153 153 153
153 153 153
170 170 153
170 170 153
170 170 153
170 170 153
170 170 153
170 170 153
170 170 153
153 153 136
153 153 136
170 170 153
170 170 153
170 153 153
170 153 153
170 153 136
170 153 153
153 136 136
136 119 119
136 119 119
136 119 119
136 119 119
136 136 119
153 136 136
170 170 153
170 170 170
187 187 170
187 187 187
204 204 187
187 204 187
187 204 187
187 187 187
204 204 187
187 187 187
187 187 187
187 187 187
187 187 187
187 187 187
204 204 187
204 204 187
204 204 204
204 204 204
204 221 204
221 221 221
221 221 221
221 221 221
238 238 238
238 255 255
255 255 255
255 255 255
255 255 255
255 255 255
255 255 255
255 255 255
255 255 255
255 255 255
255 255 255
255 255 255
255 255 255
255 255 255
0 0 255
0 0 255
255 255 255
255 255 255
255 255 255
255 255 255
255 255 255
255 255 255
255 255 255
255 255 255
255 255 255
255 255 255
255 255 255
255 255 255
255 255 255
255 255 255
255 255 255
255 255 255
255 255 255
255 255 255
255 255 255
255 255 255
255 255 255
255 255 255
255 255 255
255 255 255
255 255 255
255 255 255
255 255 255
255 255 255
255 255 255
255 255 255
255 255 255
255 255 255
255 255 255
255 255 255
255 255 255
255 255 255
255 255 255
255 255 255
255 255 255
255 255 255
255 255 255
255 255 255
255 255 255
255 255 255
255 255 255
255 255 255
255 255 255
255 255 255
255 255 255
255 255 255
255 255 255
238 255 255
255 255 255
255 255 255
255 255 255
255 255 255
255 255 255
255 255 255
255 255 255
255 255 255
255 255 255
255 255 255
255 255 255
255 255 255
255 255 255
255 255 255
255 255 255
255 255 255
255 255 255
255 255 255
255 255 255
255 255 255
255 255 255
255 255 255
255 255 255
238 255 255
238 238 238
238 238 238
221 238 221
221 221 221
204 221 204
187 204 204
187 204 187
153 187 170
136 170 136
119 153 119
119 153 119
102 136 102
85 119 85
85 119 68
68 102 68
68 102 51
68 102 51
68 102 51
68 102 51
68 102 51
68 102 34
68 102 34
68 102 34
68 102 34
68 102 34
68 102 34
68 102 34
85 102 51
85 119 51
170 170 153
170 170 153
187 187 170
187 187 170
204 204 187
204 204 187
204 204 204
204 221 204
221 221 204
221 221 204
221 221 204
221 221 221
221 221 204
221 221 204
221 221 204
221 221 204
221 221 204
221 221 204
221 221 204
221 221 204
221 221 204
221 221 221
221 221 221
221 221 204
221 221 204
221 221 221
221 221 204
221 221 204
221 221 204
221 221 221
221 221 204
221 221 204
221 221 204
221 221 204
221 221 204
221 221 204
221 221 204
221 221 204
221 221 204
221 221 204
221 221 204
221 221 204
221 221 204
221 221 204
221 221 204
221 221 204
221 221 204
221 221 204
221 221 221
221 221 221
221 221 221
221 221 221
221 221 221
221 221 221
221 221 221
221 221 221
221 221 221
221 221 221
221 221 221
221 221 204
221 221 221
221 221 204
221 221 204
221 221 221
221 221 221
221 221 221
221 221 221
221 221 221
238 221 221
238 221 204
221 221 204
221 221 187
221 221 187
221 221 187
221 221 187
221 221 187
221 221 187
221 204 187
221 204 187
221 221 187
221 221 187
221 221 204
221 221 204
238 221 204
238 221 204
238 221 204
238 221 221
238 238 221
238 238 238
238 238 238
238 238 221
238 238 221
238 238 238
238 238 221
238 238 221
238 238 238
238 238 238
255 255 238
255 255 238
255 255 238
238 255 238
238 238 221
221 221 204
221 221 204
204 204 204
204 204 204
0 0 255
0 0 255
204 204 204
204 204 187
204 204 187
204 204 187
187 204 187
204 204 187
204 204 187
204 204 187
187 187 170
187 187 170
187 187 170
187 187 170
187 187 170
187 187 170
187 170 153
187 170 153
187 187 170
187 187 187
204 204 187
204 204 187
204 204 204
204 204 187
204 204 187
204 204 187
204 204 187
187 187 187
187 187 187
204 204 187
204 204 187
187 204 187
187 204 187
187 204 187
187 187 187
187 187 170
187 187 170
170 170 170
170 170 153
170 170 153
170 170 153
170 170 170
170 170 153
170 170 153
153 153 153
153 153 153
153 153 153
170 170 153
170 170 153
170 170 153
170 170 153
170 170 153
170 170 153
170 170 153
170 170 153
170 170 153
153 153 136
153 153 153
170 153 153
170 170 153
170 170 153
170 170 153
170 153 136
170 153 153
170 170 153
170 153 153
153 136 136
136 136 119
136 119 119
136 119 119
153 153 136
170 170 153
170 170 170
187 187 187
187 187 187
204 204 187
204 204 187
204 204 187
187 204 187
204 204 187
204 204 187
187 187 187
187 187 187
204 204 187
204 204 187
204 204 204
204 204 187
204 204 204
204 204 204
204 221 204
221 221 221
221 221 221
221 221 221
221 238 221
238 255 255
255 255 255
255 255 255
255 255 255
255 255 255
255 255 255
255 255 255
255 255 255
255 255 255
255 255 255
255 255 255
255 255 255
255 255 255
0 0 255
0 0 255
255 255 255
255 255 255
255 255 255
255 255 255
255 255 255
255 255 255
255 255 255
255 255 255
255 255 255
255 255 255
255 255 255
255 255 255
255 255 255
255 255 255
255 255 255
255 255 255
255 255 255
255 255 255
255 255 255
255 255 255
255 255 255
255 255 255
255 255 255
255 255 255
255 255 255
255 255 255
255 255 255
255 255 255
255 255 255
255 255 255
255 255 255
255 255 255
255 255 255
255 255 255
255 255 255
255 255 255
255 255 255
255 255 255
255 255 255
255 255 255
255 255 255
255 255 255
255 255 255
255 255 255
255 255 255
255 255 255
255 255 255
255 255 255
255 255 255
255 255 255
255 255 255
255 255 255
255 255 255
255 255 255
255 255 255
255 255 255
255 255 255
255 255 255
255 255 255
255 255 255
255 255 255
255 255 255
255 255 255
255 255 255
255 255 255
255 255 255
255 255 255
255 255 255
255 255 255
255 255 255
255 255 255
255 255 255
255 255 255
255 255 255
255 255 255
255 255 255
255 255 255
255 255 255
255 255 255
255 255 255
255 255 255
255 255 255
255 255 255
255 255 255
238 255 255
238 255 255
238 238 238
238 238 238
221 221 221
204 221 204
204 204 204
187 204 187
170 187 170
153 170 153
136 153 136
119 153 119
119 136 102
102 119 85
85 119 85
85 102 68
68 102 51
68 102 51
68 102 51
68 102 51
68 102 51
204 204 187
204 204 204
221 221 204
221 221 204
221 221 204
221 221 204
221 221 204
221 221 204
221 221 204
221 221 204
221 221 204
221 221 204
221 221 204
221 221 204
221 221 204
221 221 204
221 221 204
221 221 204
221 221 204
221 221 204
221 221 204
221 221 204
221 221 204
221 221 204
221 221 204
221 221 221
221 221 221
221 221 221
221 221 221
221 221 221
221 221 204
221 221 204
221 221 204
221 221 204
221 221 204
221 221 204
221 221 204
221 221 204
221 221 204
221 221 204
221 221 204
221 221 204
221 221 204
221 221 204
221 221 204
221 221 204
221 221 221
221 221 221
221 221 221
221 221 221
221 221 221
221 221 221
221 221 221
221 221 221
221 221 221
221 221 221
221 221 204
221 221 204
221 221 221
221 221 204
221 221 221
221 221 204
221 221 204
221 221 204
221 221 204
221 221 221
221 221 221
221 221 204
221 221 204
221 204 187
221 204 187
221 204 187
221 204 187
221 204 187
221 204 187
221 204 187
204 204 187
204 204 170
204 204 187
204 204 170
204 204 187
204 204 187
221 204 187
221 221 187
221 221 204
238 221 204
238 221 204
238 221 221
238 238 221
238 238 221
238 238 221
238 238 238
238 238 238
238 238 238
238 238 238
255 255 238
238 255 238
255 255 238
255 255 238
255 255 238
238 238 238
238 238 221
221 221 204
204 204 187
204 204 187
204 204 187
0 0 255
0 0 255
204 204 187
204 204 187
204 204 187
204 204 187
204 204 187
204 204 187
204 204 187
204 204 170
187 187 170
187 187 170
187 187 170
187 187 170
187 187 170
187 187 170
170 170 153
170 170 153
187 187 153
187 187 170
187 187 170
204 204 187
204 204 204
204 204 187
204 204 187
204 204 187
204 204 187
204 204 187
187 187 170
187 187 170
187 187 187
187 204 187
187 187 187
187 187 187
187 187 170
187 187 170
170 187 170
170 170 170
170 170 170
170 170 153
170 170 153
170 170 170
170 170 153
170 170 153
153 153 153
170 170 153
170 170 153
170 170 153
153 170 153
170 170 153
170 170 153
170 170 153
170 170 170
170 170 170
170 170 153
170 170 153
153 153 153
153 153 136
153 153 153
170 170 153
170 170 170
170 170 170
170 153 153
153 153 136
153 153 136
170 170 170
170 170 170
153 153 153
153 136 136
136 136 119
153 153 136
170 153 153
170 170 170
187 187 187
187 204 187
187 204 187
204 204 187
204 204 187
204 204 187
204 204 187
187 204 187
204 204 187
204 204 187
204 204 187
204 204 187
204 204 204
204 204 204
204 204 204
204 204 204
204 204 204
204 221 204
221 221 221
221 221 221
238 238 238
238 238 238
255 255 255
255 255 255
255 255 255
255 255 255
255 255 255
255 255 255
255 255 255
255 255 255
255 255 255
255 255 255
255 255 255
255 255 255
0 0 255
0 0 255
255 255 255
255 255 255
255 255 255
255 255 255
255 255 255
255 255 255
255 255 255
255 255 255
255 255 255
255 255 255
255 255 255
255 255 255
255 255 255
255 255 255
255 255 255
255 255 255
255 255 255
255 255 255
255 255 255
255 255 255
255 255 255
255 255 255
255 255 255
255 255 255
255 255 255
255 255 255
255 255 255
255 255 255
255 255 255
255 255 255
255 255 255
255 255 255
255 255 255
255 255 255
255 255 255
255 255 255
255 255 255
255 255 255
255 255 255
255 255 255
255 255 255
255 255 255
255 255 255
255 255 255
255 255 255
255 255 255
255 255 255
255 255 255
255 255 255
255 255 255
255 255 255
255 255 255
255 255 255
255 255 255
255 255 255
255 255 255
255 255 255
255 255 255
255 255 255
255 255 255
255 255 255
255 255 255
255 255 255
255 255 255
255 255 255
255 255 255
255 255 255
255 255 255
255 255 255
255 255 255
255 255 255
255 255 255
255 255 255
255 255 255
255 255 255
255 255 255
255 255 255
255 255 255
255 255 255
255 255 255
255 255 255
255 255 255
255 255 255
255 255 255
255 255 255
255 255 255
255 255 255
255 255 255
255 255 255
255 255 255
255 255 255
255 255 255
255 255 255
255 255 255
238 255 255
238 238 238
238 238 238
221 238 221
221 221 221
204 221 204
204 204 204
187 204 187
170 187 187
170 187 170
153 170 153
221 221 204
221 221 204
204 221 204
221 221 204
221 221 204
204 221 204
221 221 204
221 221 204
221 221 204
221 221 204
221 221 204
221 221 204
221 221 204
221 221 204
221 221 204
221 221 204
221 221 204
221 221 204
221 221 204
221 221 204
221 221 204
221 221 204
221 221 221
221 221 204
221 221 204
221 221 221
221 221 221
221 221 204
221 221 221
221 221 221
221 221 221
221 221 204
221 221 204
221 221 204
221 221 204
221 221 204
221 221 204
221 221 204
221 221 204
221 221 204
221 221 204
221 221 204
221 221 204
221 221 204
221 221 204
221 221 204
221 221 221
221 221 221
221 221 221
221 221 221
221 221 221
221 221 221
221 221 221
221 221 221
221 221 221
221 221 204
221 221 204
221 221 204
221 221 204
221 221 204
221 221 204
221 221 204
221 221 204
221 221 204
221 221 204
221 221 204
221 221 204
221 221 204
221 221 187
221 204 187
221 204 187
221 204 170
221 204 170
221 204 170
204 204 170
204 187 170
204 187 170
204 187 170
204 187 170
204 187 170
204 187 170
204 204 170
204 204 170
221 204 187
221 221 204
221 221 204
238 221 204
238 221 204
238 238 221
238 238 221
238 238 221
238 238 221
238 238 238
255 255 238
255 255 238
255 255 238
238 255 238
238 255 238
255 255 238
255 255 238
238 238 238
221 221 204
204 204 187
204 204 187
204 204 187
204 204 204
0 0 255
0 0 255
204 204 187
204 204 187
204 204 187
204 204 187
204 204 187
204 204 187
204 204 187
187 204 170
187 187 170
187 187 170
187 187 170
187 187 153
187 170 153
187 187 170
170 170 153
170 170 153
170 170 153
187 187 170
187 187 187
204 204 204
204 204 187
204 204 187
204 204 187
204 204 187
204 204 187
204 204 187
187 187 170
187 187 187
187 187 187
187 187 187
187 187 187
187 187 187
187 187 170
170 187 170
170 170 170
170 170 170
170 170 170
170 170 153
170 170 153
170 170 153
170 170 153
170 170 153
170 170 153
170 170 153
170 170 153
170 170 153
170 170 153
170 170 153
170 170 170
170 170 170
187 187 170
170 170 170
170 170 170
170 170 153
170 153 153
170 153 153
170 170 153
170 170 170
187 170 170
187 170 170
187 170 170
170 153 153
153 136 136
153 153 136
187 170 170
187 187 170
170 170 153
153 153 136
153 153 136
170 170 153
170 170 170
187 187 170
204 204 187
204 204 187
204 204 187
204 204 187
204 204 187
204 204 187
204 204 187
204 204 187
204 187 187
204 187 187
204 204 187
204 204 204
204 204 204
204 204 187
204 204 204
204 204 204
204 204 204
204 221 204
221 221 221
238 238 238
255 255 255
255 255 255
255 255 255
255 255 255
255 255 255
255 255 255
255 255 255
255 255 255
255 255 255
255 255 255
255 255 255
255 255 255
255 255 255
0 0 255
0 0 255
255 255 255
255 255 255
255 255 255
255 255 255
255 255 255
255 255 255
255 255 255
255 255 255
255 255 255
255 255 255
255 255 255
255 255 255
255 255 255
255 255 255
255 255 255
255 255 255
255 255 255
255 255 255
255 255 255
255 255 255
255 255 255
255 255 255
255 255 255
255 255 255
255 255 255
255 255 255
255 255 255
255 255 255
255 255 255
255 255 255
255 255 255
255 255 255
255 255 255
255 255 255
255 255 255
255 255 255
255 255 255
255 255 255
255 255 255
255 255 255
255 255 255
255 255 255
255 255 255
255 255 255
255 255 255
255 255 255
255 255 255
255 255 255
255 255 255
255 255 255
255 255 255
255 255 255
255 255 255
255 255 255
255 255 255
255 255 255
255 255 255
255 255 255
255 255 255
255 255 255
255 255 255
255 255 255
255 255 255
255 255 255
255 255 255
255 255 255
255 255 255
255 255 255
255 255 255
255 255 255
255 255 255
255 255 255
255 255 255
255 255 255
255 255 255
255 255 255
255 255 255
255 255 255
255 255 255
255 255 255
255 255 255
255 255 255
255 255 255
255 255 255
255 255 255
255 255 255
255 255 255
255 255 255
255 255 255
255 255 255
255 255 255
255 255 255
255 255 255
255 255 255
255 255 255
255 255 255
255 255 255
255 255 255
255 255 255
255 255 255
255 255 255
255 255 255
255 255 255
255 255 255
238 255 255
204 221 204
204 221 204
221 221 204
221 221 204
221 221 204
221 221 204
221 221 204
221 221 204
221 221 204
221 221 204
221 221 204
221 221 204
221 221 204
221 221 204
221 221 204
221 221 204
221 221 204
221 221 204
221 221 204
221 221 204
221 221 204
221 221 204
221 221 204
221 221 221
221 221 221
221 221 221
221 221 204
221 221 204
221 221 221
221 221 221
221 221 204
221 221 204
221 221 204
221 221 204
221 221 204
221 221 204
221 221 204
221 221 204
221 221 204
221 221 204
221 221 204
221 221 204
221 221 204
221 221 204
221 221 204
221 221 221
221 221 221
221 221 221
221 221 221
221 221 221
221 221 221
221 221 221
221 221 221
221 221 221
221 221 221
221 221 204
221 221 204
221 221 204
221 221 204
221 221 204
221 221 204
221 221 204
221 221 204
221 221 204
221 221 204
221 221 204
221 221 204
221 221 187
221 204 187
221 204 170
204 187 170
204 187 153
204 187 153
204 187 153
187 170 153
187 170 153
187 170 153
187 187 153
204 187 153
204 187 170
204 187 170
204 204 187
221 204 187
221 221 187
221 221 204
238 221 204
238 221 204
238 221 204
238 221 221
238 238 221
238 238 221
238 238 221
238 238 238
238 238 238
255 255 238
255 255 238
255 255 238
238 255 238
255 255 238
255 255 238
238 238 238
221 221 204
204 204 187
204 204 187
204 204 187
204 204 204
0 0 255
0 0 255
204 204 187
204 204 187
204 204 187
204 204 187
204 204 187
187 204 170
187 187 170
187 187 170
187 187 170
187 187 170
187 187 170
170 170 153
170 170 153
187 187 170
170 170 153
170 170 153
170 170 153
187 187 170
204 204 187
204 204 204
204 204 187
204 204 187
187 187 187
204 204 187
204 204 187
187 204 187
187 187 170
187 187 187
187 187 187
187 187 187
187 187 170
187 187 170
187 187 170
187 187 170
170 170 170
170 170 170
170 170 153
170 170 153
170 170 153
170 170 170
170 170 153
170 170 153
170 170 153
170 170 153
170 170 170
170 170 153
170 170 153
170 170 170
170 170 170
187 187 170
187 187 170
170 170 170
170 170 170
170 170 153
170 170 153
170 170 153
170 153 153
170 170 153
187 187 170
187 187 170
187 187 170
170 170 153
153 136 136
153 136 119
170 153 153
187 187 170
187 187 170
170 170 153
153 153 136
170 170 153
170 170 153
187 187 170
187 187 187
204 204 187
204 204 187
204 204 187
204 204 187
204 204 187
204 204 204
204 204 187
204 204 187
187 187 187
204 204 187
204 204 187
204 204 187
204 204 187
204 204 187
204 204 204
204 204 204
204 221 204
221 221 221
238 238 238
255 255 255
255 255 255
255 255 255
255 255 255
255 255 255
255 255 255
255 255 255
255 255 255
255 255 255
255 255 255
255 255 255
255 255 255
255 255 255
0 0 255
0 0 255
255 255 255
255 255 255
255 255 255
255 255 255
255 255 255
255 255 255
255 255 255
255 255 255
255 255 255
255 255 255
255 255 255
255 255 255
255 255 255
255 255 255
255 255 255
255 255 255
255 255 255
255 255 255
255 255 255
255 255 255
255 255 255
255 255 255
255 255 255
255 255 255
255 255 255
255 255 255
255 255 255
255 255 255
255 255 255
255 255 255
255 255 255
255 255 255
255 255 255
255 255 255
255 255 255
255 255 255
255 255 255
255 255 255
255 255 255
255 255 255
255 255 255
255 255 255
255 255 255
255 255 255
255 255 255
255 255 255
255 255 255
255 255 255
255 255 255
255 255 255
255 255 255
255 255 255
255 255 255
255 255 255
255 255 255
255 255 255
255 255 255
255 255 255
255 255 255
255 255 255
255 255 255
255 255 255
255 255 255
255 255 255
255 255 255
255 255 255
255 255 255
255 255 255
255 255 255
255 255 255
255 255 255
255 255 255
255 255 255
255 255 255
255 255 255
255 255 255
255 255 255
255 255 255
255 255 255
255 255 255
255 255 255
255 255 255
255 255 255
255 255 255
255 255 255
255 255 255
255 255 255
255 255 255
255 255 255
255 255 255
255 255 255
255 255 255
255 255 255
255 255 255
255 255 255
255 255 255
255 255 255
255 255 255
255 255 255
255 255 255
255 255 255
255 255 255
255 255 255
255 255 255
255 255 255
204 221 204
221 221 204
221 221 204
221 221 204
221 221 204
221 221 204
221 221 204
221 221 204
221 221 204
221 221 204
221 221 204
221 221 204
221 221 204
221 221 204
221 221 204
221 221 204
221 221 204
221 221 204
221 221 204
221 221 204
221 221 204
221 221 221
221 221 221
221 221 221
221 221 221
221 221 221
221 221 221
221 221 221
221 221 204
221 221 204
221 221 204
221 221 204
221 221 204
221 221 204
221 221 204
221 221 204
221 221 204
221 221 204
221 221 204
221 221 204
221 221 204
221 221 204
221 221 204
221 221 221
221 221 221
221 221 221
221 221 221
221 221 221
221 221 221
221 221 221
221 221 221
221 221 221
221 221 221
221 221 204
221 221 204
221 221 204
221 221 204
221 221 204
221 221 204
221 221 204
221 221 204
221 221 204
221 221 204
221 221 204
221 221 204
221 221 204
221 204 187
221 204 187
204 204 170
204 187 170
204 187 153
187 170 153
187 170 136
187 170 136
187 170 136
187 170 136
187 170 153
187 187 153
204 187 170
204 187 170
204 204 170
204 204 170
204 204 170
221 204 187
221 221 204
221 221 204
221 221 204
221 221 204
221 221 204
221 221 204
238 221 204
238 221 221
238 238 221
238 238 221
238 238 221
238 238 238
238 238 238
238 255 238
238 255 238
255 255 238
238 238 238
221 221 204
204 204 187
204 204 187
204 204 187
204 221 204
0 0 255
0 0 255
204 204 187
204 204 187
187 204 170
187 187 170
204 204 170
187 204 170
187 187 170
187 187 170
187 187 170
187 187 170
170 170 153
170 170 153
170 170 153
170 170 153
170 170 153
170 170 153
170 170 153
170 170 153
204 204 187
204 204 204
204 204 187
204 204 187
204 187 187
187 187 187
204 204 187
187 204 187
187 187 187
187 187 187
187 187 187
204 204 187
187 187 187
187 187 170
187 187 170
170 170 170
170 170 153
170 170 153
170 170 153
170 170 153
170 170 153
170 170 153
170 170 153
170 170 153
170 170 153
170 170 153
170 170 170
170 170 170
170 170 153
170 170 170
170 170 170
187 187 170
170 170 170
170 170 170
170 170 170
170 170 153
170 170 153
170 170 153
170 170 153
170 170 153
170 170 170
187 187 170
187 187 187
170 170 170
153 136 136
153 136 119
153 153 136
170 170 153
187 187 187
187 187 170
170 170 153
170 170 153
170 170 153
187 187 170
187 187 187
204 204 187
187 187 187
204 204 187
204 204 204
204 204 204
204 204 204
204 204 187
204 204 187
187 187 187
187 187 187
204 204 187
204 204 187
187 187 187
204 204 187
204 204 204
204 221 204
204 221 204
221 238 221
238 238 238
255 255 255
255 255 255
255 255 255
255 255 255
255 255 255
255 255 255
255 255 255
255 255 255
255 255 255
255 255 255
255 255 255
255 255 255
255 255 255
0 0 255
0 0 255
255 255 255
255 255 255
255 255 255
255 255 255
255 255 255
255 255 255
255 255 255
255 255 255
255 255 255
255 255 255
255 255 255
255 255 255
255 255 255
255 255 255
255 255 255
255 255 255
255 255 255
255 255 255
255 255 255
255 255 255
255 255 255
255 255 255
255 255 255
255 255 255
255 255 255
255 255 255
255 255 255
255 255 255
255 255 255
255 255 255
255 255 255
255 255 255
255 255 255
255 255 255
255 255 255
255 255 255
255 255 255
255 255 255
255 255 255
255 255 255
255 255 255
255 255 255
255 255 255
255 255 255
255 255 255
255 255 255
255 255 255
255 255 255
255 255 255
255 255 255
255 255 255
255 255 255
255 255 255
255 255 255
255 255 255
255 255 255
255 255 255
255 255 255
255 255 255
255 255 255
255 255 255
255 255 255
255 255 255
255 255 255
255 255 255
255 255 255
255 255 255
255 255 255
255 255 255
255 255 255
255 255 255
255 255 255
255 255 255
255 255 255
255 255 255
255 255 255
255 255 255
255 255 255
255 255 255
255 255 255
255 255 255
255 255 255
255 255 255
255 255 255
255 255 255
255 255 255
255 255 255
255 255 255
255 255 255
255 255 255
255 255 255
255 255 255
255 255 255
255 255 255
255 255 255
255 255 255
255 255 255
255 255 255
255 255 255
255 255 255
255 255 255
255 255 255
255 255 255
255 255 255
255 255 255
204 221 204
221 221 204
221 221 204
221 221 204
221 221 204
221 221 204
221 221 204
221 221 204
221 221 204
221 221 204
221 221 204
221 221 204
221 221 204
221 221 204
221 221 204
221 221 204
221 221 204
221 221 204
221 221 204
221 221 204
221 221 204
221 221 221
221 221 221
221 221 204
221 221 221
221 221 221
221 221 221
221 221 204
221 221 204
221 221 204
221 221 204
221 221 204
221 221 204
221 221 204
221 221 204
221 221 204
221 221 204
221 221 204
221 221 204
221 221 204
221 221 204
221 221 204
221 221 204
221 221 221
221 221 221
221 221 221
221 221 221
221 221 221
221 221 221
221 221 221
221 221 221
221 221 221
221 221 221
221 221 204
221 221 204
221 221 204
221 221 204
221 221 204
221 221 204
221 221 204
221 221 204
221 221 204
221 221 204
221 221 204
221 221 204
221 204 204
204 204 187
204 204 170
204 187 170
204 187 153
187 170 136
187 170 136
187 170 136
187 170 136
187 170 153
204 187 153
204 187 170
204 187 170
204 187 170
204 187 170
204 187 170
204 204 170
221 204 187
221 204 187
221 204 187
221 204 187
221 204 170
221 204 187
221 204 187
221 221 187
221 221 204
221 221 204
221 221 204
238 221 221
238 238 221
238 238 221
238 238 238
238 238 238
238 238 238
238 238 238
238 238 221
221 221 204
221 221 204
221 221 204
221 221 204
221 221 204
0 0 255
0 0 255
204 204 187
204 204 187
204 204 187
204 204 170
187 187 170
187 187 170
187 187 170
187 187 170
187 187 170
187 170 153
170 170 153
170 170 153
170 170 153
170 170 153
170 170 153
170 170 153
170 170 153
187 170 153
204 204 187
204 204 187
204 204 187
204 204 187
187 204 187
187 187 187
204 204 187
204 204 187
204 204 187
204 204 187
204 204 187
204 204 187
187 187 170
170 170 153
170 170 153
170 170 170
170 170 153
170 170 153
170 170 153
170 170 153
170 170 153
170 170 153
170 170 153
170 170 153
170 170 153
170 170 170
187 187 170
170 170 170
170 170 153
170 170 170
187 187 170
187 187 170
170 170 170
170 170 170
187 187 170
170 170 153
170 170 153
170 187 170
170 170 153
170 170 153
170 170 153
187 187 170
187 187 187
187 170 170
170 153 153
153 136 136
153 136 136
170 153 153
187 170 170
187 187 187
187 187 170
170 170 153
170 170 153
187 187 170
187 187 187
204 204 187
204 187 187
187 187 187
204 204 187
204 204 204
204 204 204
204 204 204
204 204 187
187 187 187
187 187 170
204 204 187
187 187 187
204 204 187
204 204 187
204 204 204
204 221 204
221 221 221
238 238 238
255 255 255
255 255 255
255 255 255
255 255 255
255 255 255
255 255 255
255 255 255
255 255 255
255 255 255
255 255 255
255 255 255
255 255 255
255 255 255
255 255 255
0 0 255
0 0 255
255 255 255
255 255 255
255 255 255
255 255 255
255 255 255
255 255 255
255 255 255
255 255 255
255 255 255
255 255 255
255 255 255
255 255 255
255 255 255
255 255 255
255 255 255
255 255 255
255 255 255
255 255 255
255 255 255
255 255 255
255 255 255
255 255 255
255 255 255
255 255 255
255 255 255
255 255 255
255 255 255
255 255 255
255 255 255
255 255 255
255 255 255
255 255 255
255 255 255
255 255 255
255 255 255
255 255 255
255 255 255
255 255 255
255 255 255
255 255 255
255 255 255
255 255 255
255 255 255
255 255 255
255 255 255
255 255 255
255 255 255
255 255 255
255 255 255
255 255 255
255 255 255
255 255 255
255 255 255
255 255 255
255 255 255
255 255 255
255 255 255
255 255 255
255 255 255
255 255 255
255 255 255
255 255 255
255 255 255
255 255 255
255 255 255
255 255 255
255 255 255
255 255 255
255 255 255
255 255 255
255 255 255
255 255 255
255 255 255
255 255 255
255 255 255
255 255 255
255 255 255
255 255 255
255 255 255
255 255 255
255 255 255
255 255 255
255 255 255
255 255 255
255 255 255
255 255 255
255 255 255
255 255 255
255 255 255
255 255 255
255 255 255
255 255 255
255 255 255
255 255 255
255 255 255
255 255 255
255 255 255
255 255 255
255 255 255
255 255 255
255 255 255
255 255 255
255 255 255
255 255 255
255 255 255
204 221 204
221 221 204
221 221 204
221 221 204
221 221 204
221 221 204
221 221 204
221 221 204
221 221 204
221 221 204
221 221 204
221 221 204
221 221 204
221 221 204
221 221 204
221 221 204
221 221 204
221 221 204
221 221 204
221 221 204
221 221 204
221 221 221
221 221 221
221 221 221
221 221 221
221 221 221
221 221 204
221 221 204
221 221 204
221 221 204
221 221 204
221 221 204
221 221 204
221 221 204
221 221 204
221 221 204
221 221 204
221 221 204
221 221 204
221 221 204
221 221 204
221 221 204
221 221 221
221 221 221
221 221 221
221 221 221
221 221 221
221 221 221
221 221 221
221 221 221
221 221 221
221 221 204
221 221 204
221 221 204
221 221 204
221 221 204
221 221 204
221 221 204
221 221 204
221 221 204
221 221 221
221 221 221
221 221 204
221 221 204
221 221 204
204 204 187
204 204 170
204 187 170
204 187 153
187 170 153
187 170 153
187 170 153
204 187 153
204 187 170
204 187 170
204 187 170
204 187 170
204 187 170
204 187 170
204 187 170
221 204 187
221 204 187
221 204 187
221 204 170
221 204 170
204 204 170
204 204 170
221 204 170
221 204 187
221 204 187
221 204 187
221 204 187
221 221 187
221 221 204
221 221 204
238 221 221
238 238 221
238 238 221
238 238 238
238 238 238
238 238 221
221 221 221
221 221 204
221 221 204
221 221 204
221 221 204
0 0 255
0 0 255
204 204 187
187 187 170
187 187 170
187 187 170
187 187 170
187 187 170
187 187 170
187 187 170
170 170 153
170 170 153
170 170 153
170 170 136
170 170 136
170 170 153
170 170 153
170 170 153
170 170 153
187 187 170
204 204 187
204 204 204
204 204 204
204 204 187
187 187 187
187 187 170
187 204 187
204 204 187
204 204 187
204 204 187
204 204 187
187 187 187
170 170 170
170 170 170
170 170 170
170 170 170
170 170 153
153 170 153
153 153 136
170 170 153
170 170 153
170 170 170
170 170 153
170 170 153
170 170 170
187 187 170
187 187 170
170 170 170
170 170 153
170 170 170
170 187 170
187 187 170
170 170 153
187 187 170
187 187 170
170 170 153
170 170 153
187 187 170
170 170 170
170 170 153
170 170 153
187 187 170
187 187 187
187 187 187
170 153 153
153 153 136
153 136 136
153 153 136
170 170 153
187 187 187
187 187 187
170 170 153
170 170 153
187 187 170
187 187 187
204 204 187
204 204 187
187 187 187
187 187 187
204 204 187
204 204 204
204 204 204
204 204 187
187 187 187
187 187 170
187 187 170
187 187 187
204 204 187
204 204 187
204 221 204
221 221 204
221 221 221
238 238 238
255 255 255
255 255 255
255 255 255
255 255 255
255 255 255
255 255 255
255 255 255
255 255 255
255 255 255
255 255 255
255 255 255
255 255 255
255 255 255
255 255 255
0 0 255
0 0 255
255 255 255
255 255 255
255 255 255
255 255 255
255 255 255
255 255 255
255 255 255
255 255 255
255 255 255
255 255 255
255 255 255
255 255 255
255 255 255
255 255 255
255 255 255
255 255 255
255 255 255
255 255 255
255 255 255
255 255 255
255 255 255
255 255 255
255 255 255
255 255 255
255 255 255
255 255 255
255 255 255
255 255 255
255 255 255
255 255 255
255 255 255
255 255 255
255 255 255
255 255 255
255 255 255
255 255 255
255 255 255
255 255 255
255 255 255
255 255 255
255 255 255
255 255 255
255 255 255
255 255 255
255 255 255
255 255 255
255 255 255
255 255 255
255 255 255
255 255 255
255 255 255
255 255 255
255 255 255
255 255 255
255 255 255
255 255 255
255 255 255
255 255 255
255 255 255
255 255 255
255 255 255
255 255 255
255 255 255
255 255 255
238 255 255
238 255 255
238 255 255
255 255 255
255 255 255
255 255 255
255 255 255
255 255 255
255 255 255
255 255 255
255 255 255
255 255 255
255 255 255
255 255 255
255 255 255
255 255 255
255 255 255
255 255 255
255 255 255
255 255 255
255 255 255
255 255 255
255 255 255
255 255 255
255 255 255
255 255 255
255 255 255
255 255 255
255 255 255
255 255 255
255 255 255
255 255 255
255 255 255
255 255 255
255 255 255
255 255 255
255 255 255
255 255 255
255 255 255
255 255 255
255 255 255
221 221 204
221 221 204
221 221 204
221 221 204
221 221 204
221 221 204
221 221 204
221 221 204
221 221 204
221 221 204
221 221 204
221 221 204
221 221 204
221 221 204
221 221 204
221 221 204
221 221 204
221 221 204
221 221 204
221 221 204
221 221 204
221 221 221
221 221 204
221 221 204
221 221 204
221 221 204
221 221 204
221 221 204
221 221 204
221 221 204
221 221 204
221 221 204
221 221 204
221 221 204
221 221 204
221 221 204
221 221 204
221 221 204
221 221 204
221 221 204
221 221 204
221 221 204
221 221 221
221 221 221
221 221 221
221 221 221
221 221 221
221 221 221
221 221 221
221 221 221
221 221 204
221 221 204
221 221 204
221 221 204
221 221 204
221 221 204
221 221 204
221 221 204
221 221 204
221 221 221
221 221 221
221 221 221
221 221 204
221 221 204
221 221 204
204 204 187
204 187 170
204 187 153
187 187 153
204 187 153
204 187 153
204 187 170
204 187 170
204 187 153
187 170 153
187 170 153
187 170 153
187 170 153
187 187 153
221 204 187
221 221 204
221 204 187
221 204 170
221 204 170
221 204 170
204 204 170
204 204 170
221 204 187
221 204 187
221 204 187
221 204 187
221 204 187
221 204 187
221 221 187
221 221 204
221 221 204
221 221 204
238 238 221
238 238 221
238 238 221
221 238 221
221 221 221
221 221 204
221 221 204
221 221 204
221 221 204
0 0 255
0 0 255
204 204 187
187 187 170
187 187 170
187 187 170
187 187 170
187 187 170
187 187 170
170 170 153
170 170 136
170 170 136
170 170 153
170 170 153
170 170 153
170 170 153
170 170 153
170 170 153
170 170 153
187 187 170
204 204 187
221 221 204
204 204 204
204 204 187
187 187 170
187 187 170
187 187 187
204 204 187
204 204 187
204 204 187
187 204 187
187 187 170
187 187 170
187 187 170
187 187 170
170 170 153
170 170 153
153 170 153
153 153 153
170 170 153
170 170 170
170 170 170
170 170 170
170 170 170
187 187 170
187 187 170
187 187 170
170 170 170
170 170 153
170 170 170
170 170 170
170 187 170
170 170 170
187 187 170
170 170 170
170 170 153
170 170 170
187 187 170
170 170 170
170 170 153
170 170 153
170 170 153
187 187 187
187 187 187
170 153 153
153 153 136
153 153 136
153 153 136
153 153 136
170 170 153
187 187 187
170 170 170
170 170 170
187 187 170
187 187 187
204 204 187
204 204 187
204 204 187
204 204 187
204 204 187
204 204 187
204 204 187
204 204 187
187 187 170
187 187 170
187 187 170
187 204 187
204 204 187
204 204 204
204 221 204
204 221 204
221 221 221
255 255 238
255 255 255
255 255 255
255 255 255
255 255 255
255 255 255
255 255 255
255 255 255
255 255 255
255 255 255
255 255 255
255 255 255
255 255 255
255 255 255
255 255 255
0 0 255
0 0 255
255 255 255
255 255 255
255 255 255
255 255 255
255 255 255
255 255 255
255 255 255
255 255 255
255 255 255
255 255 255
255 255 255
255 255 255
255 255 255
255 255 255
255 255 255
255 255 255
255 255 255
255 255 255
255 255 255
255 255 255
255 255 255
255 255 255
255 255 255
255 255 255
255 255 255
255 255 255
255 255 255
255 255 255
255 255 255
255 255 255
255 255 255
255 255 255
255 255 255
255 255 255
255 255 255
255 255 255
255 255 255
255 255 255
255 255 255
255 255 255
255 255 255
255 255 255
255 255 255
255 255 255
255 255 255
255 255 255
255 255 255
255 255 255
238 255 255
238 255 255
255 255 255
255 255 255
255 255 255
255 255 255
255 255 255
255 255 255
255 255 255
255 255 255
255 255 255
255 255 255
255 255 255
255 255 255
255 255 255
255 255 255
255 255 255
255 255 255
255 255 255
255 255 255
255 255 255
255 255 255
255 255 255
255 255 255
255 255 255
255 255 255
255 255 255
255 255 255
255 255 255
255 255 255
255 255 255
255 255 255
255 255 255
255 255 255
255 255 255
255 255 255
255 255 255
255 255 255
255 255 255
255 255 255
255 255 255
255 255 255
255 255 255
255 255 255
255 255 255
255 255 255
255 255 255
255 255 255
255 255 255
255 255 255
255 255 255
255 255 255
255 255 255
255 255 255
255 255 255
255 255 255
255 255 255
221 221 204
221 221 204
221 221 204
221 221 204
221 221 204
221 221 204
221 221 204
221 221 204
221 221 204
221 221 204
221 221 204
221 221 204
221 221 204
221 221 204
221 221 204
221 221 204
221 221 204
221 221 204
221 221 204
221 221 204
221 221 204
221 221 204
221 221 204
221 221 204
221 221 204
221 221 204
221 221 204
221 221 204
221 221 204
221 221 204
221 221 204
221 221 204
221 221 204
221 221 204
221 221 204
221 221 204
221 221 204
221 221 204
221 221 204
221 221 204
221 221 204
221 221 221
221 221 221
221 221 221
221 221 221
221 221 221
221 221 221
221 221 221
221 221 221
221 221 204
221 221 204
221 221 204
221 221 204
221 221 204
221 221 204
221 221 204
221 221 204
221 221 204
221 221 221
221 221 221
221 221 221
221 221 221
221 221 221
221 221 204
221 221 204
204 204 187
204 187 170
204 187 153
187 170 153
187 170 153
187 170 136
187 170 136
187 153 136
170 153 119
170 153 119
170 153 119
170 153 136
187 187 153
221 204 187
221 221 204
221 204 187
221 204 170
221 204 170
204 204 170
221 204 170
204 204 170
204 187 170
204 187 170
204 187 170
204 187 170
204 204 170
204 204 170
204 204 187
221 204 187
221 204 187
221 221 187
221 221 204
221 221 221
238 238 221
238 238 221
221 221 221
221 221 204
221 221 204
221 221 204
221 221 204
221 221 204
0 0 255
0 0 255
204 204 187
187 187 170
187 187 170
187 187 170
187 187 170
187 187 170
170 170 153
170 170 153
170 170 153
170 170 153
170 170 153
170 170 136
170 170 153
170 170 153
170 170 153
170 170 153
187 187 170
204 204 187
204 204 204
204 204 204
204 204 187
204 204 187
187 187 170
187 187 170
187 204 187
204 204 187
204 204 187
187 204 187
187 187 187
187 187 187
204 204 187
187 187 170
170 170 153
170 170 153
170 170 153
170 170 153
170 170 153
170 170 170
170 170 170
170 170 170
170 170 170
187 187 170
187 187 170
187 187 170
187 187 170
170 170 170
170 170 153
170 170 153
170 170 153
170 170 153
187 187 170
187 187 170
170 170 153
170 170 153
170 170 170
187 187 170
170 170 170
170 170 153
170 170 153
170 170 153
187 187 170
187 187 187
170 170 153
153 153 136
153 153 136
153 153 136
153 153 136
170 153 153
187 187 170
187 187 170
170 170 170
187 187 170
187 187 170
187 187 187
187 187 187
187 187 187
187 187 187
204 204 187
204 204 187
204 204 187
204 204 187
187 187 170
187 187 170
187 187 187
204 204 187
204 204 187
204 204 204
221 221 204
221 221 204
238 238 221
255 255 238
255 255 255
255 255 255
255 255 255
255 255 255
255 255 255
255 255 255
255 255 255
255 255 255
255 255 255
255 255 255
255 255 255
255 255 255
255 255 255
255 255 255
0 0 255
0 0 255
255 255 255
255 255 255
255 255 255
255 255 255
255 255 255
255 255 255
255 255 255
255 255 255
255 255 255
255 255 255
255 255 255
255 255 255
255 255 255
255 255 255
255 255 255
255 255 255
255 255 255
255 255 255
255 255 255
255 255 255
255 255 255
255 255 255
255 255 255
255 255 255
255 255 255
255 255 255
255 255 255
255 255 255
255 255 255
255 255 255
255 255 255
255 255 255
255 255 255
255 255 255
255 255 255
255 255 255
255 255 255
255 255 255
255 255 255
255 255 255
255 255 255
255 255 255
255 255 255
255 255 255
255 255 255
255 255 255
255 255 255
255 255 255
255 255 255
255 255 238
238 255 238
255 255 255
255 255 255
255 255 255
255 255 255
255 255 255
255 255 255
255 255 255
255 255 255
255 255 255
255 255 255
255 255 255
255 255 255
255 255 255
255 255 255
255 255 255
255 255 255
255 255 255
255 255 255
255 255 255
255 255 255
255 255 255
255 255 255
255 255 255
255 255 255
255 255 255
255 255 255
255 255 255
255 255 255
255 255 255
255 255 255
255 255 255
255 255 255
255 255 255
255 255 255
255 255 255
255 255 255
255 255 255
255 255 255
255 255 255
255 255 255
255 255 255
255 255 255
255 255 255
255 255 255
255 255 255
255 255 255
255 255 255
255 255 255
255 255 255
255 255 255
255 255 255
255 255 255
255 255 255
255 255 255
221 221 204
221 221 204
221 221 204
221 221 204
221 221 204
221 221 204
221 221 204
221 221 204
221 221 204
221 221 204
221 221 204
221 221 204
221 221 204
221 221 204
221 221 204
221 221 204
221 221 204
221 221 204
221 221 204
221 221 204
221 221 204
221 221 204
221 221 204
221 221 204
221 221 204
221 221 204
221 221 204
221 221 204
221 221 204
221 221 204
221 221 204
221 221 204
221 221 204
221 221 204
221 221 204
221 221 204
221 221 204
221 221 204
221 221 204
221 221 204
221 221 221
221 221 221
221 221 221
221 221 221
221 221 221
221 221 221
221 221 221
221 221 221
221 221 204
221 221 204
221 221 204
221 221 204
221 221 204
221 221 204
221 221 204
221 221 204
221 221 204
221 221 204
221 221 221
221 221 221
221 221 221
221 221 221
221 221 204
221 221 204
221 221 204
204 204 187
204 187 170
187 170 153
187 170 136
170 153 119
170 153 119
170 136 102
153 136 102
170 136 102
153 136 102
170 153 119
187 170 153
221 204 187
221 221 204
221 221 187
221 204 187
221 204 170
204 204 170
204 187 170
204 187 153
204 170 136
187 170 136
187 170 136
187 170 136
187 170 136
187 170 153
204 187 153
204 187 170
204 187 170
204 204 170
221 204 187
221 221 204
221 221 204
238 238 221
221 221 221
221 221 204
221 221 204
221 221 204
221 221 204
221 221 204
204 204 204
0 0 255
0 0 255
187 204 170
187 187 170
187 187 170
187 187 170
187 187 170
187 170 153
170 170 153
170 170 153
170 170 153
170 170 153
170 170 136
170 170 136
170 170 136
170 153 136
170 170 136
170 170 153
187 187 170
187 187 187
204 204 204
204 204 204
204 204 187
187 187 187
187 187 170
187 187 187
187 204 187
187 204 187
204 204 187
187 204 187
187 204 187
204 204 187
187 187 187
187 187 170
187 187 170
170 170 153
170 170 153
170 170 153
170 170 153
170 170 170
170 170 153
170 170 170
187 187 170
187 187 170
187 187 170
187 187 170
187 187 170
170 170 170
170 170 170
170 170 153
170 170 153
170 170 153
187 187 170
187 187 170
170 170 153
170 170 153
187 187 170
187 187 187
187 187 170
170 170 153
170 170 153
170 170 153
187 170 170
187 187 187
170 170 153
153 136 136
153 153 136
153 153 136
153 153 136
170 153 153
170 170 170
187 187 170
187 187 170
187 187 170
187 187 170
187 187 187
187 204 187
187 204 187
187 187 187
187 187 187
187 187 187
187 187 187
187 187 187
187 187 170
187 187 170
187 187 187
204 204 187
204 204 187
204 221 204
204 221 204
221 221 221
238 238 238
255 255 255
255 255 255
255 255 255
255 255 255
255 255 255
255 255 255
255 255 255
255 255 255
255 255 255
255 255 255
255 255 255
255 255 255
255 255 255
255 255 255
255 255 255
0 0 255
0 0 255
255 255 255
255 255 255
255 255 255
255 255 255
255 255 255
255 255 255
255 255 255
255 255 255
255 255 255
255 255 255
255 255 255
255 255 255
255 255 255
255 255 255
255 255 255
255 255 255
255 255 255
255 255 255
255 255 255
255 255 255
255 255 255
255 255 255
255 255 255
255 255 255
255 255 255
255 255 255
255 255 255
255 255 255
255 255 255
255 255 255
255 255 255
255 255 255
255 255 255
255 255 255
255 255 255
255 255 255
255 255 255
255 255 255
255 255 255
255 255 255
255 255 255
255 255 255
255 255 255
255 255 255
255 255 255
255 255 255
255 255 255
255 255 255
255 255 255
255 255 255
255 255 255
255 255 255
255 255 255
255 255 255
255 255 255
255 255 255
255 255 255
255 255 255
255 255 255
255 255 255
255 255 255
255 255 255
255 255 255
255 255 255
255 255 255
255 255 255
255 255 255
255 255 255
255 255 255
255 255 255
255 255 255
255 255 255
255 255 255
255 255 255
255 255 255
255 255 255
255 255 255
255 255 255
255 255 255
255 255 255
255 255 255
255 255 255
255 255 255
255 255 255
255 255 255
255 255 255
255 255 255
255 255 255
255 255 255
255 255 255
255 255 255
255 255 255
255 255 255
255 255 255
255 255 255
255 255 255
255 255 255
255 255 255
255 255 255
255 255 255
255 255 255
255 255 255
255 255 255
255 255 255
255 255 255
221 221 204
221 221 204
221 221 204
221 221 204
221 221 204
221 221 204
221 221 204
221 221 204
221 221 204
221 221 204
221 221 204
221 221 204
221 221 204
221 221 204
221 221 204
221 221 204
221 221 204
221 221 204
221 221 204
221 221 204
221 221 204
221 221 204
221 221 204
221 221 204
221 221 204
221 221 204
221 221 204
221 221 204
221 221 204
221 221 204
221 221 204
221 221 204
221 221 204
221 221 204
221 221 204
221 221 204
221 221 204
221 221 204
221 221 221
221 221 204
221 221 221
221 221 221
221 221 221
221 221 221
221 221 221
221 221 221
221 221 221
221 221 204
221 221 204
221 221 204
221 221 204
221 221 204
221 221 204
221 221 204
221 221 204
221 221 204
221 221 204
221 221 204
221 221 221
221 221 221
221 221 221
221 221 221
221 221 204
221 221 204
221 221 204
204 204 187
187 187 170
187 170 153
170 170 136
170 153 136
170 153 119
170 153 119
170 153 136
170 153 136
170 153 119
170 153 119
187 170 153
221 204 187
221 221 204
221 204 187
204 204 170
204 187 170
204 187 170
204 187 153
187 170 136
187 170 119
187 153 119
170 153 119
170 153 119
170 153 119
170 153 136
187 170 136
187 170 136
187 170 153
204 187 170
204 204 170
221 204 187
221 221 204
221 238 221
221 221 204
221 221 204
221 221 204
221 221 204
204 204 204
204 204 204
204 204 187
0 0 255
0 0 255
204 204 187
187 187 170
187 187 170
187 187 170
187 187 170
187 187 170
187 170 153
170 170 153
170 170 153
170 170 153
170 170 136
170 170 136
170 153 136
170 153 136
170 153 136
170 170 153
187 187 170
204 204 187
204 204 204
204 204 204
204 204 187
187 187 187
187 204 187
187 187 170
187 204 187
204 204 187
187 204 187
187 204 187
187 204 187
187 204 187
187 187 170
187 187 170
187 187 170
170 170 170
170 170 170
170 170 170
170 170 153
170 170 153
170 170 153
170 170 170
170 170 170
170 187 170
187 187 170
187 187 170
187 187 170
170 170 170
170 170 153
170 170 153
170 170 153
170 170 153
170 170 170
170 170 170
170 170 153
170 170 153
187 187 170
187 204 187
187 187 170
170 170 153
170 170 153
170 170 153
170 170 170
187 187 170
170 153 153
153 136 119
153 153 136
153 153 136
153 153 136
170 153 153
170 170 153
187 187 170
187 187 170
187 187 170
187 187 187
187 187 187
187 187 187
187 187 187
204 204 187
187 187 187
187 187 170
187 187 170
187 187 170
187 187 170
187 187 170
204 204 187
204 204 187
204 204 204
204 221 204
204 221 204
221 221 221
238 255 238
255 255 255
255 255 255
255 255 255
255 255 255
255 255 255
255 255 255
255 255 238
255 255 255
255 255 255
255 255 255
255 255 255
255 255 255
255 255 255
255 255 255
255 255 255
0 0 255
0 0 255
255 255 255
255 255 255
255 255 255
255 255 255
255 255 255
255 255 255
255 255 255
255 255 255
255 255 255
255 255 255
255 255 255
255 255 255
255 255 255
255 255 255
255 255 255
255 255 255
255 255 255
255 255 255
255 255 255
255 255 255
255 255 255
255 255 255
255 255 255
255 255 255
255 255 255
255 255 255
255 255 255
255 255 255
255 255 255
255 255 255
255 255 255
255 255 255
255 255 255
255 255 255
255 255 255
255 255 255
255 255 255
255 255 255
255 255 255
255 255 255
255 255 255
255 255 255
255 255 255
255 255 255
255 255 255
255 255 255
255 255 255
255 255 255
255 255 255
255 255 255
255 255 255
255 255 255
255 255 255
255 255 255
255 255 255
255 255 255
255 255 255
255 255 255
255 255 255
255 255 255
255 255 255
255 255 255
255 255 255
255 255 255
255 255 255
255 255 255
255 255 255
255 255 255
255 255 255
255 255 255
255 255 255
255 255 255
255 255 255
255 255 255
255 255 255
255 255 255
255 255 255
255 255 255
255 255 255
255 255 255
255 255 255
255 255 255
255 255 255
255 255 255
255 255 255
255 255 255
255 255 255
255 255 255
255 255 255
255 255 255
255 255 255
255 255 255
255 255 255
255 255 255
255 255 255
255 255 255
255 255 255
255 255 255
255 255 255
255 255 255
255 255 255
255 255 255
255 255 255
255 255 255
255 255 255
221 221 204
221 221 204
221 221 204
221 221 204
221 221 204
221 221 204
221 221 204
221 221 204
221 221 204
221 221 204
221 221 204
221 221 204
221 221 204
221 221 204
221 221 204
221 221 204
221 221 204
221 221 204
221 221 204
221 221 204
221 221 204
221 221 204
221 221 204
221 221 204
221 221 204
221 221 204
221 221 204
221 221 204
221 221 204
221 221 204
221 221 204
221 221 204
221 221 204
221 221 204
221 221 204
221 221 204
221 221 204
221 221 221
221 221 221
221 221 204
221 221 221
221 221 221
221 221 221
221 221 221
221 221 221
221 221 204
221 221 204
221 221 204
221 221 204
221 221 204
221 221 204
221 221 204
221 221 204
221 221 204
221 221 204
221 221 204
221 221 221
221 221 221
221 221 221
221 221 221
221 221 221
221 221 204
221 221 204
221 221 204
221 221 204
204 204 187
204 204 187
187 187 170
187 170 153
187 170 153
187 170 153
187 170 136
187 170 136
187 170 136
187 170 136
170 153 136
187 170 153
221 204 187
221 221 187
204 204 170
204 187 170
221 204 170
204 204 170
187 170 136
187 153 119
170 153 119
170 153 119
170 153 119
187 153 136
187 170 136
187 170 153
187 187 153
187 187 153
187 187 170
204 187 170
204 204 170
221 204 187
221 221 204
221 221 204
221 221 204
221 221 204
204 221 204
204 204 204
204 204 204
204 204 187
204 204 187
0 0 255
0 0 255
204 204 187
187 187 170
187 187 170
187 187 170
187 187 170
187 187 170
187 170 153
170 170 153
170 170 153
170 170 136
170 170 136
170 170 136
170 153 136
153 153 136
153 153 136
170 170 153
187 187 170
204 204 187
204 204 187
204 204 187
204 204 187
204 204 187
187 187 170
187 187 170
204 204 187
204 204 187
187 187 187
187 187 187
187 204 187
187 187 187
187 187 170
187 187 170
187 187 170
187 187 170
187 187 170
170 187 170
170 170 153
170 170 153
170 170 153
170 170 170
170 170 170
170 170 170
187 187 170
187 187 170
170 170 170
170 170 153
170 170 153
170 170 153
170 170 153
170 170 153
170 170 153
170 170 153
170 170 153
170 170 153
187 187 170
204 204 187
187 187 170
187 187 170
170 170 153
170 170 170
170 170 153
170 170 170
153 153 136
153 136 119
153 153 136
153 153 136
170 153 136
170 170 153
170 170 153
170 170 170
187 187 170
187 187 187
187 187 187
187 187 187
187 187 187
187 187 187
187 187 187
204 187 187
187 187 187
187 187 187
187 187 170
187 187 170
187 187 170
204 204 187
204 204 187
204 204 204
204 204 204
221 221 221
238 238 238
255 255 238
255 255 255
255 255 255
255 255 255
255 255 255
255 255 255
255 255 238
255 255 238
255 255 255
255 255 255
255 255 255
255 255 255
255 255 255
255 255 238
255 255 255
255 255 255
0 0 255
0 0 255
255 255 255
255 255 255
255 255 255
255 255 255
255 255 255
255 255 255
255 255 238
255 255 255
255 255 255
255 255 255
255 255 255
255 255 255
255 255 255
255 255 255
255 255 255
255 255 255
255 255 255
255 255 255
255 255 255
255 255 255
255 255 255
255 255 255
255 255 255
255 255 255
255 255 255
255 255 255
255 255 238
255 255 255
255 255 255
255 255 255
255 255 255
255 255 255
255 255 255
255 255 255
255 255 255
255 255 255
255 255 255
255 255 255
255 255 238
255 255 255
255 255 255
255 255 255
255 255 255
255 255 255
255 255 255
255 255 255
255 255 255
255 255 255
255 255 255
255 255 255
255 255 255
255 255 255
255 255 255
255 255 255
255 255 255
255 255 255
255 255 255
255 255 255
255 255 255
255 255 255
255 255 255
255 255 255
255 255 255
255 255 255
255 255 255
255 255 255
255 255 255
255 255 255
255 255 255
255 255 255
255 255 255
255 255 255
255 255 255
255 255 255
255 255 255
255 255 255
255 255 255
255 255 255
255 255 255
255 255 255
255 255 255
255 255 255
255 255 255
255 255 255
255 255 255
255 255 255
255 255 255
255 255 255
255 255 255
255 255 255
255 255 255
255 255 255
255 255 255
255 255 255
255 255 255
255 255 255
255 255 255
255 255 255
255 255 255
255 255 255
255 255 255
255 255 255
255 255 255
255 255 255
255 255 255
221 221 204
204 221 204
221 221 204
221 221 204
221 221 204
221 221 204
221 221 204
221 221 204
221 221 204
221 221 204
221 221 204
221 221 204
221 221 204
221 221 204
221 221 221
221 221 204
221 221 204
221 221 204
221 221 204
221 221 204
221 221 204
221 221 204
221 221 204
221 221 204
221 221 204
221 221 204
221 221 204
221 221 204
221 221 204
221 221 204
221 221 204
221 221 204
221 221 204
221 221 204
221 221 204
221 221 204
221 221 204
221 221 221
221 221 221
221 221 221
221 221 221
221 221 221
221 221 221
221 221 221
221 221 221
221 221 204
221 221 204
221 221 204
221 221 204
221 221 204
221 221 204
221 221 204
221 221 204
221 221 204
221 221 204
221 221 204
221 221 221
221 221 221
221 221 221
221 221 221
221 221 221
221 221 204
221 221 204
221 221 204
221 204 204
204 204 187
204 204 187
204 187 170
204 187 170
204 187 170
187 170 153
187 170 153
204 187 153
204 187 170
204 187 153
187 170 136
187 170 136
204 187 170
221 204 170
204 187 170
221 204 170
221 204 187
204 187 170
187 170 136
170 153 119
170 153 119
187 170 136
187 170 153
187 187 153
204 187 170
204 204 170
204 204 187
221 204 187
221 204 187
221 204 204
221 221 204
221 221 204
221 221 221
221 221 204
221 221 204
204 204 204
204 204 187
204 204 187
204 204 187
204 204 187
204 204 187
0 0 255
0 0 255
204 204 187
187 187 170
187 187 170
187 187 153
187 170 153
170 170 153
170 170 153
170 170 153
170 170 153
170 170 153
170 170 136
153 153 136
153 153 136
153 153 136
153 153 136
170 170 153
187 187 170
204 204 187
204 204 187
204 204 187
204 204 187
187 187 187
187 187 170
187 204 187
187 204 187
187 187 170
187 187 170
187 204 187
187 204 187
187 187 170
187 187 170
187 187 170
187 187 170
187 187 170
187 187 187
170 187 170
170 170 153
170 170 153
170 170 170
170 187 170
170 170 170
170 170 170
187 187 170
187 187 170
170 170 170
170 170 153
170 170 153
170 170 153
170 170 153
170 170 153
170 170 153
170 170 153
170 170 153
170 170 153
187 187 170
187 187 187
187 187 170
187 187 170
170 170 153
187 187 170
170 170 153
170 153 153
153 136 136
153 136 136
153 153 136
170 153 136
170 153 153
170 170 153
170 170 153
170 170 153
187 187 170
187 187 187
187 187 187
187 187 187
187 187 187
187 187 187
187 187 187
204 187 187
204 204 187
204 204 187
204 204 187
204 204 187
204 204 187
204 204 187
204 204 204
204 204 187
204 204 204
221 221 221
255 255 238
255 255 255
255 255 255
255 255 255
255 255 255
255 255 255
255 255 238
255 255 238
255 255 238
255 255 238
255 255 238
255 255 238
255 255 238
255 255 255
255 255 255
255 255 238
255 255 255
0 0 255
0 0 255
255 255 238
255 255 238
255 255 238
255 255 255
255 255 238
255 255 255
255 255 255
255 255 255
255 255 255
255 255 255
255 255 255
255 255 255
255 255 255
255 255 255
255 255 255
255 255 255
255 255 255
255 255 238
255 255 255
255 255 255
255 255 255
255 255 238
255 255 238
255 255 238
238 255 238
255 255 238
255 255 238
255 255 238
255 255 238
255 255 255
255 255 255
255 255 238
255 255 238
255 255 255
255 255 255
255 255 238
255 255 255
238 255 238
255 255 255
255 255 255
255 255 255
255 255 255
255 255 255
255 255 255
255 255 255
255 255 255
255 255 255
255 255 255
238 255 255
238 255 255
238 255 255
255 255 255
238 255 255
255 255 255
255 255 255
255 255 255
255 255 255
255 255 255
255 255 255
255 255 255
255 255 255
255 255 255
255 255 255
255 255 255
255 255 255
255 255 255
255 255 255
255 255 255
255 255 255
255 255 255
255 255 255
255 255 255
255 255 255
255 255 255
255 255 255
255 255 255
255 255 255
255 255 255
255 255 255
255 255 255
255 255 255
255 255 255
255 255 255
255 255 255
255 255 255
255 255 255
255 255 255
255 255 255
255 255 255
255 255 255
255 255 255
255 255 255
255 255 255
255 255 255
255 255 255
255 255 255
255 255 255
255 255 255
255 255 255
255 255 255
255 255 255
255 255 255
255 255 255
255 255 255
255 255 255
221 221 204
204 221 204
204 221 204
221 221 204
221 221 204
221 221 204
221 221 204
221 221 204
221 221 204
221 221 204
221 221 204
221 221 221
221 221 221
221 221 204
221 221 204
221 221 221
221 221 204
221 221 204
221 221 204
221 221 204
221 221 204
221 221 204
221 221 204
221 221 204
221 221 204
221 221 204
221 221 204
221 221 204
221 221 204
221 221 204
221 221 204
221 221 204
221 221 204
221 221 204
221 221 221
221 221 221
221 221 221
221 221 221
221 221 221
221 221 221
221 221 221
221 221 221
221 221 221
221 221 221
221 221 204
221 221 204
221 221 204
221 221 204
221 221 204
221 221 204
221 221 204
221 221 204
221 221 204
221 221 204
221 221 204
221 221 221
221 221 221
221 221 221
221 221 221
221 221 221
221 221 204
221 221 204
221 221 204
221 204 204
221 204 204
204 204 187
204 204 187
204 204 187
204 204 187
204 187 170
187 170 153
187 170 153
187 187 153
204 187 170
204 187 170
204 187 153
204 187 153
204 187 153
204 187 170
204 187 153
204 187 153
204 204 170
204 187 170
204 187 153
187 170 153
204 187 153
204 187 170
204 187 170
204 204 187
204 204 187
204 204 170
204 204 170
204 204 187
204 204 187
221 204 204
221 221 204
238 238 221
238 238 221
221 221 204
204 204 204
204 204 187
204 204 187
204 204 187
204 204 187
204 204 187
204 204 187
0 0 255
0 0 255
204 204 187
187 187 170
187 187 170
187 170 153
170 170 153
170 170 153
170 170 153
170 170 153
170 170 153
170 170 136
153 153 136
153 153 136
153 153 136
153 153 136
170 170 136
187 187 170
204 204 187
204 204 187
204 204 187
204 204 187
204 204 187
187 187 170
187 187 170
187 187 170
187 187 170
187 187 170
187 187 170
187 204 187
187 187 170
187 187 170
187 187 170
187 187 170
187 187 170
187 187 187
187 187 170
170 170 170
170 170 153
170 170 153
170 187 170
170 187 170
170 170 170
170 170 153
170 170 170
187 187 170
170 170 170
170 170 153
153 153 153
170 153 153
170 170 153
170 170 153
153 153 153
170 170 153
170 170 153
170 170 153
187 187 170
187 187 187
187 187 187
187 187 170
187 187 170
187 187 170
170 170 153
153 136 136
153 153 136
153 153 136
153 153 136
170 153 136
170 153 153
170 170 153
170 170 153
170 170 170
187 187 170
187 187 187
187 187 187
187 187 187
187 204 187
187 204 187
187 204 187
187 187 187
187 187 187
187 187 187
187 187 187
187 187 170
187 187 187
204 204 187
204 204 187
204 204 187
204 221 204
238 238 221
255 255 238
255 255 255
255 255 255
255 255 255
255 255 238
255 255 255
255 255 238
255 255 238
255 255 238
255 255 238
255 255 238
255 255 238
255 255 238
255 255 238
255 255 238
255 255 238
255 255 255
0 0 255
0 0 255
255 255 238
255 255 238
255 255 255
255 255 238
255 255 238
255 255 255
255 255 255
255 255 255
255 255 238
255 255 255
255 255 238
255 255 238
255 255 238
255 255 238
255 255 238
255 255 238
255 255 238
255 255 255
255 255 255
255 255 255
255 255 238
255 255 238
255 255 238
255 255 238
255 255 238
238 255 238
238 255 238
255 255 238
255 255 238
238 255 238
255 255 238
255 255 238
255 255 238
255 255 238
238 255 238
238 255 238
238 255 238
238 255 238
238 255 238
238 255 255
255 255 255
255 255 255
238 255 255
238 255 255
255 255 255
238 255 255
238 255 255
238 255 255
238 255 255
255 255 255
255 255 255
255 255 255
238 255 255
255 255 255
255 255 255
255 255 255
255 255 255
255 255 255
238 255 255
255 255 255
255 255 255
255 255 255
255 255 255
255 255 255
255 255 255
255 255 255
255 255 255
255 255 255
255 255 255
255 255 255
255 255 255
255 255 255
255 255 255
255 255 255
255 255 255
255 255 255
255 255 255
255 255 255
255 255 255
255 255 255
255 255 255
255 255 255
255 255 255
255 255 255
255 255 255
255 255 255
255 255 255
255 255 255
255 255 255
255 255 255
255 255 255
255 255 255
255 255 255
255 255 255
255 255 255
255 255 255
255 255 255
255 255 255
255 255 255
255 255 255
255 255 255
255 255 255
255 255 255
255 255 255
255 255 255
221 221 204
221 221 204
221 221 204
221 221 204
221 221 204
221 221 204
221 221 204
221 221 204
221 221 204
221 221 204
221 221 204
221 221 221
221 221 221
221 221 221
221 221 221
221 221 204
221 221 204
221 221 204
221 221 204
221 221 204
204 221 204
221 221 204
221 221 204
221 221 204
204 221 204
221 221 204
221 221 204
221 221 204
221 221 204
221 221 204
221 221 204
221 221 204
221 221 204
221 221 221
221 221 221
221 221 221
221 221 221
221 221 221
221 221 221
221 221 221
221 221 221
221 221 221
221 221 221
221 221 204
221 221 204
221 221 204
221 221 204
221 221 204
221 221 204
221 221 204
221 221 204
221 221 204
221 221 204
221 221 221
221 221 221
221 221 221
221 221 221
221 221 221
221 221 221
221 221 221
221 221 204
221 221 204
221 221 204
204 204 187
204 204 187
204 204 187
204 204 187
204 204 187
204 204 187
204 187 170
187 170 153
187 170 136
187 170 136
187 170 153
204 187 170
204 187 170
204 187 170
204 187 153
204 187 153
204 187 153
204 187 153
204 187 170
204 187 170
204 187 153
204 187 153
204 187 153
204 187 153
204 187 153
187 170 153
187 170 153
187 187 153
187 187 170
204 187 170
204 204 187
221 221 204
221 221 204
238 238 221
221 221 204
204 221 204
204 204 187
204 204 187
204 204 187
204 204 187
204 204 187
204 204 187
204 204 187
0 0 255
0 0 255
187 204 170
187 187 170
187 187 170
187 187 170
187 187 170
187 170 153
170 170 153
170 170 153
170 170 153
170 153 136
170 153 136
153 153 119
153 153 119
153 153 136
170 170 153
204 204 187
204 204 187
204 204 187
204 187 187
204 204 187
187 187 187
187 187 170
187 187 170
187 187 170
170 187 170
187 187 170
187 187 170
187 187 187
187 187 170
187 187 170
187 187 170
187 187 170
187 187 170
187 204 187
187 187 170
170 170 153
170 170 153
170 170 170
187 187 170
187 187 170
170 170 153
170 170 153
170 170 153
170 170 153
170 170 153
153 153 153
153 153 136
170 153 153
170 170 153
170 170 153
170 170 153
170 170 153
170 170 153
170 170 170
187 187 170
187 187 170
204 204 187
187 187 187
187 187 170
187 187 170
170 170 153
153 136 136
153 153 136
153 153 136
170 153 136
170 153 153
170 170 153
170 170 153
187 187 170
187 187 170
187 187 170
187 187 170
187 187 187
187 187 187
204 204 187
204 204 187
187 187 187
187 187 170
187 187 170
187 187 170
187 187 170
187 187 170
187 187 170
204 204 187
204 204 187
204 204 204
221 221 221
255 255 238
255 255 255
255 255 255
255 255 255
255 255 238
255 255 238
255 255 255
255 255 238
255 255 238
255 255 238
255 255 238
255 255 238
255 255 238
255 255 238
255 255 238
255 255 255
255 255 255
255 255 255
0 0 255
0 0 255
255 255 238
255 255 238
255 255 255
255 255 238
255 255 238
255 255 238
255 255 238
255 255 238
255 255 238
255 255 255
255 255 238
255 255 238
255 255 238
255 255 238
255 255 238
255 255 238
255 255 238
255 255 238
255 255 238
255 255 238
255 255 238
255 255 238
255 255 238
238 255 238
238 255 238
238 255 238
238 255 238
238 255 238
238 255 238
238 255 238
238 255 238
255 255 238
238 255 238
238 255 238
238 255 238
238 255 238
238 255 238
238 238 238
238 255 238
238 255 238
238 255 255
238 255 255
238 255 255
238 255 255
238 255 255
255 255 255
238 255 255
238 255 255
255 255 255
255 255 255
238 255 255
238 255 255
238 255 255
255 255 255
255 255 255
255 255 255
255 255 255
255 255 255
255 255 255
238 255 255
255 255 255
255 255 255
255 255 255
255 255 255
255 255 255
255 255 255
255 255 255
255 255 255
255 255 255
255 255 255
255 255 255
255 255 255
255 255 255
255 255 255
255 255 255
255 255 255
255 255 255
255 255 255
255 255 255
255 255 255
255 255 255
255 255 255
255 255 255
255 255 255
255 255 255
255 255 255
255 255 255
255 255 255
255 255 255
255 255 255
255 255 255
255 255 255
255 255 255
255 255 255
255 255 255
255 255 255
255 255 255
255 255 255
255 255 255
255 255 255
255 255 255
255 255 255
255 255 255
255 255 255
255 255 255
204 221 204
204 221 204
221 221 204
221 221 204
221 221 204
221 221 204
221 221 204
221 221 221
221 221 204
221 221 204
221 221 221
221 221 221
221 221 221
221 221 221
221 221 204
221 221 204
221 221 204
221 221 204
221 221 204
221 221 204
221 221 204
221 221 204
221 221 204
221 221 204
221 221 204
221 221 204
221 221 204
221 221 204
221 221 204
221 221 204
221 221 204
221 221 204
221 221 204
221 221 221
221 221 221
221 221 221
221 221 221
221 221 221
221 221 221
221 221 221
221 221 221
221 221 221
221 221 204
221 221 204
221 221 204
221 221 204
221 221 204
221 221 204
221 221 204
221 221 204
221 221 204
221 221 204
221 221 204
221 221 221
221 221 221
221 221 221
221 221 221
221 221 221
221 221 221
221 221 204
221 221 204
221 221 204
221 204 204
204 204 187
204 204 187
204 204 187
204 204 187
204 204 187
204 204 187
187 187 170
187 170 136
170 153 136
170 153 119
170 153 119
187 170 136
204 187 153
204 187 153
204 187 153
204 187 153
204 170 153
187 170 136
187 170 136
204 187 153
187 170 136
187 153 119
170 153 119
170 153 136
170 153 136
170 170 136
187 170 153
187 187 153
204 187 170
204 204 187
221 221 204
221 221 204
238 221 204
221 221 204
221 221 204
204 204 204
204 204 187
204 204 187
204 204 187
204 204 187
204 204 187
204 204 187
204 204 187
0 0 255
0 0 255
204 204 187
187 187 170
187 187 170
187 187 170
187 187 170
170 170 153
170 170 153
170 170 153
170 170 153
170 153 136
153 153 136
153 153 119
153 153 119
153 153 136
187 170 170
204 204 187
204 204 187
187 187 170
187 187 187
204 204 187
187 187 170
187 187 170
187 187 170
187 187 170
170 170 153
187 187 170
187 187 170
187 187 170
187 187 170
187 187 170
187 187 170
187 187 170
187 187 187
187 187 170
170 187 170
170 170 170
170 170 170
170 170 170
187 187 170
187 187 170
187 187 170
170 170 153
170 170 153
153 153 136
153 153 136
153 153 136
170 153 136
153 153 136
170 170 153
170 170 153
170 170 153
170 170 153
170 170 153
170 170 170
187 187 170
187 187 170
204 204 187
187 187 187
187 187 170
187 187 170
170 170 153
153 153 136
153 153 136
170 153 136
170 153 136
170 170 153
170 170 153
187 187 170
187 187 170
187 187 187
187 187 170
187 187 170
187 187 187
204 204 187
187 187 187
187 187 170
187 187 170
187 187 170
187 187 170
187 187 187
187 187 187
187 187 170
187 187 187
204 204 187
204 204 204
221 221 204
238 238 221
255 255 255
255 255 255
255 255 255
255 255 255
255 255 238
255 255 238
255 255 255
255 255 255
255 255 238
255 255 238
255 255 238
255 255 255
255 255 238
255 255 238
255 255 238
255 255 238
255 255 238
255 255 238
0 0 255
0 0 255
255 255 238
255 255 238
255 255 238
255 255 238
255 255 238
255 255 238
255 255 238
255 255 238
255 255 238
255 255 255
255 255 238
238 255 238
238 255 238
255 255 238
238 255 238
238 255 238
238 255 238
238 255 238
238 255 238
238 255 238
238 255 238
255 255 238
238 255 238
255 255 238
255 255 238
238 255 238
238 255 238
238 255 238
238 255 238
238 255 238
238 255 238
238 255 238
238 255 238
238 255 238
238 255 238
238 255 238
238 255 238
238 255 238
238 255 238
238 255 238
238 255 238
238 255 255
255 255 255
238 255 255
238 255 255
238 255 255
238 255 255
238 255 255
255 255 255
255 255 255
238 255 255
238 255 255
255 255 255
238 255 255
255 255 255
238 255 255
238 255 255
255 255 255
255 255 255
255 255 255
255 255 255
238 255 255
238 255 255
255 255 255
255 255 255
255 255 255
255 255 255
255 255 255
255 255 255
255 255 255
255 255 255
255 255 255
255 255 255
255 255 255
255 255 255
255 255 255
255 255 255
255 255 255
255 255 255
255 255 255
255 255 255
255 255 255
255 255 255
255 255 255
255 255 255
255 255 255
255 255 255
255 255 255
255 255 255
255 255 255
255 255 255
255 255 255
255 255 255
255 255 255
255 255 255
255 255 255
255 255 255
255 255 255
255 255 255
255 255 255
255 255 255
255 255 255
255 255 255
255 255 255
255 255 255
221 221 204
221 221 204
221 221 204
221 221 204
221 221 204
221 221 204
221 221 204
221 221 204
221 221 221
221 221 221
221 221 221
221 221 221
221 221 221
221 221 204
221 221 204
221 221 204
221 221 204
221 221 204
221 221 204
221 221 204
221 221 204
221 221 204
204 221 204
221 221 204
221 221 204
221 221 204
221 221 204
221 221 204
221 221 204
221 221 204
221 221 204
221 221 204
221 221 204
221 221 221
221 221 221
221 221 221
221 221 221
221 221 221
221 221 221
221 221 221
221 221 204
221 221 204
221 221 204
221 221 204
221 221 204
221 221 204
221 221 204
221 221 204
221 221 204
221 221 204
221 221 204
221 221 204
221 221 221
221 221 221
221 221 221
221 221 221
221 221 221
221 221 221
221 221 221
221 221 204
221 221 204
221 221 204
204 204 187
204 204 187
204 204 187
221 204 187
221 204 187
204 204 187
221 204 187
204 204 170
187 187 153
187 170 136
187 170 136
170 153 136
170 153 136
187 170 136
187 170 153
187 170 136
187 170 136
187 153 119
187 153 119
187 170 136
187 170 136
170 153 119
170 153 119
170 153 119
170 153 119
170 153 136
187 170 153
187 187 170
204 204 187
221 221 187
221 221 204
238 221 204
221 221 204
221 221 204
221 221 204
221 221 204
204 204 187
204 204 187
204 204 187
204 204 187
204 204 187
204 204 187
204 204 187
204 204 187
0 0 255
0 0 255
187 187 170
187 187 170
187 187 170
187 187 153
187 170 170
170 170 153
170 170 153
170 170 153
170 170 153
153 153 136
153 153 136
153 153 119
153 136 119
153 136 119
170 170 153
187 187 170
187 187 170
187 187 170
204 204 187
204 204 187
187 187 170
187 187 170
187 187 170
170 170 153
170 170 153
187 187 170
187 187 170
187 187 170
187 187 170
187 187 170
187 187 170
187 187 170
187 187 170
187 187 170
170 170 153
170 170 170
187 187 170
187 187 170
187 187 170
187 187 170
187 187 170
187 187 170
170 170 153
153 153 136
153 153 136
153 153 136
153 153 136
153 153 136
170 170 153
170 170 153
170 170 153
170 170 153
170 170 153
170 187 170
187 187 170
187 187 170
187 187 187
187 187 170
187 187 170
187 187 170
170 170 153
170 153 136
153 153 136
153 153 136
170 153 136
170 170 153
170 170 170
187 187 170
187 187 170
187 187 187
187 187 187
187 187 170
204 204 187
204 204 187
187 187 170
187 187 170
187 187 170
187 187 170
187 187 170
187 187 170
204 204 187
187 187 187
204 204 187
204 204 187
204 204 204
221 221 204
221 221 221
255 255 238
255 255 255
255 255 255
255 255 255
255 255 238
255 255 238
255 255 255
255 255 255
255 255 238
255 255 238
255 255 255
255 255 238
255 255 238
255 255 238
255 255 238
255 255 238
255 255 238
255 255 238
0 0 255
0 0 255
255 255 238
255 255 238
255 255 238
255 255 238
255 255 238
255 255 238
255 255 238
255 255 238
255 255 238
255 255 238
255 255 238
255 255 238
238 255 238
255 255 238
238 255 238
238 255 238
238 255 238
238 255 238
238 255 238
238 255 238
238 255 238
238 255 238
238 255 238
238 255 238
238 255 238
238 255 238
238 255 238
238 255 238
238 255 238
238 255 238
238 255 238
238 255 238
238 255 238
238 255 238
238 255 238
238 255 238
238 255 238
238 255 238
238 255 238
238 255 238
238 255 238
238 255 238
255 255 255
238 255 255
238 255 255
238 255 255
238 255 255
238 255 255
238 255 255
238 255 255
238 255 255
238 255 255
238 255 255
238 255 255
238 255 255
255 255 255
238 255 255
238 255 255
238 255 255
238 255 255
238 255 255
238 255 255
238 255 255
238 255 255
255 255 255
255 255 255
238 255 255
255 255 255
255 255 255
238 255 255
255 255 255
255 255 255
255 255 255
255 255 255
255 255 255
255 255 255
255 255 255
255 255 255
255 255 255
255 255 255
255 255 255
255 255 255
255 255 255
255 255 255
255 255 255
255 255 255
255 255 255
255 255 255
255 255 255
255 255 255
255 255 255
255 255 255
255 255 255
255 255 255
255 255 255
255 255 255
255 255 255
255 255 255
255 255 255
255 255 255
255 255 255
255 255 255
255 255 255
255 255 255
255 255 255
221 221 204
221 221 204
221 221 204
221 221 204
221 221 204
221 221 221
221 221 221
221 221 221
221 221 221
221 221 221
221 221 221
221 221 221
221 221 204
221 221 204
221 221 204
221 221 204
221 221 204
221 221 204
204 221 204
221 221 204
221 221 204
204 221 204
221 221 204
221 221 204
221 221 204
221 221 204
221 221 204
221 221 204
221 221 204
221 221 204
221 221 204
221 221 204
221 221 204
221 221 221
221 221 221
221 221 221
221 221 221
221 221 221
221 221 221
221 221 204
221 221 204
221 221 204
221 221 204
221 221 204
221 221 204
221 221 204
221 221 204
221 221 204
221 221 204
221 221 204
221 221 204
221 221 221
221 221 221
221 221 221
221 221 221
221 221 221
221 221 221
221 221 221
221 221 204
221 221 204
221 221 204
221 221 204
204 204 187
204 204 170
204 187 170
204 204 187
221 204 187
204 204 187
221 204 187
221 204 187
204 187 170
187 187 153
187 170 153
187 170 136
170 153 136
187 170 136
187 170 136
187 170 136
170 153 119
170 153 119
187 170 136
204 187 153
187 170 136
170 153 119
170 153 119
170 153 136
170 170 136
187 170 153
187 187 170
204 204 187
221 221 187
238 221 204
221 221 204
221 204 187
221 204 187
221 204 187
221 221 204
221 221 204
204 204 187
204 204 187
204 204 187
204 204 187
204 204 187
204 204 187
204 204 187
204 204 187
0 0 255
0 0 255
187 187 170
187 187 170
187 187 170
187 187 170
187 187 170
187 187 170
170 170 153
170 170 153
170 170 153
153 153 136
153 153 136
153 136 119
153 136 119
136 136 119
153 153 136
170 170 153
170 170 153
187 187 170
204 204 187
187 187 187
187 187 170
187 187 170
187 187 170
170 170 153
170 170 153
187 187 170
187 187 187
187 187 170
187 187 170
170 170 170
187 187 170
187 187 170
187 187 170
170 170 170
170 170 153
170 170 170
187 187 170
187 187 170
187 187 170
187 187 170
187 187 170
187 187 170
170 170 153
153 170 153
153 153 136
153 153 136
170 170 153
170 170 153
170 170 153
170 170 153
170 170 153
170 170 170
187 170 170
187 187 170
170 170 170
187 187 170
187 187 187
187 187 170
187 187 170
187 187 170
170 170 153
170 153 153
153 153 136
153 153 136
170 170 153
170 170 153
187 187 170
187 187 170
187 187 187
204 204 187
187 187 187
187 187 170
204 204 187
187 187 187
187 187 170
187 187 170
187 187 170
187 187 170
187 187 170
187 187 170
187 187 187
204 204 187
204 204 187
204 204 204
221 221 204
221 221 204
221 221 221
238 238 238
255 255 255
255 255 255
255 255 255
255 255 238
255 255 238
255 255 255
255 255 255
255 255 255
255 255 255
255 255 255
255 255 238
255 255 255
255 255 238
255 255 238
255 255 238
255 255 238
255 255 238
0 0 255
0 0 255
255 255 238
255 255 238
255 255 238
255 255 238
255 255 238
255 255 238
255 255 238
255 255 238
255 255 238
255 255 238
255 255 238
255 255 238
238 255 238
238 255 238
238 255 238
255 255 238
238 255 238
238 255 238
238 255 238
238 255 238
238 255 238
238 255 238
238 255 238
238 255 238
238 255 238
238 255 238
238 255 238
238 255 238
238 255 238
238 255 238
238 255 238
238 255 238
238 255 238
238 255 238
238 255 238
238 255 238
238 255 238
238 255 238
238 255 238
238 255 238
238 255 238
238 255 238
238 255 238
238 255 255
238 255 255
238 255 255
238 255 255
238 255 255
238 255 255
238 255 255
238 255 255
238 255 255
238 255 255
255 255 255
238 255 255
238 255 255
238 255 255
238 255 255
238 255 255
238 255 255
238 255 255
238 255 255
238 255 255
238 255 255
238 255 255
238 255 255
238 255 255
238 255 255
238 255 255
238 255 255
238 255 255
255 255 255
238 255 255
255 255 255
238 255 255
255 255 255
255 255 255
255 255 255
255 255 255
255 255 255
255 255 255
255 255 255
255 255 255
255 255 255
255 255 255
255 255 255
255 255 255
255 255 255
255 255 255
255 255 255
255 255 255
255 255 255
255 255 255
255 255 255
255 255 255
255 255 255
255 255 255
255 255 255
255 255 255
255 255 255
255 255 255
255 255 255
255 255 255
255 255 255
255 255 255
221 221 204
221 221 204
221 221 204
221 221 204
221 221 204
221 221 221
221 221 221
221 221 221
221 221 221
221 221 221
221 221 204
221 221 204
221 221 204
221 221 204
221 221 204
221 221 204
221 221 204
204 221 204
204 221 204
221 221 204
221 221 204
221 221 204
221 221 204
221 221 204
221 221 204
221 221 204
221 221 204
221 221 204
221 221 204
221 221 204
221 221 221
221 221 221
221 221 221
221 221 221
221 221 221
221 221 221
221 221 221
221 221 221
221 221 221
221 221 204
221 221 204
221 221 204
221 221 204
221 221 204
221 221 204
221 221 204
221 221 204
221 221 204
221 221 204
221 221 204
221 221 221
221 221 221
221 221 221
221 238 221
221 238 221
221 221 221
221 221 221
221 221 204
221 221 204
221 221 204
221 221 204
221 204 204
204 204 187
204 204 170
187 187 153
187 187 153
204 204 187
204 204 187
221 204 187
221 204 187
221 204 187
204 187 170
204 187 153
187 187 153
187 170 136
187 170 136
187 170 136
187 170 136
170 153 119
170 153 119
187 170 153
204 187 153
187 170 136
187 170 136
187 170 136
187 170 153
204 187 170
204 204 170
204 204 170
221 204 187
221 221 204
221 204 187
204 187 153
204 187 170
204 204 170
204 204 187
221 221 204
221 221 204
204 204 187
204 204 187
204 204 187
204 204 187
204 204 187
204 204 187
204 204 187
204 204 187
0 0 255
0 0 255
187 187 170
187 187 170
187 187 170
187 187 170
187 187 170
187 187 170
187 187 170
187 187 170
170 170 153
153 153 136
153 153 136
153 153 136
153 153 119
153 136 119
136 136 119
153 153 136
170 170 153
187 187 170
204 204 187
187 187 170
170 170 153
170 170 153
187 170 153
170 170 153
170 170 170
187 187 170
187 187 187
187 187 170
170 170 153
170 170 153
170 170 170
170 187 170
170 170 153
170 170 153
170 170 153
170 170 153
187 187 170
187 187 170
187 187 170
187 187 170
187 187 170
170 170 170
170 170 170
170 170 153
170 170 153
170 153 153
170 170 153
170 170 153
170 170 153
170 170 153
170 170 153
187 187 170
187 187 170
170 187 170
170 170 170
187 187 170
187 187 170
187 187 170
187 187 170
170 170 170
170 170 170
170 170 153
170 153 153
170 153 153
170 170 153
170 170 170
187 187 170
187 187 170
187 187 187
187 187 187
187 187 187
187 187 187
187 187 187
187 187 170
187 187 170
187 187 170
187 187 170
187 187 170
187 187 170
187 187 170
187 187 170
204 204 187
204 221 204
221 221 204
221 221 204
221 221 221
221 221 221
238 238 238
255 255 255
255 255 255
255 255 255
255 255 238
255 255 238
255 255 238
255 255 255
255 255 238
255 255 255
255 255 255
255 255 238
255 255 255
255 255 238
255 255 238
255 255 238
255 255 238
255 255 238
0 0 255
0 0 255
255 255 238
255 255 238
255 255 238
255 255 238
255 255 238
255 255 238
255 255 238
255 255 238
255 255 238
255 255 238
255 255 238
238 255 238
238 255 238
238 255 238
238 255 238
255 255 238
255 255 238
238 255 238
238 255 238
238 255 238
238 255 238
238 255 238
238 255 238
238 255 238
238 255 238
238 255 238
238 255 238
238 255 238
238 255 238
238 255 238
238 255 238
238 255 238
238 255 238
238 255 238
238 255 238
238 255 238
238 255 238
238 255 238
238 255 238
238 255 238
238 255 238
238 255 238
238 255 255
238 255 238
238 255 238
238 255 255
238 255 238
238 255 238
238 255 238
238 255 255
238 255 238
238 255 255
238 255 255
238 255 255
238 255 255
238 255 255
238 255 255
238 255 255
238 255 255
238 255 255
238 255 255
238 255 255
238 255 255
238 255 255
238 255 255
238 255 255
238 255 255
238 255 255
238 255 255
238 255 255
238 255 255
238 255 255
238 255 255
238 255 255
238 255 255
255 255 255
255 255 255
255 255 255
255 255 255
255 255 255
238 255 255
255 255 255
255 255 255
255 255 255
255 255 255
255 255 255
255 255 255
255 255 255
255 255 255
255 255 255
255 255 255
255 255 255
255 255 255
255 255 255
255 255 255
255 255 255
255 255 255
255 255 255
255 255 255
255 255 255
255 255 255
255 255 255
255 255 255
255 255 255
255 255 255
221 221 204
221 221 204
221 221 204
221 221 204
221 221 221
221 221 221
221 221 221
221 221 221
221 221 221
221 221 204
221 221 204
221 221 204
221 221 204
221 221 204
204 221 204
204 221 204
221 221 204
204 221 204
204 221 204
204 221 204
221 221 204
221 221 204
221 221 204
221 221 204
221 221 204
221 221 204
221 221 204
221 221 204
221 221 204
221 221 221
221 221 204
221 221 204
221 221 221
221 221 221
221 221 221
221 221 221
221 221 221
221 221 221
221 221 204
221 221 204
221 221 204
221 221 204
221 221 204
221 221 204
221 221 204
221 221 204
221 221 204
221 221 204
221 221 204
221 221 221
221 221 221
221 238 221
221 238 221
221 238 221
221 221 221
221 221 221
221 221 221
221 221 204
221 221 204
221 221 204
221 221 204
221 204 204
204 204 187
204 187 170
187 187 153
187 170 153
187 187 153
204 187 170
204 204 187
221 204 187
221 204 187
204 204 187
204 187 170
204 187 153
187 187 153
187 170 136
187 170 136
187 170 136
187 153 136
187 153 136
204 187 153
204 187 170
204 187 153
204 187 153
187 170 153
187 170 153
204 187 170
204 204 170
204 204 170
221 204 187
221 204 187
204 187 170
187 187 153
204 187 170
204 187 170
204 204 187
221 204 204
221 221 204
204 204 204
204 204 187
204 204 187
204 204 187
204 204 187
204 204 187
204 204 187
204 204 187
0 0 255
0 0 255
187 187 170
187 187 170
187 187 170
187 187 170
187 187 170
187 187 170
187 187 170
170 170 153
170 170 136
153 153 136
153 153 136
153 153 136
153 153 119
136 136 119
136 136 119
136 136 119
153 153 136
170 170 153
187 187 170
187 187 153
170 170 153
170 170 153
187 187 170
187 170 153
170 170 153
187 187 170
187 187 187
187 187 170
170 170 153
170 170 153
170 170 153
170 170 153
170 170 153
170 170 153
170 170 153
170 170 153
170 170 170
187 187 170
187 187 170
187 187 170
170 170 170
170 170 170
170 170 153
170 170 153
170 170 153
170 170 153
170 170 153
170 170 153
170 170 153
170 170 153
170 170 153
170 170 153
170 170 170
170 170 153
170 170 153
187 187 170
187 187 170
187 187 170
187 187 170
170 170 153
170 170 170
170 170 153
170 153 153
170 170 153
170 170 153
187 170 170
187 187 170
187 187 170
187 187 170
187 187 170
187 187 170
187 187 170
187 187 170
170 170 170
187 187 170
187 187 170
187 187 170
187 187 187
187 187 170
187 187 170
187 187 170
204 204 187
204 204 204
221 221 204
221 221 204
221 221 204
221 221 221
238 238 238
255 255 238
255 255 255
255 255 255
255 255 238
255 255 238
255 255 238
255 255 238
255 255 238
255 255 255
255 255 238
255 255 238
255 255 238
255 255 238
255 255 238
255 255 238
255 255 238
255 255 238
0 0 255
0 0 255
255 255 238
255 255 238
255 255 238
255 255 238
255 255 238
255 255 238
255 255 238
255 255 238
255 255 238
255 255 238
255 255 238
238 255 238
238 255 238
238 255 238
238 255 238
255 255 238
255 255 238
255 255 238
238 255 238
238 255 238
238 255 238
238 255 238
238 255 238
238 255 238
238 255 238
238 255 238
238 255 238
238 255 238
238 255 238
238 255 238
238 255 238
238 255 238
238 255 238
238 255 238
238 255 238
238 255 238
238 255 238
238 255 238
238 255 238
238 255 238
238 255 238
238 255 238
238 255 238
238 255 238
238 238 238
238 255 255
238 255 238
238 255 238
238 255 238
238 255 255
238 255 238
238 255 255
238 255 238
238 255 255
238 255 255
238 255 255
238 255 255
238 255 255
238 255 255
238 255 255
238 255 255
238 255 255
238 255 255
238 255 255
238 255 255
238 255 255
238 255 255
238 255 255
238 255 255
238 255 255
238 255 255
238 255 255
238 255 255
238 255 255
238 255 255
238 255 255
238 255 255
238 255 255
238 255 255
238 255 255
238 255 255
238 255 255
238 255 255
238 255 255
255 255 255
238 255 255
255 255 255
238 255 255
238 255 255
238 255 255
255 255 255
255 255 255
255 255 255
255 255 255
255 255 255
255 255 255
255 255 255
255 255 255
255 255 255
255 255 255
255 255 255
255 255 255
255 255 255
255 255 255
255 255 255
221 221 204
221 221 204
221 221 204
221 221 221
221 221 221
221 221 221
221 221 221
221 221 221
221 221 204
221 221 204
221 221 204
221 221 204
221 221 204
221 221 204
204 221 204
204 221 204
221 221 204
204 221 204
204 221 204
204 221 204
221 221 204
221 221 204
221 221 204
221 221 204
221 221 204
221 221 204
221 221 204
221 221 204
221 221 204
221 221 204
221 221 221
221 221 204
221 221 221
221 221 221
221 221 221
221 221 221
221 221 221
221 221 204
221 221 204
221 221 204
221 221 204
221 221 204
221 221 204
221 221 204
221 221 204
221 221 204
221 221 204
221 221 204
221 221 221
221 221 221
221 238 221
221 238 221
221 221 221
221 221 221
221 221 221
221 221 204
221 221 204
221 221 204
221 221 204
221 221 204
221 204 204
204 204 187
204 204 187
204 187 170
187 187 153
170 170 136
170 170 136
187 170 136
187 187 153
204 204 187
221 204 187
221 221 187
221 204 187
204 187 170
204 187 153
187 170 153
187 170 136
187 170 136
187 170 136
187 170 136
187 170 136
204 187 153
204 187 153
204 187 153
187 153 119
187 170 136
204 187 153
204 204 170
221 204 187
204 204 170
204 204 170
187 187 153
187 187 153
204 187 170
204 187 170
204 187 170
221 204 187
221 204 204
204 204 204
204 204 187
204 204 187
204 204 187
204 204 187
204 204 187
204 204 187
204 204 187
0 0 255
0 0 255
187 187 170
187 187 170
187 187 170
187 187 170
187 187 170
187 187 170
170 170 153
170 170 153
170 170 153
170 153 136
153 153 136
153 153 119
136 136 119
136 136 119
153 136 119
136 136 119
136 136 119
153 153 136
170 170 153
187 187 153
187 187 170
187 187 170
187 187 170
187 187 170
170 170 153
187 187 170
187 187 170
187 187 170
170 170 170
170 170 153
170 170 153
170 170 153
170 170 153
170 170 153
170 170 153
170 170 153
170 170 153
187 187 170
187 187 170
187 187 170
170 170 170
170 170 153
170 170 153
170 170 153
170 170 153
170 170 153
170 170 153
170 170 170
170 170 170
170 170 170
170 170 153
170 170 170
170 170 170
170 170 153
170 170 153
170 170 153
170 170 170
170 170 153
170 170 153
170 170 153
170 170 153
170 170 153
170 170 153
170 170 153
170 170 153
170 170 153
170 170 153
170 170 153
170 170 153
170 170 153
187 170 170
170 170 170
170 170 170
170 170 170
187 170 170
187 187 170
187 187 170
204 204 187
187 187 170
187 187 170
187 187 170
187 204 187
204 204 187
221 221 204
221 221 204
221 221 204
221 221 221
238 238 238
255 255 255
255 255 255
255 255 255
255 255 255
255 255 238
255 255 238
255 255 238
255 255 238
255 255 238
255 255 255
255 255 238
255 255 238
255 255 238
255 255 238
255 255 238
255 255 238
255 255 238
0 0 255
0 0 255
255 255 238
255 255 238
255 255 238
255 255 238
255 255 238
255 255 238
255 255 238
255 255 238
255 255 238
255 255 238
255 255 238
255 255 238
255 255 238
238 255 238
238 255 238
255 255 238
255 255 238
255 255 238
238 255 238
238 255 238
238 255 238
238 255 238
238 255 238
238 255 238
238 255 238
238 255 238
238 255 238
238 255 238
238 255 238
238 255 238
238 255 238
238 255 238
238 255 238
238 255 238
238 255 238
238 255 238
238 255 238
238 255 238
238 255 238
238 255 238
238 255 238
238 255 238
238 255 238
238 255 238
238 255 255
238 255 255
238 255 255
238 255 238
238 255 238
238 255 238
238 255 238
238 255 255
238 255 238
238 255 255
238 255 238
238 255 255
238 255 255
238 255 255
238 255 238
238 255 238
238 255 255
238 255 255
238 255 255
238 255 255
238 255 255
238 255 255
238 255 255
238 255 255
238 255 255
238 255 255
238 255 255
238 255 255
238 255 255
238 255 255
238 255 255
238 255 255
238 255 255
238 255 255
238 255 255
238 255 255
238 255 255
238 255 255
238 255 255
238 255 255
238 255 255
238 255 255
255 255 255
238 255 255
238 255 255
255 255 255
255 255 255
255 255 255
255 255 255
255 255 255
255 255 255
255 255 255
255 255 255
255 255 255
255 255 255
255 255 255
255 255 255
255 255 255
255 255 255
255 255 255
255 255 255
221 221 204
221 221 204
221 221 204
221 221 221
221 221 221
221 221 221
221 221 221
221 221 221
221 221 204
221 221 204
221 221 204
221 221 204
221 221 204
221 221 204
204 221 204
204 221 204
204 221 204
204 221 204
204 221 204
221 221 204
221 221 204
221 221 204
221 221 204
221 221 204
221 221 204
221 221 204
221 221 204
221 221 204
221 221 221
221 221 204
221 221 204
221 221 221
221 221 221
221 221 221
221 221 221
221 221 221
221 221 204
221 221 204
221 221 204
221 221 204
221 221 204
221 221 204
221 221 204
221 221 204
221 221 204
221 221 204
221 221 204
221 221 221
221 221 221
221 221 221
221 238 221
221 221 221
221 238 221
221 221 221
221 221 221
221 221 204
221 221 204
221 221 204
221 221 204
221 204 204
204 204 187
204 204 187
204 204 170
204 187 170
187 170 153
170 170 136
170 153 119
153 153 119
153 153 119
170 153 136
187 187 170
204 204 187
221 204 187
204 204 187
204 187 170
204 187 170
187 170 153
187 170 153
187 187 153
187 170 153
187 170 136
187 170 153
204 187 153
204 187 153
187 170 136
170 170 136
204 187 153
221 204 170
221 204 170
204 187 170
204 187 170
187 187 153
187 170 153
204 187 170
187 187 153
187 187 170
204 204 187
204 204 187
204 204 204
204 204 187
204 204 187
204 204 187
204 204 187
204 204 187
204 204 187
204 204 187
0 0 255
0 0 255
187 187 170
187 187 170
187 187 170
187 187 170
187 187 170
170 170 153
170 170 153
170 170 153
170 170 153
153 153 136
153 153 136
153 136 119
153 153 119
153 153 136
153 153 119
136 136 119
136 136 119
136 136 119
153 153 136
170 170 153
187 187 170
187 187 170
187 187 170
187 187 170
170 170 153
187 170 170
187 187 170
187 187 170
187 187 170
170 170 170
170 170 170
170 170 153
170 170 170
170 170 153
170 170 153
170 170 153
170 170 153
170 170 170
187 187 170
187 187 170
187 187 170
170 170 153
170 170 153
170 170 153
170 170 153
170 170 153
170 170 153
170 170 170
187 187 170
170 170 153
170 170 153
170 170 170
187 170 170
187 187 170
170 170 170
170 170 153
170 170 153
170 170 153
170 170 153
153 153 136
170 153 153
170 170 153
170 170 153
170 170 153
170 170 153
153 153 136
153 153 136
170 153 136
170 170 153
170 170 153
170 170 153
170 170 153
187 170 170
187 187 170
170 170 153
170 170 153
187 187 170
204 204 187
187 187 187
187 187 170
187 187 170
204 204 187
204 204 187
221 221 204
204 204 204
221 221 204
221 238 221
255 255 238
255 255 255
255 255 255
255 255 255
255 255 255
255 255 255
255 255 255
255 255 255
255 255 255
255 255 238
255 255 238
255 255 238
255 255 238
255 255 238
255 255 238
255 255 238
255 255 238
255 255 238
0 0 255
0 0 255
255 255 238
255 255 238
255 255 238
255 255 238
255 255 238
255 255 238
255 255 238
255 255 238
255 255 238
255 255 238
255 255 238
255 255 238
255 255 238
255 255 238
238 255 238
255 255 238
255 255 238
255 255 238
238 255 238
238 255 238
238 255 238
238 255 238
238 255 238
238 255 238
238 255 238
238 255 238
238 255 238
238 255 238
238 255 238
238 255 238
238 255 238
238 255 238
238 255 238
238 255 238
238 255 238
238 255 238
238 255 238
238 255 238
238 255 238
238 255 238
238 238 238
238 255 238
238 255 238
238 255 238
238 255 238
238 255 238
238 255 238
238 255 238
238 255 255
238 255 238
238 255 238
238 255 255
238 255 238
238 255 255
238 255 255
238 255 255
238 255 255
238 255 255
238 255 255
238 255 238
238 255 255
238 255 255
238 255 255
238 255 255
238 255 255
238 255 238
238 255 238
238 255 255
238 255 238
238 255 255
238 255 255
238 255 255
238 255 255
238 255 255
238 255 255
238 255 255
238 255 255
238 255 255
238 255 255
238 255 255
238 255 255
238 255 255
238 255 255
238 255 255
238 255 255
238 255 255
238 255 255
238 255 255
238 255 255
238 255 255
238 255 255
238 255 255
238 255 255
238 255 255
255 255 255
255 255 255
255 255 255
255 255 255
255 255 255
255 255 255
255 255 255
255 255 255
255 255 255
255 255 255
255 255 255
221 221 204
221 221 204
221 221 204
221 221 221
221 221 221
221 221 221
221 221 221
221 221 204
221 221 204
221 221 204
221 221 204
204 221 204
221 221 204
204 221 204
204 221 204
204 221 204
204 221 204
204 221 204
221 221 204
221 221 204
221 221 204
221 221 204
221 221 204
221 221 204
221 221 204
221 221 204
221 221 204
221 221 204
221 221 204
221 221 221
221 221 221
221 221 221
221 221 221
221 221 221
221 221 221
221 221 204
221 221 204
221 221 204
221 221 204
221 221 204
221 221 204
221 221 204
221 221 204
221 221 204
221 221 204
221 221 204
221 221 221
221 221 221
221 221 221
221 238 221
221 238 221
221 221 221
221 221 221
221 221 221
221 221 221
221 221 204
221 221 204
221 221 204
221 221 204
204 204 187
204 204 187
204 204 170
204 187 170
187 187 170
187 170 153
170 170 136
170 153 119
153 136 102
136 119 85
136 119 85
153 136 119
187 170 153
204 187 170
204 204 187
204 204 187
204 204 170
204 187 170
204 187 170
187 187 153
187 187 153
187 170 153
187 170 136
187 187 153
204 187 153
187 187 153
204 187 153
204 187 170
204 187 170
204 187 170
204 187 153
204 187 153
204 187 170
187 187 153
204 187 170
187 187 153
187 187 170
204 204 187
204 204 187
204 204 187
204 204 187
204 204 187
204 204 187
204 204 187
204 204 187
204 204 187
204 204 187
0 0 255
0 0 255
187 187 170
187 187 170
187 187 170
187 187 170
187 187 170
170 170 153
170 170 153
170 170 153
170 170 153
153 170 136
153 153 136
153 153 136
153 153 136
153 153 136
136 136 119
136 136 119
136 136 119
136 119 102
136 136 102
170 170 136
187 187 170
187 187 170
204 204 187
187 187 170
170 170 153
170 170 153
170 170 153
187 187 170
187 187 170
187 187 170
170 170 170
170 170 170
187 187 170
170 170 153
170 170 153
170 170 153
170 170 153
170 170 153
170 187 170
187 187 170
187 187 187
187 187 170
170 170 153
170 170 153
170 170 153
170 153 153
170 153 153
170 170 153
187 187 170
170 170 153
170 170 153
170 170 153
170 170 153
170 170 153
187 170 170
187 170 170
170 170 170
170 170 153
170 170 153
170 153 153
170 153 136
170 170 153
170 153 153
153 153 136
170 153 153
153 153 136
153 136 119
153 153 136
170 170 153
170 170 153
170 170 153
170 170 170
187 187 170
187 187 170
170 170 153
170 170 153
187 187 170
187 187 170
187 187 187
187 187 170
187 187 170
204 204 187
204 204 187
221 204 204
221 204 204
221 221 204
221 221 221
255 255 238
255 255 255
255 255 255
255 255 255
255 255 255
255 255 255
255 255 255
255 255 255
255 255 255
255 255 238
255 255 238
255 255 238
255 255 238
255 255 238
255 255 238
255 255 238
255 255 238
255 255 238
0 0 255
0 0 255
255 255 238
255 255 238
255 255 238
255 255 238
255 255 238
255 255 238
255 255 238
255 255 238
255 255 238
255 255 238
255 255 238
255 255 238
238 255 238
255 255 238
238 255 238
238 255 238
238 255 238
238 255 238
238 255 238
238 255 238
238 255 238
238 255 238
238 255 238
238 255 238
238 255 238
238 255 238
238 255 238
238 255 238
238 255 238
238 255 238
238 255 238
238 255 238
238 255 238
238 255 238
238 255 238
238 255 238
238 255 238
238 255 238
238 255 238
238 255 238
238 255 238
238 255 238
238 255 238
238 255 238
238 255 238
238 255 238
238 238 238
238 255 238
238 255 238
238 255 238
238 255 238
238 255 238
238 255 238
238 255 238
238 255 238
238 255 255
238 255 255
238 255 238
238 255 238
238 255 238
238 255 255
238 255 238
238 255 255
238 255 255
238 255 238
238 255 238
238 255 255
238 255 238
238 255 238
238 255 255
238 255 255
238 255 255
238 255 238
238 255 255
238 255 255
238 255 255
238 255 255
238 255 255
238 255 255
238 255 255
238 255 255
238 255 255
238 255 255
238 255 255
238 255 255
238 255 255
238 255 255
238 255 255
238 255 255
238 255 255
238 255 255
238 255 255
255 255 255
255 255 255
238 255 255
255 255 255
255 255 255
255 255 255
255 255 255
255 255 255
255 255 255
238 255 255
255 255 255
255 255 255
255 255 255
221 221 221
221 221 204
221 221 204
221 221 221
221 221 221
221 221 204
221 221 204
221 221 204
221 221 204
221 221 204
221 221 204
221 221 204
204 221 204
204 221 204
204 221 204
204 221 204
204 221 204
221 221 204
221 221 204
221 221 204
221 221 204
221 221 204
221 221 204
221 221 204
221 221 204
221 221 204
221 221 204
221 221 204
221 221 204
221 221 204
221 221 221
221 221 221
221 221 221
221 221 221
221 221 204
221 221 204
221 221 204
221 221 204
204 221 204
204 221 204
221 221 204
221 221 204
221 221 204
221 221 204
221 221 204
221 221 221
221 221 221
221 221 221
221 221 221
221 221 221
221 221 221
221 221 221
221 221 221
221 221 221
221 221 204
221 221 204
221 221 204
221 221 204
204 204 204
204 204 187
204 204 187
204 187 170
204 187 170
187 187 153
187 170 153
170 170 136
153 153 119
136 119 85
119 102 68
136 119 85
153 136 119
170 153 136
170 170 136
187 187 153
204 187 170
204 187 170
204 187 170
204 187 170
204 187 170
204 187 153
187 187 153
187 170 136
187 170 153
204 187 153
204 187 170
204 187 170
204 187 153
204 187 153
204 187 153
187 187 153
187 170 153
187 170 153
204 187 170
204 204 170
187 187 170
187 187 170
204 204 187
204 204 187
204 204 187
204 204 187
204 204 187
204 204 187
204 204 187
204 204 187
204 204 187
204 204 187
0 0 255
0 0 255
187 187 170
187 187 170
187 187 170
187 187 170
170 170 153
170 170 153
170 170 153
170 170 153
170 170 153
153 153 136
153 153 136
153 153 136
153 153 136
153 136 119
136 136 119
136 136 119
136 136 119
119 119 102
119 119 102
170 153 136
187 187 170
187 187 170
204 187 170
187 187 170
170 170 153
170 170 153
170 170 153
187 170 170
187 187 170
187 187 170
187 187 170
170 187 170
187 187 170
170 170 153
170 170 153
170 170 153
170 170 153
170 170 153
187 187 170
187 187 187
204 204 187
187 187 170
170 170 153
170 170 153
170 170 153
170 170 153
170 170 153
170 170 153
187 187 170
170 170 153
170 170 153
170 170 153
170 170 153
153 153 136
153 153 136
170 170 153
170 170 153
170 170 153
170 170 153
170 170 153
170 153 136
153 153 136
153 153 136
153 153 136
153 153 136
153 153 136
153 136 119
153 136 119
153 153 136
170 170 153
170 170 153
187 170 170
187 187 170
187 187 170
170 170 153
170 170 153
187 170 153
187 187 170
187 187 170
204 204 187
204 204 187
204 204 187
204 204 187
204 204 187
204 204 187
221 204 204
221 221 204
238 255 238
255 255 255
255 255 255
255 255 255
255 255 255
255 255 255
255 255 255
255 255 255
255 255 238
255 255 238
255 255 238
255 255 238
255 255 238
255 255 238
255 255 238
255 255 238
255 255 238
255 255 238
0 0 255
0 0 255
255 255 238
255 255 238
255 255 238
255 255 238
255 255 238
255 255 238
255 255 238
255 255 238
255 255 238
255 255 238
255 255 238
255 255 238
255 255 238
255 255 238
238 255 238
238 255 238
238 255 238
238 255 238
238 255 238
238 255 238
238 255 238
238 255 238
238 255 238
238 255 238
238 255 238
238 255 238
238 255 238
238 255 238
238 255 238
238 255 238
238 255 238
238 255 238
238 255 238
238 255 238
238 255 238
238 255 238
238 238 238
238 238 238
238 255 238
238 238 238
238 255 238
238 255 238
238 255 238
238 255 255
238 255 238
238 255 238
238 255 238
238 255 238
238 255 238
238 255 238
238 255 238
238 255 238
238 255 238
238 255 238
238 255 238
238 255 238
238 255 238
238 255 255
238 255 238
238 255 238
238 238 238
238 238 238
238 255 238
238 255 238
238 238 238
238 255 238
238 255 238
238 255 238
238 255 255
238 255 255
238 255 238
238 255 255
238 255 238
238 255 238
238 255 238
238 255 255
238 255 255
238 255 255
238 255 238
238 255 238
238 255 255
238 255 255
238 255 255
238 255 255
238 255 255
238 255 255
238 255 255
238 255 255
238 255 255
238 255 255
238 255 255
238 255 255
238 255 255
238 255 255
238 255 255
238 255 255
255 255 255
255 255 255
238 255 255
238 255 255
238 255 255
255 255 255
255 255 255
255 255 255
255 255 255
221 221 221
221 221 221
221 221 221
221 221 221
221 221 204
221 221 204
221 221 204
221 221 204
204 221 204
221 221 204
204 221 204
204 221 204
204 221 204
204 204 204
204 221 204
204 221 204
221 221 204
221 221 204
221 221 204
221 221 204
221 221 204
221 221 204
221 221 204
221 221 204
221 221 204
221 221 204
221 221 204
221 221 204
221 221 221
221 221 221
221 221 221
221 221 221
221 221 221
221 221 204
221 221 204
221 221 204
204 221 204
204 221 204
204 221 204
221 221 204
221 221 204
221 221 204
221 221 204
221 221 204
221 221 204
221 221 221
221 221 221
221 221 221
221 221 221
221 238 221
221 221 221
221 221 221
221 221 221
221 221 204
221 221 204
221 221 204
221 221 204
204 221 204
204 204 187
204 204 187
204 204 187
204 187 170
187 187 170
187 187 153
187 170 153
170 153 136
153 136 102
136 119 85
136 119 102
170 153 136
170 153 136
170 170 136
170 170 136
170 170 136
187 170 153
187 187 153
187 187 153
187 187 153
204 187 170
204 187 170
204 187 170
204 187 153
187 170 153
204 187 153
204 187 153
204 187 153
204 187 153
187 170 153
187 170 153
187 170 153
187 170 136
187 170 136
187 170 153
204 187 170
204 204 187
204 204 187
221 204 204
204 204 204
204 204 187
204 204 187
187 187 170
204 204 187
204 204 187
204 204 187
204 204 187
204 204 187
0 0 255
0 0 255
204 204 187
187 204 187
187 187 170
187 187 170
170 187 170
170 170 153
170 170 153
170 170 153
170 170 153
153 153 136
153 153 136
153 153 136
153 153 136
136 136 119
136 136 119
136 136 119
136 136 102
119 119 102
136 119 102
153 153 136
187 187 170
187 187 170
187 187 170
187 187 170
170 170 153
170 170 153
170 170 153
170 170 153
170 170 153
187 187 170
187 187 170
187 187 170
187 187 170
170 170 153
170 170 153
170 170 153
170 170 153
170 187 170
187 187 170
187 204 187
187 187 187
187 187 170
170 170 153
170 170 153
170 170 153
170 170 153
170 170 153
170 170 153
170 170 170
170 170 153
170 170 153
170 170 153
170 170 153
153 153 136
153 136 119
153 153 136
170 153 153
170 170 153
170 170 153
170 170 153
170 153 153
153 153 136
153 153 136
153 153 136
153 153 136
153 136 119
153 153 119
136 136 119
153 153 136
170 170 153
170 170 153
187 170 170
187 187 170
187 187 170
187 170 153
170 170 153
187 170 153
187 187 170
187 187 170
204 204 187
204 204 170
204 187 170
204 204 170
221 204 187
204 204 187
204 204 187
221 221 204
238 238 238
255 255 255
255 255 255
255 255 255
255 255 255
255 255 238
255 255 255
255 255 255
255 255 238
255 255 238
255 255 238
255 255 238
255 255 238
255 255 238
255 255 255
255 255 238
255 255 238
255 255 238
0 0 255
0 0 255
255 255 238
255 255 238
255 255 238
255 255 238
255 255 238
255 255 238
255 255 238
255 255 238
255 255 238
255 255 238
255 255 238
255 255 238
255 255 238
255 255 238
238 255 238
238 255 238
238 255 238
238 255 238
238 255 238
238 255 238
238 255 238
238 255 238
238 255 238
238 255 238
238 255 238
238 255 238
238 255 238
238 255 238
238 255 238
238 238 238
238 238 238
238 238 238
238 255 238
238 255 238
238 255 238
238 238 238
238 238 238
238 238 238
238 238 238
238 255 238
238 255 238
238 255 238
238 255 238
238 238 238
238 255 238
238 255 238
238 255 238
238 255 238
238 255 238
238 255 238
238 255 238
238 255 238
238 255 238
238 255 238
238 255 238
238 255 238
238 238 238
238 255 238
238 238 238
238 255 238
238 255 238
238 255 238
238 255 238
238 255 238
238 255 238
238 238 238
238 255 238
238 255 238
238 255 238
238 255 238
238 255 238
238 255 255
238 255 238
238 255 238
238 255 238
238 255 255
238 255 238
238 255 255
238 255 238
238 255 238
238 255 255
238 255 255
238 255 238
238 255 255
238 255 255
238 255 238
238 255 255
238 255 255
238 255 255
238 255 255
238 255 255
238 255 255
238 255 255
238 255 255
238 255 255
238 255 255
238 255 255
238 255 255
238 255 255
255 255 255
238 255 255
255 255 255
255 255 255
255 255 255
238 255 255
221 221 221
221 221 221
221 221 221
221 221 204
221 221 204
221 221 204
221 221 204
221 221 204
221 221 204
221 221 204
204 221 204
204 221 204
204 221 204
204 221 204
221 221 204
221 221 204
221 221 204
204 221 204
221 221 204
221 221 204
221 221 204
221 221 204
221 221 204
221 221 204
221 221 204
221 221 204
221 221 204
221 221 204
221 221 221
221 221 221
221 221 221
221 221 221
221 221 204
221 221 204
221 221 204
221 221 204
204 221 204
204 204 204
204 221 204
221 221 204
221 221 204
221 221 204
221 221 204
221 221 204
221 221 204
221 221 221
221 221 221
221 221 221
221 221 221
221 221 221
221 221 221
221 221 221
221 221 204
221 221 204
221 221 204
221 221 204
221 221 204
204 204 187
204 204 187
204 204 187
204 204 170
204 187 170
187 187 153
187 187 153
170 170 136
170 153 119
153 136 102
153 136 102
170 170 136
187 170 153
187 170 153
170 170 153
170 170 153
170 170 136
170 170 136
170 170 136
170 170 153
170 170 136
187 170 153
187 187 153
204 187 170
204 187 170
204 187 153
204 187 153
204 187 153
204 187 153
187 170 153
170 170 136
187 170 136
187 170 153
187 170 153
187 170 153
187 170 153
187 187 170
204 187 170
204 204 187
221 221 204
221 221 204
204 204 204
204 204 187
204 204 170
204 204 187
204 204 187
204 204 187
204 204 187
204 204 187
0 0 255
0 0 255
204 204 187
204 204 187
187 187 187
187 187 170
170 187 170
170 170 153
170 170 153
170 170 153
170 170 153
153 153 136
153 153 136
153 153 136
153 153 136
153 136 119
136 136 119
136 136 119
136 136 119
119 119 102
136 119 102
153 153 119
187 170 170
187 187 170
187 187 170
187 187 170
187 170 170
187 187 170
170 170 153
170 170 153
170 170 153
170 170 153
170 170 170
187 187 170
187 187 170
170 170 153
170 170 153
170 170 153
170 170 170
187 187 170
187 187 170
187 187 170
187 187 170
170 170 170
170 170 170
170 170 153
170 170 153
170 170 153
170 170 153
170 170 153
170 170 153
170 170 153
170 170 170
170 170 153
170 170 153
153 153 136
153 136 119
153 153 136
153 153 136
170 153 153
170 170 153
170 170 153
170 170 153
153 153 136
153 153 136
153 153 136
153 136 119
153 136 119
153 153 119
136 136 119
153 153 136
170 170 153
187 170 170
170 170 153
187 187 170
187 187 170
170 170 153
187 170 153
187 170 153
187 187 170
204 204 187
204 204 187
204 187 170
204 187 170
204 204 187
204 204 187
204 204 187
204 204 187
221 221 204
255 255 238
255 255 255
255 255 255
255 255 255
255 255 238
255 255 238
255 255 238
255 255 238
255 255 238
255 255 238
255 255 238
255 255 238
255 255 238
255 255 238
255 255 238
255 255 238
255 255 238
255 255 238
0 0 255
0 0 255
255 255 238
255 255 238
255 255 238
255 255 238
255 255 238
255 255 238
255 255 238
255 255 238
255 255 238
255 255 238
255 255 238
255 255 238
238 255 238
238 255 238
238 255 238
238 255 238
238 255 238
238 255 238
238 255 238
238 255 238
238 255 238
238 255 238
238 255 238
238 255 238
238 255 238
238 255 238
238 255 238
238 255 238
238 255 238
238 238 238
238 238 238
238 238 238
238 255 238
238 238 238
238 238 238
238 238 238
238 238 238
238 238 238
238 238 238
238 238 238
238 255 238
238 255 238
238 255 238
238 255 238
238 255 238
238 255 238
238 255 238
238 255 238
238 255 238
238 255 238
238 238 238
238 238 238
238 238 238
238 238 238
238 238 238
238 238 238
238 238 238
238 238 238
238 238 238
238 238 238
238 238 238
238 238 238
238 255 238
238 255 238
238 238 238
238 238 238
238 255 238
238 255 238
238 255 238
238 255 238
238 255 238
238 255 238
238 255 238
238 255 238
238 255 238
238 255 238
238 255 238
238 255 238
238 255 238
238 255 238
238 255 238
238 255 238
238 255 238
238 255 238
238 255 238
238 255 238
238 255 255
238 255 255
238 255 255
238 255 255
238 255 255
238 255 255
238 255 255
238 255 255
238 255 255
238 255 255
238 255 255
238 255 255
238 255 255
238 255 255
238 255 255
238 255 255
238 255 255
238 255 255
238 255 255
221 221 204
221 221 204
221 221 221
221 221 204
221 221 204
221 221 204
221 221 204
221 221 204
221 221 204
204 221 204
204 221 204
204 204 204
204 204 204
204 221 204
221 221 204
221 221 204
221 221 204
221 221 204
221 221 204
221 221 204
221 221 204
221 221 204
221 221 204
221 221 204
221 221 204
221 221 204
221 221 204
221 221 221
221 221 221
221 221 221
221 221 204
221 221 204
221 221 204
221 221 204
204 221 204
204 204 204
204 204 204
204 204 204
221 221 204
221 221 204
221 221 204
221 221 204
221 221 204
221 221 221
221 221 221
221 221 221
221 221 221
221 221 221
221 221 221
221 221 204
221 221 204
221 221 204
221 221 204
221 221 204
221 221 204
221 221 204
204 221 204
204 204 187
204 204 187
204 204 187
204 204 170
187 187 170
187 187 153
187 170 153
170 170 136
153 153 119
153 153 119
170 170 153
187 187 153
187 187 153
187 187 153
187 187 153
187 170 153
187 170 153
187 170 153
170 170 153
170 170 136
170 170 136
170 170 136
170 170 136
187 170 153
187 170 153
187 170 153
187 170 153
187 170 153
187 170 136
170 170 136
170 153 136
170 170 136
187 170 153
187 170 153
187 187 170
204 187 170
204 204 187
204 204 187
221 221 204
221 221 204
221 221 204
204 204 204
204 204 187
204 204 187
204 204 187
204 204 187
204 204 187
204 204 187
204 204 187
0 0 255
0 0 255
204 204 187
204 204 187
187 187 170
187 187 170
187 187 170
187 187 170
170 170 153
170 170 153
170 170 153
170 170 153
153 153 153
153 153 136
153 153 136
153 153 119
136 136 119
136 136 119
136 136 119
136 136 102
136 119 102
153 153 136
187 187 170
187 187 170
187 187 170
187 187 170
187 187 170
187 187 170
170 170 153
170 170 153
170 170 153
170 170 153
170 170 153
170 170 170
187 187 170
187 187 170
170 170 170
170 170 153
170 170 170
170 170 170
170 170 170
170 170 170
170 170 170
170 170 170
170 170 170
170 170 153
170 170 153
170 170 170
170 170 170
170 170 170
170 170 170
187 170 170
187 187 170
170 170 153
170 153 136
153 153 136
153 153 119
153 153 136
153 153 136
153 153 136
153 153 136
170 170 136
170 170 153
153 153 136
153 136 119
153 136 119
136 136 119
153 136 119
153 153 136
153 136 119
153 153 136
170 170 153
170 170 153
170 170 153
187 170 153
170 170 153
170 170 153
187 170 170
187 170 170
187 187 170
204 204 187
204 204 187
204 204 170
204 204 187
204 204 187
204 204 187
221 204 187
221 221 204
238 238 221
238 255 238
255 255 238
255 255 238
255 255 238
255 255 238
255 255 238
255 255 238
255 255 238
255 255 238
255 255 238
255 255 238
255 255 238
255 255 238
255 255 238
255 255 238
255 255 238
255 255 238
255 255 238
0 0 255
0 0 255
255 255 238
255 255 238
255 255 238
255 255 238
255 255 238
255 255 238
255 255 238
255 255 238
255 255 238
255 255 238
238 255 238
238 255 238
238 255 238
238 255 238
238 255 238
238 255 238
238 255 238
238 255 238
238 255 238
238 255 238
238 255 238
238 255 238
238 255 238
238 255 238
238 255 238
238 255 238
238 255 238
238 255 238
238 255 238
238 255 238
238 238 238
238 238 238
238 255 238
238 255 238
238 238 238
238 238 238
238 238 238
238 255 238
238 238 238
238 255 238
238 255 238
238 255 238
238 255 238
238 255 238
238 255 238
238 255 238
238 238 238
238 255 238
238 255 238
238 238 238
238 238 238
238 238 238
238 238 238
238 238 238
238 238 238
238 238 238
238 238 238
238 238 238
238 238 238
238 238 238
238 238 238
238 238 238
238 255 238
238 255 238
238 238 238
238 238 238
238 238 238
238 255 238
238 238 238
238 238 238
238 255 238
238 255 238
238 238 238
238 238 238
238 255 238
238 255 238
238 255 238
238 255 255
238 255 238
238 255 238
238 255 255
238 255 238
238 255 238
238 255 255
238 255 255
238 255 255
238 255 255
238 255 255
238 255 255
238 255 255
238 255 238
238 255 255
238 255 255
238 255 255
238 255 255
238 255 255
238 255 255
238 255 255
238 255 255
238 255 255
238 255 255
238 255 255
238 255 255
238 255 255
238 255 255
221 221 204
221 221 204
221 221 204
221 221 204
221 221 204
221 221 204
221 221 204
204 221 204
204 204 204
204 204 204
204 204 204
204 221 204
221 221 204
221 221 204
221 221 204
221 221 204
221 221 204
221 221 204
221 221 204
221 221 204
221 221 204
221 221 204
221 221 204
221 221 204
221 221 204
221 221 204
221 221 221
221 221 221
221 221 221
221 221 221
221 221 204
221 221 204
221 221 204
204 221 204
204 204 204
204 204 204
204 204 204
221 221 204
221 221 204
221 221 204
221 221 204
221 221 221
221 221 221
221 221 221
221 221 221
221 221 221
221 221 221
221 221 204
221 221 221
221 221 204
221 221 204
221 221 204
221 221 204
221 221 204
221 221 204
221 221 204
204 204 204
204 204 187
204 204 187
204 204 187
204 187 170
187 187 170
187 187 153
170 170 136
153 153 119
153 153 119
187 170 153
187 187 170
187 187 170
187 187 170
187 187 170
187 187 170
187 187 170
187 187 153
187 187 153
187 170 153
187 170 153
170 170 153
170 170 153
170 170 136
170 170 136
170 170 136
170 170 136
170 170 136
170 170 136
170 170 136
170 170 136
170 170 136
170 170 136
170 170 136
187 170 153
187 187 153
187 187 170
204 204 187
221 204 204
221 221 204
221 221 204
221 221 204
204 204 204
204 204 187
204 204 187
204 204 187
204 204 204
204 204 187
204 204 187
204 204 187
0 0 255
0 0 255
204 204 187
204 204 187
187 187 187
187 187 170
187 187 170
187 187 170
170 170 153
170 170 153
170 170 153
170 170 153
170 170 153
153 153 136
153 153 136
153 153 136
136 136 119
136 136 119
136 136 119
136 136 119
136 136 102
153 153 136
170 170 153
187 187 170
187 187 170
187 187 170
187 187 170
187 187 170
170 170 153
187 170 170
170 170 153
170 170 153
170 170 153
170 170 153
170 170 170
187 187 170
187 187 170
170 170 153
170 170 153
170 170 153
170 170 153
170 170 153
170 170 170
187 187 170
187 187 170
170 170 153
170 170 153
170 170 170
170 170 170
187 187 170
187 187 170
187 187 170
187 187 170
170 170 153
153 153 136
153 153 136
136 136 119
153 153 136
153 153 136
153 153 136
153 153 136
153 153 136
153 153 136
153 153 136
153 153 136
136 136 119
136 136 119
153 153 119
153 153 136
153 153 136
170 153 136
170 170 153
170 170 153
170 170 153
187 170 153
170 170 153
170 170 153
187 187 170
187 187 170
187 187 170
204 204 187
204 204 187
204 204 187
204 204 187
221 221 187
221 221 204
221 221 204
221 221 221
238 238 221
238 238 238
255 255 238
255 255 238
255 255 238
255 255 238
255 255 238
255 255 238
255 255 238
255 255 238
255 255 238
255 255 238
255 255 238
255 255 238
255 255 238
255 255 238
255 255 238
255 255 238
255 255 238
0 0 255
0 0 255
255 255 238
255 255 238
255 255 238
255 255 238
255 255 238
255 255 238
255 255 238
255 255 238
255 255 238
255 255 238
238 255 238
238 255 238
238 255 238
238 255 238
238 255 238
238 255 238
238 255 238
238 255 238
238 255 238
238 255 238
238 255 238
238 255 238
238 255 238
238 255 238
238 255 238
238 255 238
238 255 238
238 255 238
238 238 238
238 255 238
238 238 238
238 238 238
238 238 238
238 255 238
238 238 238
238 238 238
238 238 238
238 255 238
238 255 238
238 255 238
238 255 238
238 238 238
238 255 238
238 255 238
238 255 238
238 255 238
238 255 238
238 255 238
238 255 238
238 238 238
238 238 238
238 238 238
238 238 238
238 238 238
238 238 238
238 238 238
238 238 238
238 238 238
238 238 238
238 238 238
238 238 238
238 238 238
238 238 238
238 238 238
238 238 238
238 238 238
238 238 238
238 238 238
238 238 238
238 238 238
238 255 238
238 255 238
238 238 238
238 255 238
238 255 238
238 238 238
238 238 238
238 255 238
238 255 238
238 255 238
238 255 238
238 255 238
238 255 238
238 255 238
238 255 238
238 255 238
238 255 238
238 255 255
238 255 238
238 255 255
238 255 238
238 255 255
238 255 255
238 255 255
238 255 255
238 255 255
238 255 255
238 255 255
238 255 255
238 255 255
238 255 255
238 255 255
238 255 255
238 255 255
238 255 255
221 221 204
221 221 204
221 221 204
221 221 204
221 221 204
221 221 204
204 221 204
204 221 204
204 204 204
204 221 204
204 221 204
221 221 204
221 221 204
221 221 204
221 221 204
221 221 221
221 221 204
221 221 204
221 221 204
221 221 204
221 221 204
221 221 204
221 221 204
221 221 204
221 221 204
221 221 221
221 221 221
221 221 221
221 221 221
221 221 204
221 221 204
221 221 204
204 221 204
204 204 204
204 204 204
204 221 204
204 221 204
221 221 204
221 221 204
221 221 204
221 221 204
221 221 221
221 221 221
221 221 221
221 221 221
221 221 221
221 221 204
221 221 204
221 221 204
221 221 204
221 221 204
221 221 204
221 221 204
221 221 204
221 221 204
204 204 204
204 204 187
204 204 187
204 204 187
204 204 170
204 187 170
187 187 153
187 170 136
170 153 119
153 153 119
187 187 153
187 187 170
204 204 187
204 204 170
187 204 170
204 187 170
187 187 170
187 187 170
187 187 170
187 187 170
187 187 170
187 187 153
187 170 153
170 170 153
170 170 153
170 170 153
170 170 153
170 170 153
170 170 153
187 170 153
187 170 153
187 170 153
187 170 153
187 170 153
187 170 153
187 170 153
187 187 153
187 187 170
204 204 187
221 221 204
221 221 204
221 221 204
221 221 204
204 204 204
204 204 187
204 204 187
204 204 187
204 204 187
204 204 187
204 204 187
204 204 187
0 0 255
0 0 255
204 204 187
187 187 187
187 187 170
187 187 170
187 187 170
187 187 170
170 170 153
170 170 153
170 170 153
170 170 153
170 170 153
153 170 153
153 153 136
153 153 136
136 136 119
136 136 119
136 136 119
136 136 119
136 119 102
136 136 119
153 153 136
170 170 153
187 187 170
187 187 170
170 170 153
170 170 153
187 187 170
187 187 170
170 170 153
170 170 153
170 170 153
170 170 153
170 170 153
187 187 170
187 187 170
170 170 153
170 170 153
170 170 153
170 170 153
170 170 153
170 170 170
187 187 170
187 187 170
170 170 170
170 170 153
170 170 170
170 170 170
187 187 170
187 187 170
187 187 170
187 187 170
170 170 153
170 153 153
153 153 136
153 136 119
136 136 119
153 136 119
153 153 136
153 153 119
153 153 136
153 153 136
153 153 136
153 136 119
136 136 119
153 136 119
153 153 136
153 153 136
153 153 136
170 170 153
170 170 153
170 170 153
187 170 170
187 170 153
170 170 153
187 170 153
187 187 170
187 187 170
187 187 170
204 204 187
221 204 187
204 204 187
204 204 187
221 221 204
221 221 204
221 221 204
238 221 221
238 238 238
238 238 238
255 255 238
255 255 238
255 255 238
255 255 238
255 255 238
255 255 238
255 255 238
255 255 238
255 255 238
255 255 238
255 255 238
255 255 238
255 255 238
255 255 238
255 255 238
255 255 238
255 255 238
0 0 255
0 0 255
255 255 238
255 255 238
255 255 238
255 255 238
255 255 238
238 255 238
255 255 238
255 255 238
238 255 238
255 255 238
238 255 238
238 238 238
238 255 238
238 255 238
238 255 238
238 255 238
238 255 238
238 255 238
238 255 238
238 255 238
238 255 238
238 255 238
238 255 238
238 255 238
238 255 238
238 255 238
238 255 238
238 238 238
238 238 238
238 238 238
238 238 238
238 238 238
238 238 238
238 255 238
238 238 238
238 255 238
238 238 238
238 255 238
238 255 238
238 255 238
238 255 238
238 255 238
238 238 238
238 255 238
238 255 238
238 238 238
238 238 238
238 238 238
238 238 238
238 238 238
238 238 238
238 238 238
238 238 238
238 238 238
238 238 238
238 238 238
238 238 238
238 238 238
238 238 238
238 238 238
238 238 238
238 238 238
238 238 238
238 238 238
238 238 238
238 238 238
238 238 238
238 238 238
238 238 238
238 238 238
238 238 238
238 238 238
238 238 238
238 238 238
238 238 238
238 238 238
238 238 238
238 255 238
238 238 238
238 255 238
238 238 238
238 255 238
238 255 238
238 255 238
238 255 255
238 255 238
238 255 255
238 255 238
238 255 238
238 255 255
238 255 255
238 255 255
238 255 255
238 255 238
238 255 255
238 255 255
238 255 255
238 255 255
238 255 255
238 255 255
238 255 255
238 255 255
238 255 238
238 255 238
238 255 255
221 221 204
221 221 204
204 221 204
221 221 204
221 221 204
204 221 204
204 204 204
204 204 204
204 204 204
204 204 204
204 221 204
221 221 204
221 221 204
221 221 204
221 221 204
221 221 204
221 221 204
221 221 204
221 221 204
221 221 204
221 221 204
221 221 204
221 221 204
221 221 204
221 221 221
221 221 221
221 221 221
221 221 221
221 221 204
221 221 204
221 221 204
204 221 204
204 204 204
204 204 204
204 221 204
204 221 204
204 221 204
221 221 204
221 221 204
221 221 204
221 221 204
221 221 221
221 221 221
221 221 221
221 221 221
221 221 204
221 221 204
221 221 204
221 221 204
221 221 204
221 221 204
221 221 204
221 221 204
221 221 204
204 204 204
204 204 187
204 204 187
204 204 187
204 204 187
204 204 170
187 187 170
187 170 153
170 153 136
170 153 136
187 187 170
204 204 187
204 204 187
204 204 187
204 204 187
204 204 187
204 204 187
204 204 187
204 204 187
204 204 187
204 204 187
204 204 187
187 204 187
187 187 170
187 187 170
187 187 170
187 187 170
187 187 170
187 187 170
187 187 170
187 187 170
187 187 170
187 187 170
187 187 170
187 187 170
187 187 170
187 187 170
187 187 170
187 187 170
204 204 187
204 221 204
221 221 204
221 221 204
221 221 204
204 204 204
204 204 204
204 204 187
204 204 187
204 204 187
204 204 187
204 204 187
204 204 187
0 0 255
0 0 255
204 204 187
187 187 170
187 187 170
187 187 170
187 187 170
187 187 170
170 170 153
170 170 153
170 170 153
170 170 153
170 170 153
153 153 136
153 153 136
153 136 119
153 153 119
136 136 119
136 136 119
136 136 119
136 119 102
119 119 102
136 119 102
153 153 136
187 187 170
187 187 170
170 170 153
170 170 153
187 187 170
187 187 170
187 170 170
170 170 153
170 170 153
170 170 153
187 187 170
187 187 170
187 187 170
170 170 153
170 170 153
170 170 170
170 170 153
170 170 153
170 170 170
187 187 170
187 187 170
170 170 170
170 170 153
170 170 153
170 187 170
187 187 170
187 187 170
187 187 170
170 170 170
170 170 153
153 153 136
153 136 119
136 136 119
136 136 102
136 136 119
136 136 119
136 136 119
136 136 119
136 136 119
136 136 119
136 136 119
136 136 119
153 136 119
153 153 136
153 153 136
170 153 136
170 170 153
170 170 153
170 170 153
187 170 153
187 187 170
187 187 170
187 187 170
204 204 187
204 187 170
204 204 187
204 204 187
204 204 187
204 204 187
221 221 187
221 221 204
221 221 204
221 238 221
238 238 221
238 238 238
238 238 238
255 255 238
255 255 238
255 255 238
255 255 238
255 255 238
255 255 238
255 255 238
255 255 238
255 255 238
255 255 238
255 255 238
255 255 238
255 255 238
255 255 238
255 255 238
255 255 238
255 255 238
0 0 255
0 0 255
255 255 238
255 255 238
255 255 238
255 255 238
255 255 238
255 255 238
255 255 238
238 255 238
238 238 238
238 255 238
238 255 238
238 255 238
238 255 238
238 255 238
238 255 238
238 255 238
238 255 238
238 238 238
238 255 238
238 255 238
238 255 238
238 255 238
238 255 238
238 255 238
238 255 238
238 255 238
238 238 238
238 238 238
238 238 238
238 238 238
238 238 238
238 238 238
238 238 238
238 238 238
238 238 238
238 238 238
238 238 238
238 255 238
238 238 238
238 238 238
238 238 238
238 255 238
238 238 238
238 238 238
238 238 238
238 238 238
238 238 238
238 238 238
238 238 238
238 238 238
238 238 238
238 238 238
238 238 238
238 238 238
238 238 238
238 238 238
238 238 238
238 238 238
238 238 238
238 238 238
238 238 238
238 238 238
238 238 238
238 238 238
238 238 238
238 238 238
238 238 238
238 238 238
238 238 238
238 238 238
238 238 238
238 238 238
238 238 238
238 238 238
238 238 238
238 238 238
238 238 238
238 238 238
238 238 238
238 238 238
238 238 238
238 255 238
238 255 238
238 255 238
238 255 238
238 255 238
238 255 238
238 255 255
238 255 255
238 255 255
238 255 255
238 255 255
238 255 238
238 255 255
238 255 238
238 255 255
238 255 238
238 255 255
238 255 255
238 255 255
238 255 238
238 255 255
238 255 255
238 255 255
238 255 255
221 221 204
204 221 204
204 221 204
204 221 204
204 221 204
204 221 204
204 204 204
204 204 204
204 204 204
204 221 204
204 221 204
221 221 204
221 221 204
221 221 204
221 221 204
221 221 204
221 221 204
221 221 204
221 221 204
221 221 204
221 221 204
221 221 204
221 221 204
221 221 221
221 221 221
221 221 221
221 221 221
221 221 204
221 221 204
221 221 204
204 221 204
204 204 204
204 204 204
204 221 204
221 221 204
221 221 204
204 221 204
221 221 204
221 221 204
221 221 221
221 221 221
221 221 221
221 221 221
221 221 221
221 221 221
221 221 204
221 221 204
221 221 204
221 221 204
221 221 204
221 221 204
221 221 204
221 221 204
204 221 204
204 204 187
204 204 187
204 204 187
204 204 187
204 204 170
204 187 170
187 187 153
170 170 136
170 170 136
204 187 170
204 204 187
204 204 204
221 204 204
221 221 204
221 221 204
221 221 204
221 221 204
221 221 204
221 221 204
204 221 204
221 221 204
204 221 204
204 204 204
204 221 204
204 204 204
204 204 204
204 204 187
204 204 187
204 204 187
204 204 187
204 204 187
204 204 187
204 204 187
204 204 187
204 204 187
204 204 187
204 204 187
204 187 187
204 204 187
204 204 187
221 221 204
221 221 204
221 221 204
221 204 204
204 204 204
204 204 187
204 204 187
204 204 187
204 204 187
187 187 187
187 204 187
187 187 187
0 0 255
0 0 255
187 187 170
187 187 170
187 187 170
187 187 170
187 187 170
187 187 170
170 170 153
170 170 153
170 170 153
170 170 153
170 170 153
153 153 136
136 136 119
153 136 119
153 153 136
136 136 119
136 136 102
136 136 102
119 119 102
119 119 102
119 119 102
136 136 119
187 187 170
187 187 170
187 187 153
170 170 153
170 170 153
187 187 170
187 187 170
170 170 153
170 170 153
170 170 153
187 187 170
187 187 170
187 187 170
170 170 170
170 170 153
170 187 170
170 170 170
170 170 153
170 170 170
187 187 170
187 187 170
170 170 170
170 170 153
170 170 153
187 187 170
187 187 170
187 187 170
170 187 170
170 170 153
170 153 153
153 153 136
153 136 119
136 136 119
119 119 102
136 119 102
136 119 102
136 119 102
136 119 102
136 119 102
136 136 102
136 136 119
136 136 119
153 153 136
153 153 136
153 153 136
170 170 153
170 170 153
170 170 153
187 170 170
187 170 170
187 187 170
187 187 170
187 187 170
204 204 187
204 204 187
204 204 187
204 204 187
204 204 187
204 204 187
221 221 204
221 221 204
221 221 204
221 221 221
238 238 221
238 238 238
238 238 238
255 255 238
255 255 238
255 255 238
255 255 238
255 255 238
255 255 238
255 255 238
255 255 238
255 255 238
255 255 238
255 255 238
255 255 238
255 255 238
255 255 238
255 255 238
255 255 238
255 255 238
0 0 255
0 0 255
255 255 238
255 255 238
255 255 238
255 255 238
255 255 238
255 255 238
238 255 238
238 255 238
238 255 238
238 255 238
238 255 238
238 255 238
238 255 238
255 255 238
238 255 238
238 255 238
238 255 238
238 238 238
238 255 238
238 255 238
238 255 238
238 238 238
238 255 238
238 255 238
238 238 238
238 238 238
238 238 238
238 238 238
238 238 238
238 238 238
238 238 238
238 238 238
238 238 238
238 238 238
238 238 238
238 238 238
238 238 238
238 238 238
238 238 238
238 238 238
238 238 238
238 255 238
238 238 238
238 238 238
238 238 238
238 238 238
238 238 238
238 238 238
238 238 238
238 238 238
238 238 238
238 238 238
238 238 238
238 238 238
238 238 238
238 238 238
238 238 238
238 238 238
238 238 238
238 238 238
238 238 238
238 238 238
238 238 238
238 238 238
238 238 238
238 238 238
238 238 238
238 238 238
238 238 238
238 238 238
238 238 238
238 238 238
238 238 238
238 238 238
238 238 238
238 238 238
238 238 238
238 238 238
238 238 238
238 238 238
238 238 238
238 238 238
238 238 238
238 255 238
238 255 238
238 238 238
238 255 238
238 255 238
238 255 238
238 255 255
238 255 255
238 255 238
238 255 255
238 255 238
238 255 238
238 255 255
238 255 255
238 255 238
238 255 255
238 255 255
238 255 255
238 255 255
238 255 255
238 255 255
238 255 238
221 221 204
204 221 204
221 221 204
204 221 204
204 204 204
204 204 204
204 204 204
204 221 204
221 221 204
221 221 204
221 221 204
221 221 204
221 221 221
221 221 204
221 221 204
221 221 204
221 221 204
221 221 204
221 221 204
221 221 204
221 221 204
221 221 221
221 221 221
221 221 221
221 221 221
221 221 221
221 221 204
221 221 204
221 221 204
204 221 204
204 204 204
204 204 204
204 221 204
204 221 204
221 221 204
221 221 204
221 221 204
221 221 204
221 221 204
221 221 204
221 221 221
221 221 221
221 221 221
221 221 204
221 221 221
221 221 204
221 221 204
221 221 204
221 221 204
221 221 204
221 221 204
204 221 204
221 221 204
221 221 204
221 204 187
204 204 187
204 204 187
204 204 187
204 204 170
187 187 153
170 170 136
187 170 153
204 204 187
204 204 204
221 221 204
221 221 204
221 221 204
221 221 204
221 221 204
221 221 204
221 221 204
221 221 204
221 221 204
221 221 204
221 221 204
221 221 204
221 221 204
221 221 204
221 221 204
221 221 204
221 221 204
221 221 204
221 221 204
221 221 204
221 221 204
221 221 204
221 221 204
204 204 204
204 204 204
204 204 187
204 204 187
204 204 187
204 204 187
221 221 204
221 221 204
204 204 187
204 204 187
204 204 187
204 204 187
204 204 187
204 204 187
187 187 170
187 187 170
187 187 170
187 187 170
187 187 170
0 0 255
0 0 255
187 187 170
187 187 170
187 187 170
187 187 170
187 187 170
170 170 153
170 170 153
170 170 153
170 170 153
170 170 153
170 170 153
153 153 136
136 136 119
153 153 136
153 153 136
136 136 119
136 136 119
136 119 102
119 119 102
119 119 102
119 102 85
136 136 119
170 170 153
187 187 170
187 187 170
170 170 153
170 170 153
187 187 170
187 170 153
170 170 153
170 170 153
170 187 170
187 187 170
187 187 170
187 187 170
170 170 153
170 170 153
170 170 170
187 170 170
170 170 170
170 170 170
170 170 170
187 187 170
187 187 170
187 187 170
170 170 170
187 187 170
187 187 170
187 187 170
187 187 170
170 170 170
170 170 153
153 153 136
153 153 136
136 119 102
119 119 85
119 119 102
119 119 102
119 119 102
119 119 102
119 119 102
136 119 102
136 136 119
153 153 136
153 153 136
153 153 136
170 153 153
170 170 153
187 170 170
170 170 153
187 187 170
187 187 170
187 187 170
187 187 170
187 187 170
204 204 187
204 204 187
204 204 187
204 204 187
221 204 187
221 204 187
221 221 204
221 221 204
221 221 204
221 221 221
238 238 221
238 238 238
238 255 238
255 255 238
255 255 238
255 255 238
255 255 238
255 255 238
255 255 238
255 255 238
255 255 238
255 255 238
255 255 238
238 238 238
238 238 238
238 255 238
255 255 238
255 255 238
255 255 238
255 255 238
0 0 255
0 0 255
255 255 238
255 255 238
255 255 238
255 255 238
238 255 238
238 255 238
255 255 238
238 255 238
238 255 238
238 255 238
238 255 238
238 255 238
255 255 238
238 255 238
238 238 238
238 238 238
238 255 238
238 255 238
238 255 238
238 255 238
238 255 238
238 238 238
238 238 238
238 238 238
238 238 238
238 255 238
238 238 238
238 238 238
238 238 238
238 238 238
238 238 238
238 238 238
238 238 238
238 238 238
238 238 238
238 238 238
238 238 238
238 238 238
238 238 238
238 238 238
238 238 238
238 238 238
238 238 238
238 238 238
238 238 238
238 238 238
238 238 238
238 238 238
238 238 238
238 238 238
238 238 238
238 238 238
238 238 238
238 238 238
238 238 238
238 238 238
238 238 238
238 238 238
238 238 238
238 238 238
238 238 238
238 238 238
238 238 238
238 238 238
238 238 238
238 238 238
238 238 238
238 238 238
238 238 238
238 238 238
238 238 238
238 238 238
238 238 238
238 238 238
238 238 238
238 238 238
238 238 238
238 238 238
238 238 238
238 238 238
238 238 238
238 238 238
238 238 238
238 238 238
238 255 238
238 238 238
238 238 238
238 255 238
238 255 238
238 255 238
238 255 238
238 255 238
238 255 238
238 255 238
238 255 238
238 255 255
238 255 238
238 255 238
238 255 238
238 255 255
238 255 238
238 255 255
238 255 255
238 255 255
238 255 255
204 221 204
221 221 204
204 204 204
204 204 204
204 204 204
204 204 204
204 221 204
221 221 204
221 221 204
221 221 204
221 221 204
221 221 204
221 221 204
221 221 204
221 221 204
221 221 204
221 221 204
221 221 204
221 221 204
221 221 204
221 221 221
221 221 221
221 221 221
221 221 221
221 221 221
221 221 221
221 221 204
221 221 204
204 221 204
204 204 204
204 204 204
204 221 204
221 221 204
221 221 204
221 221 204
221 221 204
221 221 204
221 221 204
221 221 204
221 221 221
221 221 221
221 221 221
221 221 221
221 221 221
221 221 204
221 221 204
221 221 204
221 221 204
221 221 204
221 221 204
204 221 204
221 204 204
221 204 204
221 204 187
221 204 187
204 204 187
204 204 187
204 204 170
204 187 153
187 170 153
187 170 153
204 204 187
221 221 204
221 221 204
221 221 204
221 221 204
221 221 221
221 221 221
221 221 221
221 221 221
221 221 221
221 221 221
221 221 221
221 221 221
221 221 221
221 221 221
221 221 221
221 221 204
221 221 204
221 221 221
221 221 221
221 221 204
221 221 204
221 221 204
221 221 204
221 221 204
221 221 204
221 221 204
221 221 204
221 221 204
221 221 204
221 221 204
221 221 204
221 221 204
221 204 187
204 204 187
204 204 187
204 204 170
204 204 170
204 187 170
187 187 170
187 187 170
187 187 170
187 187 170
187 187 170
187 187 170
0 0 255
0 0 255
187 187 170
187 187 170
187 187 170
187 187 170
187 187 170
170 170 153
170 170 153
170 170 153
170 170 153
170 170 153
170 170 153
153 153 136
153 136 119
153 153 136
153 153 136
136 136 119
136 119 102
136 119 102
119 119 102
119 119 102
119 102 85
119 119 102
153 153 136
187 187 170
187 187 170
187 170 153
170 170 153
170 170 153
170 170 153
170 187 170
170 187 170
187 187 170
187 187 170
187 187 170
187 187 170
170 170 170
170 170 153
170 170 153
170 170 170
187 187 170
187 187 170
170 170 170
187 187 170
187 187 170
187 187 170
187 187 170
187 187 170
187 187 170
187 187 170
187 187 170
187 187 170
170 170 153
170 170 153
153 153 136
153 136 119
119 119 102
119 119 85
119 119 85
119 119 85
119 119 102
119 119 102
136 136 119
153 136 119
153 153 136
153 153 136
153 153 136
170 170 153
170 170 153
187 187 170
170 170 153
187 187 170
187 187 170
204 187 187
204 187 187
187 187 187
204 204 187
204 204 187
204 204 187
221 204 187
221 221 187
221 221 204
221 221 204
221 221 204
238 238 221
238 238 221
238 238 221
238 238 238
238 238 238
255 255 238
255 255 238
255 255 238
255 255 238
255 255 238
255 255 238
255 255 238
238 238 238
238 238 238
255 255 238
238 238 238
238 238 221
238 238 238
255 255 238
255 255 238
255 255 238
255 255 238
0 0 255
0 0 255
255 255 238
255 255 238
255 255 238
238 255 238
238 255 238
255 255 238
238 255 238
238 255 238
238 255 238
255 255 238
238 255 238
238 255 238
238 255 238
238 255 238
238 255 238
238 255 238
238 255 238
238 255 238
238 238 238
238 238 238
238 238 238
238 238 238
238 238 238
238 238 238
238 238 238
238 238 238
238 238 238
238 238 238
238 238 238
238 238 238
238 238 238
238 238 238
238 238 238
238 238 238
238 238 238
238 238 238
238 238 238
238 238 238
238 238 238
238 238 238
238 238 238
238 238 238
238 238 238
238 238 238
238 238 238
238 238 238
238 238 238
238 238 238
238 238 238
238 238 238
238 238 238
238 238 238
238 238 238
238 238 238
238 238 238
238 238 238
238 238 238
238 238 238
238 238 238
238 238 238
238 238 238
238 238 238
238 238 238
238 238 238
238 238 238
238 238 238
238 238 238
238 238 238
238 238 238
238 238 238
238 238 238
238 238 238
238 238 238
238 238 238
238 238 238
238 238 238
238 238 238
238 238 238
238 238 238
238 238 238
238 238 238
238 238 238
238 238 238
238 238 238
238 255 238
238 238 238
238 255 238
238 255 238
238 238 238
238 238 238
238 238 238
238 255 238
238 255 238
238 255 238
238 238 238
238 255 238
238 255 238
238 255 255
238 255 238
238 255 238
238 255 238
238 255 255
238 255 255
238 255 238
238 255 255
204 221 204
204 204 204
204 204 204
204 204 204
204 204 204
204 221 204
221 221 204
221 221 204
221 221 204
221 221 204
221 221 204
221 221 204
221 221 204
221 221 204
221 221 204
221 221 204
221 221 204
221 221 204
221 221 204
221 221 221
221 221 221
221 221 221
221 221 221
221 221 221
221 221 204
221 221 204
221 221 204
204 221 204
204 204 204
204 204 204
204 204 204
221 221 204
221 221 204
221 221 204
221 221 204
221 221 204
221 221 204
221 221 204
221 221 204
221 221 221
221 221 221
221 221 221
221 221 221
221 221 204
221 221 204
221 221 204
221 221 204
221 221 204
221 221 204
204 221 204
221 204 204
221 204 204
221 204 204
204 204 187
204 204 187
204 204 187
204 204 187
204 187 170
187 187 153
187 187 153
204 204 187
221 221 204
221 221 204
221 221 204
221 221 221
221 221 221
221 221 221
221 221 221
221 221 221
221 221 221
221 221 221
221 221 221
221 238 221
221 221 221
221 221 221
221 221 221
221 221 221
221 221 221
221 221 221
221 221 221
221 221 221
221 221 221
221 221 221
221 221 204
221 221 204
221 221 204
221 221 204
221 221 204
221 221 204
221 221 204
221 221 204
221 221 204
221 221 204
221 221 204
204 204 187
204 204 187
204 204 170
204 187 170
187 187 170
187 187 170
187 187 170
187 187 170
187 187 170
187 187 153
170 170 153
187 187 170
0 0 255
0 0 255
170 187 170
187 187 170
170 187 170
187 187 170
170 170 170
170 170 153
170 170 153
170 170 153
153 153 136
170 170 153
170 170 153
170 153 136
153 153 136
153 153 136
153 153 136
136 136 119
136 119 102
119 119 102
119 119 102
119 119 102
119 102 85
119 102 85
153 136 119
187 187 170
187 187 170
187 187 170
170 170 153
170 170 153
187 187 170
187 187 170
187 187 170
187 187 170
187 187 170
187 187 170
187 187 170
170 170 170
170 170 170
170 170 170
187 187 170
187 187 170
187 187 170
187 187 170
187 187 170
187 187 170
187 187 170
187 187 170
187 187 170
187 187 170
187 187 170
187 187 170
187 187 170
170 170 170
170 170 153
170 170 153
170 153 153
153 136 119
119 119 85
119 102 85
119 102 85
119 119 102
136 136 119
153 136 119
153 153 136
170 153 153
170 170 153
153 153 136
170 170 153
187 187 170
187 187 170
170 170 153
187 187 170
187 187 170
204 204 187
204 204 187
204 204 187
204 204 187
221 221 204
204 204 204
221 221 204
221 221 204
221 221 204
221 221 221
221 238 221
238 238 221
238 238 221
238 238 221
238 238 238
255 255 238
255 255 238
255 255 238
255 255 238
255 255 238
255 255 238
255 255 238
255 255 238
255 255 238
238 238 238
255 255 238
238 255 238
238 238 221
238 238 238
238 255 238
255 255 238
255 255 238
255 255 238
0 0 255
0 0 255
255 255 238
238 255 238
255 255 238
238 255 238
238 255 238
238 255 238
238 255 238
238 255 238
238 255 238
238 255 238
238 255 238
238 255 238
238 255 238
238 255 238
238 238 238
238 238 238
238 238 238
238 255 238
238 238 238
238 238 238
238 238 238
238 238 238
238 238 238
238 238 238
238 238 238
238 238 238
238 238 238
238 238 238
238 238 238
238 238 238
238 238 238
238 238 238
238 238 238
238 238 238
238 238 238
238 238 238
238 238 238
238 238 238
238 238 238
238 238 238
238 238 238
238 238 238
238 238 238
238 238 238
238 238 238
238 238 238
238 238 238
238 238 238
238 238 238
238 238 238
238 238 238
238 238 238
238 238 238
238 238 238
238 238 238
238 238 238
238 238 238
238 238 238
238 238 238
238 238 238
238 238 238
238 238 238
238 238 238
238 238 238
238 238 238
238 238 238
238 238 238
238 238 238
238 238 238
238 238 238
238 238 238
238 238 238
238 238 238
238 238 238
238 238 238
238 238 238
238 238 238
238 238 238
238 238 238
238 238 238
238 238 238
238 238 238
238 238 238
255 0 0
255 0 0
255 0 0
255 0 0
255 0 0
255 0 0
255 0 0
255 0 0
255 0 0
255 0 0
255 0 0
255 0 0
255 0 0
255 0 0
255 0 0
255 0 0
238 255 238
238 255 238
238 255 255
238 255 255
238 255 238
238 255 255
204 204 204
204 204 204
204 204 204
204 221 204
204 221 204
221 221 204
221 221 204
221 221 204
221 221 204
221 221 204
221 221 204
221 221 204
221 221 204
221 221 204
221 221 204
221 221 204
221 221 204
221 221 204
221 221 204
221 221 221
221 221 221
221 221 221
221 221 221
221 221 221
221 221 204
221 221 204
204 221 204
204 204 204
204 204 204
204 204 204
221 221 204
221 221 204
221 221 204
221 221 204
221 221 204
221 221 204
221 221 204
221 221 221
221 221 221
221 221 221
221 221 221
221 221 221
221 221 204
221 221 204
221 221 204
221 221 204
221 221 204
221 221 204
204 221 204
204 204 204
221 204 204
221 204 204
221 204 204
204 204 187
204 204 187
204 204 187
204 204 170
187 187 153
187 187 153
204 204 204
221 221 204
221 221 204
221 221 221
221 221 221
221 221 221
221 221 221
221 221 221
221 238 221
221 221 221
221 238 221
221 238 221
221 238 221
221 238 221
221 238 221
221 221 221
221 221 221
221 221 221
221 221 221
221 221 221
221 221 221
221 221 221
221 221 221
221 221 221
221 221 221
221 221 204
221 221 204
221 221 204
221 221 204
221 221 204
221 221 204
221 221 204
221 221 204
221 204 204
204 204 187
204 204 187
204 204 170
204 187 170
204 187 170
187 187 170
187 187 170
187 187 170
187 187 153
187 170 153
170 170 153
170 170 153
187 187 170
0 0 255
0 0 255
170 170 153
170 187 170
170 187 170
170 170 153
170 170 153
170 170 153
170 170 153
170 153 136
153 153 136
153 153 136
170 170 153
170 170 153
170 153 153
153 153 136
153 153 136
136 136 119
136 136 102
119 119 102
119 119 102
119 119 102
119 102 85
119 119 102
153 153 136
187 187 170
187 187 170
187 187 170
187 170 170
170 170 170
187 187 170
187 187 170
187 187 170
187 187 170
187 187 170
187 187 170
170 170 153
170 170 153
170 170 170
170 170 170
187 187 170
187 187 170
187 187 170
187 187 170
187 187 187
187 187 170
187 187 170
187 187 187
187 187 187
187 204 187
187 187 187
187 187 170
187 187 170
187 187 170
170 170 153
136 136 119
136 136 119
136 119 102
119 102 85
102 102 85
119 102 85
136 119 102
136 136 119
153 136 119
153 153 136
170 170 153
170 153 136
153 153 136
170 170 153
187 187 170
187 170 170
187 170 170
187 187 170
187 187 187
204 204 187
204 204 187
204 204 187
204 204 187
221 221 204
221 221 204
221 221 204
221 221 204
221 221 221
238 238 221
238 238 221
238 238 238
238 238 238
238 238 238
255 255 238
255 255 238
255 255 238
255 255 238
255 255 238
255 255 238
255 255 238
255 255 238
255 255 238
255 255 238
255 255 238
255 255 238
255 255 238
238 255 238
255 255 238
238 255 238
238 255 238
255 255 238
255 255 238
0 0 255
0 0 255
238 255 238
255 255 238
238 255 238
238 255 238
238 255 238
238 255 238
238 255 238
255 255 238
255 255 238
238 255 238
238 255 238
238 238 238
238 255 238
238 255 238
238 238 238
238 238 238
238 238 238
238 238 238
238 238 238
238 238 238
238 238 238
238 238 238
238 238 238
238 238 238
238 238 238
238 238 238
238 238 238
238 238 238
238 238 238
238 238 238
238 238 238
238 238 238
238 238 238
238 238 238
238 238 238
238 238 238
238 238 238
238 238 238
238 238 238
238 238 238
238 238 238
238 238 238
238 238 238
238 238 238
238 238 238
238 238 238
238 238 238
238 238 238
238 238 238
238 238 238
238 238 238
238 238 238
238 238 238
238 238 238
238 238 238
238 238 238
238 238 238
238 238 238
238 238 238
238 238 238
238 238 238
238 238 238
238 238 238
238 238 238
238 238 238
238 238 238
238 238 238
238 238 238
238 238 238
238 238 238
238 238 238
238 238 238
238 238 238
238 238 238
238 238 238
238 238 238
238 238 238
238 238 238
238 238 238
238 238 238
238 238 238
238 238 238
238 238 238
255 0 0
255 0 0
255 0 0
255 0 0
255 0 0
255 0 0
255 0 0
255 0 0
255 0 0
255 0 0
255 0 0
255 0 0
255 0 0
255 0 0
255 0 0
255 0 0
238 255 238
238 255 238
238 255 238
238 255 255
238 255 238
238 255 255
204 204 204
204 204 204
204 204 204
221 221 204
221 221 204
221 221 204
221 221 204
221 221 204
221 221 204
221 221 204
221 221 204
221 221 204
221 221 204
221 221 204
221 221 204
221 221 204
221 221 204
221 221 204
221 221 221
221 221 221
221 221 221
221 221 221
221 221 204
221 221 204
221 221 204
204 204 204
204 204 204
204 204 204
204 221 204
221 221 204
221 221 204
221 221 204
221 221 204
221 221 204
221 221 204
221 221 204
221 221 221
221 221 221
221 221 221
221 221 221
221 221 221
221 221 221
221 221 204
221 221 204
221 221 204
221 221 204
221 221 204
204 221 204
204 221 204
221 204 204
204 204 187
204 204 187
221 204 187
204 204 187
204 204 187
204 204 170
187 187 153
187 187 170
221 204 204
221 221 204
221 221 221
221 221 221
221 221 221
221 221 221
221 221 221
221 221 221
221 221 221
221 238 221
221 238 221
221 238 221
221 238 221
221 238 221
221 238 221
221 238 221
221 221 221
221 221 221
221 238 221
221 221 221
221 221 221
221 221 221
221 221 221
221 221 221
221 221 221
221 221 221
221 221 204
221 221 204
221 221 204
221 221 204
221 221 204
221 221 204
221 221 204
221 221 204
204 204 187
204 204 170
204 204 170
204 187 170
187 187 170
187 187 170
187 187 170
187 187 170
187 170 153
187 170 153
170 170 153
170 170 153
170 170 153
187 187 153
0 0 255
0 0 255
170 170 153
170 170 153
170 170 153
170 170 153
170 170 153
170 170 153
170 170 153
153 153 136
153 153 136
153 153 136
153 153 136
170 153 153
170 170 153
153 153 136
153 153 136
136 136 119
136 136 102
119 119 102
119 119 102
119 119 102
119 119 102
119 119 102
153 153 136
187 187 170
187 187 170
187 187 170
187 187 170
170 170 153
170 187 170
187 187 170
187 187 170
187 187 170
187 187 170
170 170 153
170 170 153
187 170 170
187 187 170
187 187 170
187 187 170
187 187 170
187 187 170
187 187 170
187 187 187
187 187 187
187 187 170
187 187 187
187 204 187
204 204 187
204 204 187
187 187 187
187 187 170
187 187 170
170 170 153
153 136 136
136 136 119
136 136 119
119 119 85
102 102 85
119 102 85
136 119 102
136 136 119
153 136 119
153 153 136
170 170 153
153 153 136
153 153 119
170 170 153
170 170 153
170 170 153
187 170 170
187 187 170
187 187 187
204 187 187
204 204 187
204 204 187
204 204 187
221 221 204
221 221 204
221 221 204
221 221 204
221 221 204
238 238 221
238 238 221
238 238 238
255 255 238
255 255 238
255 255 238
255 255 238
255 255 238
255 255 238
255 255 238
255 255 238
255 255 238
255 255 238
255 255 238
255 255 238
238 255 238
238 255 238
255 255 238
255 255 238
238 255 238
238 255 238
238 238 238
238 255 238
255 255 238
0 0 255
0 0 255
255 255 238
238 255 238
238 255 238
238 255 238
238 255 238
238 255 238
238 255 238
238 255 238
238 255 238
238 238 238
238 238 238
238 238 238
238 238 238
238 238 238
238 238 238
238 238 238
238 238 238
238 238 238
238 238 238
238 238 238
238 238 238
238 238 238
238 238 238
238 238 238
238 238 238
238 238 238
238 238 238
238 238 238
238 238 238
238 238 238
238 238 238
238 238 238
238 238 238
238 238 238
238 238 238
238 238 238
238 238 238
238 238 238
238 238 238
238 238 238
238 238 238
238 238 238
238 238 238
238 238 238
238 238 238
238 238 238
238 238 238
238 238 238
238 238 238
238 238 238
238 238 238
238 238 238
238 238 238
238 238 238
238 238 238
238 238 238
238 238 238
238 238 238
238 238 238
238 238 238
238 238 238
238 238 238
238 238 238
238 238 238
238 238 238
238 238 238
238 238 238
238 238 238
238 238 238
238 238 238
238 238 238
238 238 238
238 238 238
238 238 238
238 238 238
238 238 238
238 238 238
238 238 238
238 238 238
238 238 238
238 238 238
238 238 238
238 238 238
255 0 0
255 0 0
255 0 0
255 0 0
255 0 0
255 0 0
255 0 0
255 0 0
255 0 0
255 0 0
255 0 0
255 0 0
255 0 0
255 0 0
255 0 0
255 0 0
238 255 238
238 255 238
238 255 238
238 255 238
238 255 238
238 255 255
204 204 204
204 204 204
221 221 204
221 221 204
221 221 204
221 221 204
221 221 204
221 221 204
221 221 204
221 221 204
221 221 204
221 221 204
221 221 204
221 221 204
221 221 204
221 221 204
221 221 204
221 221 221
221 221 221
221 221 221
221 221 221
221 221 204
221 221 204
204 221 204
204 204 204
204 204 204
204 204 204
204 221 204
221 221 204
221 221 204
221 221 204
221 221 204
221 221 204
221 221 204
221 221 204
221 221 204
221 221 221
221 221 221
221 221 221
221 221 221
221 221 221
221 221 204
221 221 204
221 221 204
221 221 204
221 221 204
204 204 204
204 204 204
204 204 204
221 204 204
204 204 187
204 204 187
204 204 187
204 204 187
204 204 170
187 187 153
187 187 153
221 221 204
221 221 204
221 221 221
221 221 221
221 221 221
221 221 221
221 221 221
221 221 221
221 221 221
221 221 221
221 238 221
221 238 221
238 238 221
221 238 221
221 238 221
221 238 221
221 238 221
221 221 221
221 221 221
221 238 221
221 221 221
221 221 221
221 221 221
221 221 221
221 221 221
221 221 221
221 221 221
221 221 221
221 221 204
221 221 204
221 221 204
221 221 204
221 221 204
221 221 204
221 221 204
204 204 187
204 204 170
204 187 170
204 187 170
187 187 170
187 187 170
187 187 153
187 187 153
187 170 153
187 187 170
187 187 170
187 170 153
170 170 153
170 170 153
0 0 255
0 0 255
170 170 153
170 170 153
170 170 153
170 170 153
170 170 153
170 170 153
170 170 136
153 153 136
153 153 136
153 153 136
153 153 136
153 153 136
153 153 136
153 153 136
153 136 136
136 136 119
136 136 119
119 119 102
119 119 102
119 119 102
119 119 102
119 119 102
153 153 136
187 187 170
187 187 170
187 187 170
187 187 170
170 170 153
170 187 170
187 187 170
187 187 170
187 187 170
170 170 153
170 170 153
170 170 153
187 187 170
187 187 170
187 187 170
187 187 170
187 187 170
187 187 170
187 187 170
187 187 187
187 204 187
187 187 170
187 187 170
204 204 187
204 204 187
204 204 187
187 204 187
187 187 187
187 187 170
170 170 170
170 170 153
153 153 136
153 136 119
119 119 102
119 102 85
119 102 85
119 119 102
136 136 119
136 136 119
153 153 136
170 170 153
153 153 136
153 153 119
170 170 136
170 170 153
170 170 153
187 170 153
187 187 170
187 187 170
187 187 170
187 187 187
204 204 187
204 204 204
204 204 204
204 204 204
221 221 204
221 221 204
221 221 204
221 221 221
238 238 221
238 238 238
238 238 238
238 238 238
238 255 238
255 255 238
255 255 238
255 255 238
255 255 238
255 255 238
238 255 238
255 255 238
238 255 238
238 255 238
238 255 238
238 255 238
255 255 238
255 255 238
238 255 238
238 255 238
255 255 238
238 255 238
255 255 238
0 0 255
0 0 255
238 255 238
255 255 238
238 255 238
238 255 238
238 255 238
238 255 238
255 255 238
238 255 238
238 255 238
238 238 238
238 238 238
238 238 238
238 238 238
238 238 238
238 238 238
238 238 238
238 238 238
238 238 238
238 238 238
238 238 238
238 238 238
238 238 238
238 238 238
238 238 238
238 238 238
238 238 238
238 238 238
238 238 238
238 238 238
238 238 238
238 238 238
238 238 238
238 238 238
238 238 238
238 238 238
238 238 238
238 238 238
238 238 238
238 238 238
238 238 238
238 238 238
238 238 238
238 238 238
238 238 238
238 238 238
238 238 238
238 238 238
238 238 238
238 238 238
238 238 238
238 238 238
238 238 238
238 238 238
238 238 238
238 238 238
238 238 238
238 238 238
238 238 238
238 238 238
238 238 238
238 238 238
238 238 238
238 238 238
238 238 238
238 238 238
238 238 238
238 238 238
238 238 238
238 238 238
238 238 238
238 238 238
238 238 238
238 238 238
238 238 238
238 238 238
238 238 238
238 238 238
238 238 238
238 238 238
238 238 238
238 238 238
238 238 238
238 238 238
255 0 0
255 0 0
255 0 0
255 0 0
255 0 0
255 0 0
255 0 0
255 0 0
255 0 0
255 0 0
255 0 0
255 0 0
255 0 0
255 0 0
255 0 0
255 0 0
238 255 238
238 255 238
238 255 238
238 238 238
238 255 238
238 255 238
204 204 204
221 221 204
221 221 204
221 221 204
221 221 204
221 221 204
221 221 204
221 221 204
221 221 204
221 221 204
221 221 204
221 221 204
221 221 204
221 221 204
221 221 204
221 221 204
221 221 221
221 221 221
221 221 221
221 221 221
221 221 204
221 221 204
221 221 204
204 204 204
204 204 204
204 204 204
204 221 204
221 221 204
221 221 204
221 221 204
221 221 204
221 221 204
221 221 204
221 221 204
221 221 204
221 221 221
221 221 204
221 221 221
221 221 204
221 221 204
221 221 204
221 221 204
221 221 204
221 221 204
204 221 204
204 204 204
204 221 204
204 204 204
204 204 204
204 204 187
204 204 187
204 204 187
204 204 187
204 204 170
187 187 153
187 187 170
221 221 204
221 221 204
221 221 221
221 221 221
221 221 221
221 221 221
221 221 221
221 221 221
221 221 221
221 221 221
221 221 221
221 238 221
221 238 221
221 238 221
221 238 221
221 238 221
221 238 221
221 221 221
221 221 221
221 238 221
221 238 221
221 221 221
221 221 221
221 221 221
221 221 221
221 221 221
221 221 221
221 221 221
221 221 204
221 221 204
221 221 204
221 221 204
221 221 204
221 221 204
221 221 204
204 204 187
204 204 170
204 187 170
204 204 170
204 187 170
204 187 170
187 187 170
187 187 153
187 170 153
187 170 153
187 170 153
187 187 170
187 187 153
170 170 153
170 170 153
0 0 255
0 0 255
170 170 153
170 153 136
170 170 153
170 170 153
170 170 136
170 170 136
170 170 136
153 153 136
153 153 136
153 153 136
153 153 119
153 136 119
153 153 136
153 153 136
153 136 136
136 136 119
136 136 119
136 119 102
119 119 102
119 119 102
119 119 102
119 119 102
153 153 136
187 187 170
187 187 170
187 170 153
187 187 170
187 187 170
187 187 170
187 187 170
187 187 170
170 170 153
170 153 136
153 153 136
170 170 153
170 170 153
187 187 170
187 187 170
187 187 170
187 204 187
187 187 170
187 187 170
187 187 187
204 204 187
187 187 187
187 187 170
187 187 187
204 204 187
204 204 187
204 204 187
187 187 187
187 187 170
187 187 170
170 170 153
153 153 136
136 119 102
119 102 85
102 102 85
102 102 85
119 102 85
136 119 102
136 136 119
153 153 136
170 153 153
153 153 136
153 153 136
170 153 136
170 153 136
170 170 153
187 170 153
187 187 170
187 187 170
187 187 170
187 187 170
204 204 187
204 204 204
204 204 187
204 204 187
204 204 204
221 221 204
221 221 204
221 221 221
221 221 221
238 238 221
238 238 221
238 238 238
238 238 238
238 238 238
238 238 238
238 238 238
238 238 238
238 238 238
238 255 238
238 255 238
238 255 238
238 255 238
255 255 238
238 255 238
238 255 238
238 255 238
238 255 238
238 238 238
238 238 238
238 255 238
238 255 238
0 0 255
0 0 255
238 255 238
238 255 238
238 255 238
238 255 238
238 238 238
238 238 238
238 238 238
238 238 238
238 238 238
238 238 238
238 238 238
238 238 238
238 238 238
238 238 238
238 238 238
238 238 238
238 238 238
238 238 238
238 238 238
238 238 238
238 238 238
238 238 238
238 238 238
238 238 238
238 238 238
238 238 238
238 238 238
238 238 238
238 238 238
238 238 238
238 238 238
238 238 238
238 238 238
238 238 238
238 238 238
238 238 238
238 238 238
238 238 238
238 238 238
238 238 238
238 238 238
238 238 238
238 238 238
238 238 238
238 238 238
238 238 238
238 238 238
238 238 238
238 238 238
238 238 238
238 238 238
238 238 238
238 238 238
238 238 238
238 238 238
238 238 238
238 238 238
238 238 238
238 238 238
238 238 238
238 238 238
238 238 238
238 238 238
238 238 238
238 238 238
238 238 238
238 238 238
238 238 238
238 238 238
238 238 238
238 238 238
238 238 238
238 238 238
238 238 238
238 238 238
238 238 238
238 238 238
238 238 238
238 238 238
238 238 238
238 238 238
238 238 238
238 238 238
255 0 0
255 0 0
255 0 0
255 0 0
255 0 0
255 0 0
255 0 0
255 0 0
255 0 0
255 0 0
255 0 0
255 0 0
255 0 0
255 0 0
255 0 0
255 0 0
238 238 238
238 238 238
238 255 238
238 238 238
238 255 238
238 255 238
204 204 204
204 221 204
221 221 204
221 221 204
221 221 204
221 221 204
221 221 204
204 221 204
221 221 204
221 221 204
204 221 204
221 221 204
221 221 204
221 221 204
221 221 221
221 221 221
221 221 221
221 221 221
221 221 221
221 221 204
221 221 204
204 221 204
204 204 204
204 204 187
204 204 187
204 204 204
221 221 204
221 221 204
221 221 204
221 221 204
221 221 204
221 221 204
221 221 204
221 221 204
221 221 204
221 221 221
221 221 204
221 221 204
221 221 204
221 221 204
221 221 204
221 221 204
221 221 204
221 221 204
204 204 204
204 204 204
221 204 204
221 204 204
221 204 187
204 204 187
204 204 187
204 204 187
204 204 170
187 187 153
204 187 170
221 221 204
221 221 204
221 221 221
221 221 221
221 221 221
221 221 221
221 221 221
221 238 221
221 221 221
221 221 221
221 221 221
221 221 221
221 221 221
221 221 221
221 221 221
221 221 221
221 221 221
221 238 221
221 221 221
221 221 221
221 238 221
221 221 221
221 238 221
221 221 221
221 221 221
221 221 221
221 221 221
221 221 221
221 221 221
221 221 221
221 221 221
221 221 204
221 221 204
221 221 204
221 221 204
221 221 204
204 204 187
204 187 170
204 187 170
204 187 170
204 187 170
204 187 170
204 187 170
187 187 170
187 187 153
187 170 153
170 170 153
187 170 153
187 187 170
187 187 170
187 187 170
0 0 255
0 0 255
170 170 136
170 153 136
170 170 136
170 170 153
170 153 136
170 170 153
170 170 153
170 153 136
170 153 136
153 153 136
153 153 136
153 153 119
153 153 136
153 153 136
153 153 136
136 136 119
136 136 119
136 119 102
119 119 102
119 119 102
119 119 102
136 119 102
153 153 136
187 170 153
187 187 153
187 170 153
187 187 170
187 187 170
170 170 153
170 170 153
170 170 153
170 153 136
170 153 136
170 170 153
170 170 153
170 170 153
187 187 170
187 187 170
187 187 187
204 204 187
187 187 170
187 187 170
187 187 170
204 204 187
204 204 187
187 187 170
187 187 170
187 187 187
187 204 187
204 204 187
187 187 187
187 187 187
187 187 170
170 170 153
153 153 136
136 119 119
119 102 85
102 102 85
119 102 85
119 102 85
136 119 102
136 136 119
153 153 136
153 153 153
170 153 136
153 153 136
170 170 153
170 170 153
170 170 153
170 170 153
187 187 170
187 187 170
187 187 170
187 187 170
204 204 187
204 204 187
204 204 187
204 204 187
204 204 187
221 221 204
221 221 204
221 221 204
221 221 221
238 238 221
238 238 221
238 238 221
238 238 238
238 238 238
238 238 238
238 238 238
238 238 238
238 238 238
238 238 238
238 238 238
238 238 238
238 238 238
238 255 238
238 255 238
238 255 238
238 255 238
238 238 238
238 238 238
238 238 238
238 238 238
238 255 238
0 0 255
0 0 255
238 255 238
238 238 238
238 255 238
238 255 238
238 255 238
238 238 238
238 238 238
238 238 238
238 238 238
238 238 238
238 238 238
238 238 238
238 238 238
238 238 238
238 238 238
238 238 238
238 238 238
238 238 238
238 238 238
238 238 238
238 238 238
238 238 238
238 238 238
238 238 238
238 238 238
238 238 238
238 238 238
238 238 238
238 238 238
238 238 238
238 238 238
238 238 238
238 238 238
238 238 238
238 238 238
238 238 238
238 238 238
238 238 238
238 238 238
238 238 238
238 238 238
238 238 238
238 238 238
238 238 238
238 238 238
238 238 238
238 238 238
238 238 238
238 238 238
238 238 238
238 238 238
238 238 238
238 238 238
238 238 238
238 238 238
238 238 238
238 238 238
238 238 238
238 238 238
238 238 238
238 238 238
238 238 238
238 238 238
238 238 238
238 238 238
238 238 238
238 238 238
238 238 238
238 238 238
238 238 238
238 238 238
238 238 238
238 238 238
238 238 238
238 238 238
238 238 238
238 238 238
238 238 238
238 238 238
238 238 238
238 238 238
238 238 238
238 238 238
255 0 0
255 0 0
255 0 0
255 0 0
255 0 0
255 0 0
255 0 0
255 0 0
255 0 0
255 0 0
255 0 0
255 0 0
255 0 0
255 0 0
255 0 0
255 0 0
238 238 238
238 238 238
238 238 238
238 238 238
238 238 238
238 238 238
204 221 204
204 221 204
221 221 204
221 221 204
221 221 204
221 221 204
221 221 204
221 221 204
221 221 204
221 221 204
221 221 204
221 221 204
221 221 204
221 221 221
221 221 221
221 221 221
221 221 221
221 221 221
221 221 204
221 221 204
204 221 204
204 204 204
204 204 187
204 204 187
204 221 204
221 221 204
221 221 204
221 221 204
221 221 204
221 221 204
221 221 204
221 221 221
221 221 221
221 221 204
221 221 204
221 221 221
221 221 204
221 221 204
221 221 204
221 221 204
221 221 204
221 221 204
204 204 204
204 204 204
204 204 204
204 204 204
204 204 204
204 204 187
204 204 187
204 204 187
204 204 187
204 204 170
187 187 153
204 187 170
221 221 204
221 221 221
221 221 221
221 221 221
221 221 221
221 221 221
221 221 221
221 238 221
221 221 221
221 221 221
221 221 221
221 221 221
221 221 221
221 221 221
221 221 221
221 221 221
221 238 221
221 238 221
221 238 221
221 221 221
221 221 221
221 221 221
221 221 221
221 221 221
221 221 221
221 221 221
221 221 221
221 221 221
221 221 221
221 221 221
221 221 221
221 221 221
221 221 204
221 221 204
221 221 204
221 204 204
204 204 187
204 204 187
204 187 170
187 187 170
187 187 153
187 187 170
187 187 170
204 187 170
204 187 170
187 187 170
187 170 153
170 170 153
170 170 136
170 170 153
187 187 153
187 187 170
0 0 255
0 0 255
170 170 153
170 170 136
170 170 136
170 170 136
170 153 136
170 170 153
170 170 153
170 170 153
170 170 153
170 153 136
153 153 136
153 153 136
153 153 136
153 153 136
153 136 136
136 136 119
136 136 119
136 136 119
136 119 102
119 119 102
136 119 102
119 119 102
153 136 136
170 170 153
170 170 153
187 170 153
187 187 170
187 170 153
170 170 153
170 170 153
170 153 136
170 170 153
170 170 153
170 170 153
170 170 153
170 170 153
170 170 153
187 187 170
204 204 187
187 187 187
187 187 170
187 187 170
187 187 170
187 204 187
204 204 187
187 187 170
187 187 170
187 187 187
187 187 187
204 204 187
204 204 187
187 187 187
187 187 170
170 170 170
170 153 153
153 136 119
119 119 102
102 102 85
119 102 85
119 102 85
119 119 102
136 119 119
136 136 119
153 153 136
170 153 136
153 153 136
170 170 153
170 170 153
170 170 153
170 170 153
187 170 153
187 187 170
187 187 170
187 187 170
204 204 187
204 204 187
204 204 187
221 204 204
221 204 204
221 204 204
221 221 204
221 221 204
221 221 221
238 238 221
238 238 221
238 238 221
238 238 221
238 238 221
238 238 238
238 238 238
238 238 238
238 238 238
238 238 238
238 238 238
238 238 238
238 238 238
238 255 238
238 255 238
238 255 238
238 238 238
238 238 238
238 255 238
255 255 238
238 238 238
238 238 238
0 0 255
0 0 255
238 255 238
238 238 238
238 255 238
238 255 238
238 238 238
238 238 238
238 238 238
238 238 238
238 238 238
238 238 238
238 238 238
238 238 238
238 238 238
238 238 238
238 238 238
238 238 238
238 238 238
238 238 238
238 238 238
238 238 238
238 238 238
238 238 238
238 238 238
238 238 238
238 238 238
238 238 238
238 238 238
238 238 238
238 238 238
238 238 238
238 238 238
238 238 238
238 238 238
238 238 238
238 238 238
238 238 238
238 238 238
238 238 238
238 238 238
238 238 238
238 238 238
238 238 238
238 238 238
238 238 238
238 238 238
238 238 238
238 238 238
238 238 238
238 238 238
238 238 238
238 238 238
238 238 238
238 238 238
238 238 238
238 238 238
238 238 238
238 238 238
238 238 238
238 238 238
238 238 238
238 238 238
238 238 238
238 238 238
238 238 238
238 238 238
238 238 238
238 238 238
238 238 238
238 238 238
238 238 238
238 238 238
238 238 238
238 238 238
238 238 238
238 238 238
238 238 238
238 238 238
238 238 238
238 238 238
238 238 238
238 238 238
238 238 238
238 238 238
255 0 0
255 0 0
255 0 0
255 0 0
255 0 0
255 0 0
255 0 0
255 0 0
255 0 0
255 0 0
255 0 0
255 0 0
255 0 0
255 0 0
255 0 0
255 0 0
238 238 238
238 238 238
238 238 238
238 238 238
238 238 238
238 238 238
204 221 204
221 221 204
221 221 204
221 221 204
204 221 204
204 221 204
204 221 204
221 221 204
221 221 204
221 221 204
221 221 204
221 221 204
221 221 221
221 221 221
221 221 221
221 221 221
221 221 221
221 221 204
221 221 204
221 221 204
204 204 204
204 204 187
204 204 187
204 204 204
221 221 204
221 221 204
221 221 204
221 221 204
221 221 204
221 221 204
221 221 221
221 221 204
221 221 221
221 221 204
221 221 221
221 221 204
221 221 204
221 221 204
221 221 204
221 221 204
221 221 204
221 221 204
221 204 204
204 204 204
204 204 204
204 204 204
204 204 204
204 204 187
204 204 187
204 204 187
204 204 170
187 187 153
204 187 170
221 221 204
221 221 221
221 221 221
221 221 221
221 221 221
221 221 221
221 221 221
221 238 221
221 238 221
221 238 221
221 221 221
221 221 221
221 238 221
221 221 221
221 221 221
221 221 221
221 221 221
221 221 221
221 238 221
221 221 221
221 221 221
221 221 221
221 221 221
221 221 221
221 221 221
221 221 221
221 221 221
221 221 221
221 221 221
221 221 221
221 221 221
221 221 221
221 221 221
221 221 204
221 221 204
221 221 204
204 204 187
204 204 187
204 187 170
204 187 170
187 187 170
187 170 153
187 170 153
187 170 153
187 170 153
187 187 153
187 187 170
187 187 170
170 170 153
170 153 136
170 170 136
170 170 153
187 187 170
0 0 255
0 0 255
187 170 153
170 170 153
153 153 136
170 153 136
170 153 136
170 170 153
170 170 153
170 170 153
170 170 153
170 153 136
153 153 136
153 153 136
153 153 136
153 153 136
153 136 136
136 136 119
136 136 119
136 136 119
136 119 102
119 119 102
119 119 102
119 119 102
136 136 119
170 153 136
170 170 153
170 170 153
187 187 170
187 170 153
170 170 136
170 153 136
170 170 153
187 187 153
170 170 153
170 170 153
170 170 153
170 170 153
187 187 170
187 187 170
187 187 187
204 204 187
187 187 170
187 187 170
187 187 170
187 204 187
204 204 187
187 187 170
187 187 170
187 187 170
187 187 187
204 204 187
204 204 187
187 204 187
187 187 170
187 187 170
170 170 153
153 136 119
119 119 102
102 102 85
102 102 85
119 102 85
119 119 102
136 136 119
153 136 119
153 153 136
153 153 136
153 153 136
170 170 136
170 170 153
170 170 153
170 170 153
187 170 153
187 187 170
187 187 170
204 187 187
204 204 187
204 204 187
204 204 187
221 204 204
221 204 204
221 204 204
221 221 204
221 221 204
221 221 204
238 238 221
238 238 221
238 238 221
238 238 221
238 238 221
238 238 221
238 238 238
238 238 238
238 238 238
238 255 238
238 255 238
255 255 238
255 255 238
255 255 238
238 255 238
255 255 238
238 255 238
238 238 238
238 238 238
238 238 238
238 238 238
238 238 238
0 0 255
0 0 255
238 238 238
238 238 238
238 238 238
238 238 238
238 238 238
238 238 238
238 238 238
238 238 238
238 238 238
238 238 238
238 238 238
238 238 238
238 238 238
238 238 238
238 238 238
238 238 238
238 238 238
238 238 238
238 238 238
238 238 238
238 238 238
238 238 238
238 238 238
238 238 238
238 238 238
238 238 238
238 238 238
238 238 238
238 238 238
238 238 238
238 238 238
238 238 238
238 238 238
238 238 238
238 238 238
238 238 238
238 238 238
238 238 238
238 238 238
238 238 238
238 238 238
238 238 238
238 238 238
238 238 238
238 238 238
238 238 238
238 238 238
238 238 238
238 238 238
238 238 238
238 238 238
238 238 238
238 238 238
238 238 238
238 238 238
238 238 238
238 238 238
238 238 238
238 238 238
238 238 238
238 238 238
238 238 238
238 238 238
238 238 238
238 238 238
238 238 238
238 238 238
238 238 238
238 238 238
238 238 238
238 238 238
238 238 238
238 238 238
238 238 238
238 238 238
238 238 238
238 238 238
238 238 238
238 238 238
238 238 238
238 238 238
238 238 238
238 238 238
255 0 0
255 0 0
255 0 0
255 0 0
255 0 0
255 0 0
255 0 0
255 0 0
255 0 0
255 0 0
255 0 0
255 0 0
255 0 0
255 0 0
255 0 0
255 0 0
238 238 238
238 238 238
238 238 238
238 238 238
238 238 238
238 238 238
204 204 204
204 204 204
204 204 204
204 221 204
204 221 204
204 221 204
221 221 204
221 221 204
221 221 204
221 221 204
221 221 204
221 221 204
221 221 221
221 221 221
221 221 221
221 221 221
221 221 204
221 221 204
204 204 204
204 204 187
204 204 187
204 204 187
204 204 204
221 221 204
221 221 204
221 221 204
221 221 204
221 221 204
221 221 204
221 221 221
221 221 221
221 221 221
221 221 221
221 221 221
221 221 204
221 221 204
221 221 204
221 221 204
221 221 204
221 221 204
204 204 204
204 204 204
204 204 204
204 204 204
221 204 204
204 204 204
204 204 187
204 204 187
204 204 187
204 204 170
187 187 170
204 204 187
221 221 204
221 221 221
221 221 221
221 221 221
221 221 221
221 238 221
221 238 221
221 221 221
221 221 221
221 221 221
221 221 221
221 221 221
221 238 221
221 238 221
221 238 221
221 238 221
221 221 221
221 221 221
221 238 221
221 221 221
221 238 221
221 221 221
221 238 221
221 221 221
221 221 221
221 238 221
221 221 221
221 221 221
221 221 221
221 221 221
221 221 221
221 221 221
221 221 204
221 221 204
221 221 204
221 221 204
221 204 204
204 204 187
204 204 187
204 187 170
187 187 170
187 187 170
187 170 153
187 170 153
187 170 153
170 170 153
170 170 153
187 170 153
187 187 170
187 187 153
170 170 153
170 170 136
170 153 136
170 170 153
0 0 255
0 0 255
170 170 153
170 153 136
153 153 136
170 153 136
170 153 136
170 170 153
170 170 170
170 170 153
170 170 153
153 153 136
153 153 119
153 136 119
136 136 119
153 153 136
153 136 136
136 136 119
136 136 119
136 136 119
119 119 102
119 119 102
119 119 102
119 119 102
119 119 102
136 136 119
170 153 136
170 170 136
187 170 153
187 187 153
170 170 153
170 170 136
170 170 153
170 170 153
170 170 153
187 170 153
187 187 170
187 187 170
187 187 170
187 187 170
187 187 187
187 187 187
187 187 187
187 187 170
187 187 170
187 204 187
187 187 187
187 187 170
187 187 170
187 187 170
204 204 187
204 204 187
204 204 187
187 187 187
187 187 170
170 170 153
170 153 153
136 119 119
119 102 85
102 102 85
102 102 85
119 119 102
136 119 119
153 136 119
153 153 136
153 153 136
153 153 136
153 136 136
153 153 136
170 170 153
170 170 153
170 170 153
187 170 153
187 187 170
187 187 170
204 187 187
204 204 187
204 204 187
204 187 170
204 204 187
204 204 187
221 204 187
221 204 204
221 221 204
221 221 204
221 221 221
238 238 221
238 238 221
238 238 238
238 238 238
238 238 238
238 238 238
238 238 238
238 238 238
238 238 238
238 238 238
238 255 238
255 255 238
255 255 238
255 255 238
255 255 238
255 255 238
255 255 238
238 255 238
238 238 238
255 255 238
238 255 238
0 0 255
0 0 255
238 238 238
238 238 238
238 238 238
238 238 238
238 238 238
238 238 238
238 238 238
238 238 238
238 238 238
238 238 238
238 238 238
238 238 238
238 238 238
238 238 238
238 238 238
238 238 238
238 238 238
238 238 238
238 238 238
238 238 238
238 238 238
238 238 238
238 238 238
238 238 238
238 238 238
238 238 238
238 238 238
238 238 238
238 238 238
238 238 238
238 238 238
238 238 238
238 238 238
238 238 238
238 238 238
238 238 238
238 238 238
238 238 238
238 238 238
238 238 238
238 238 238
238 238 238
238 238 238
238 238 238
238 238 238
238 238 238
238 238 238
238 238 238
238 238 238
238 238 238
238 238 238
238 238 238
238 238 238
238 238 238
238 238 238
238 238 238
238 238 238
238 238 238
238 238 238
238 238 238
238 238 238
238 238 238
238 238 238
238 238 238
238 238 238
238 238 238
238 238 238
238 238 238
238 238 238
238 238 238
238 238 238
238 238 238
238 238 238
238 238 238
238 238 238
238 238 238
238 238 238
238 238 238
238 238 238
238 238 238
238 238 238
238 238 238
238 238 238
255 0 0
255 0 0
255 0 0
255 0 0
255 0 0
255 0 0
255 0 0
255 0 0
255 0 0
255 0 0
255 0 0
255 0 0
255 0 0
255 0 0
255 0 0
255 0 0
238 238 238
238 238 238
238 238 238
238 238 238
238 238 238
238 238 238
204 204 204
204 204 204
204 204 204
204 204 204
204 221 204
221 221 204
221 221 204
221 221 204
221 221 204
221 221 204
221 221 204
221 221 221
221 221 221
221 221 221
221 221 204
221 221 204
221 221 204
204 204 204
204 204 187
204 204 187
204 204 187
204 204 204
221 221 204
221 221 204
221 221 204
221 221 204
221 221 204
221 221 204
221 221 221
221 221 221
221 221 221
221 221 221
221 221 221
221 221 204
221 221 204
221 221 204
221 221 204
221 221 204
204 221 204
204 204 204
204 204 204
221 204 204
204 204 204
204 204 187
204 204 187
204 204 187
204 204 187
204 204 170
204 204 170
204 187 170
204 204 187
221 221 204
221 221 221
221 221 221
221 221 221
221 221 221
221 221 221
221 221 221
221 221 221
238 221 221
221 221 221
221 221 221
221 221 221
221 221 221
221 221 221
221 221 221
221 221 221
221 221 221
221 221 221
221 221 221
221 221 221
221 221 221
221 221 221
221 221 221
221 221 221
221 221 221
221 221 221
221 221 221
221 221 221
221 221 221
221 221 221
221 221 221
221 221 221
221 221 221
221 221 204
221 221 221
221 221 204
221 221 204
204 204 204
204 204 187
204 204 187
187 187 170
187 187 170
187 187 170
187 187 153
187 187 170
187 170 153
170 170 153
170 170 136
170 170 153
187 170 153
187 187 153
187 187 170
170 170 153
170 170 136
170 170 136
0 0 255
0 0 255
170 170 136
170 153 136
170 153 136
170 153 136
170 170 136
170 170 153
187 187 170
170 170 153
170 170 153
153 153 136
136 136 119
136 136 102
136 119 102
136 136 119
136 136 119
136 136 119
136 136 119
136 136 119
119 119 102
119 119 102
119 119 102
119 119 102
119 102 85
119 119 102
136 136 119
170 153 136
187 170 153
187 187 153
170 170 153
170 170 136
170 170 136
170 170 153
187 187 170
170 170 153
187 187 170
187 187 170
187 187 170
187 187 170
187 187 170
187 204 187
187 187 187
187 187 170
187 187 170
187 187 170
187 187 170
187 187 170
187 187 170
187 187 187
204 204 187
204 204 187
204 204 187
187 187 187
187 187 170
170 170 153
153 153 136
136 119 102
119 102 85
102 102 85
102 102 85
119 119 102
136 136 119
153 153 136
153 153 136
153 136 119
153 153 136
153 153 136
153 153 136
170 170 153
170 170 153
170 170 153
170 170 153
187 187 170
204 187 170
204 204 187
204 204 187
204 204 187
204 204 187
204 204 187
204 204 187
204 204 187
204 204 187
221 204 187
221 221 204
221 221 221
238 238 221
238 238 221
238 238 221
238 238 221
238 238 221
238 238 221
238 238 221
238 238 221
238 238 221
238 238 221
238 238 238
238 238 238
238 238 238
238 238 238
238 255 238
255 255 238
255 255 238
255 255 238
255 255 238
255 255 238
238 255 238
0 0 255
0 0 255
238 238 238
238 238 238
238 238 238
238 238 238
238 238 238
238 238 238
238 238 238
238 238 238
238 238 238
238 238 238
238 238 238
238 238 238
238 238 238
238 238 238
238 238 238
238 238 238
238 238 238
238 238 238
238 238 238
238 238 238
238 238 238
238 238 238
238 238 238
238 238 238
238 238 238
238 238 238
238 238 238
238 238 238
238 238 238
238 238 238
238 238 238
238 238 238
238 238 238
238 238 238
238 238 238
238 238 238
238 238 238
238 238 238
238 238 238
238 238 238
238 238 238
238 238 238
238 238 238
238 238 238
238 238 238
238 238 238
238 238 238
238 238 238
238 238 238
238 238 238
238 238 238
238 238 238
238 238 238
238 238 238
238 238 238
238 238 238
238 238 238
238 238 238
238 238 238
238 238 238
238 238 238
238 238 238
238 238 238
238 238 238
238 238 238
238 238 238
238 238 238
238 238 238
238 238 238
238 238 238
238 238 238
238 238 238
238 238 238
238 238 238
238 238 238
238 238 238
238 238 238
238 238 238
238 238 238
238 238 238
238 238 238
238 238 238
238 238 238
255 0 0
255 0 0
255 0 0
255 0 0
255 0 0
255 0 0
255 0 0
255 0 0
255 0 0
255 0 0
255 0 0
255 0 0
255 0 0
255 0 0
255 0 0
255 0 0
238 238 238
238 238 238
238 238 238
238 238 238
238 238 238
238 238 238
204 204 187
204 204 204
204 204 204
204 221 204
221 221 204
221 221 204
221 221 204
221 221 204
221 221 204
221 221 204
221 221 204
221 221 221
221 221 221
221 221 204
221 221 204
204 221 204
204 204 187
204 204 187
204 204 187
204 204 187
204 204 204
221 221 204
221 221 204
221 221 204
221 221 204
221 221 204
221 221 204
221 221 204
221 221 221
221 221 221
221 221 221
221 221 221
221 221 204
221 221 204
221 221 204
221 221 204
221 221 204
204 204 204
204 204 204
204 204 204
204 204 204
204 204 204
204 204 187
204 204 187
204 204 187
204 204 187
204 204 170
204 204 170
204 187 170
204 204 187
221 221 204
221 221 204
221 221 221
221 221 221
221 221 221
221 221 221
221 221 221
221 221 221
221 221 221
221 221 221
221 221 221
221 238 221
221 221 221
221 221 221
221 221 221
221 221 221
221 221 221
221 221 221
221 221 221
221 221 221
221 221 221
221 221 221
221 221 221
221 221 221
221 221 221
221 221 221
221 221 221
221 221 221
221 221 221
221 221 221
221 221 221
221 221 221
221 221 221
221 221 221
221 221 221
221 221 221
221 221 204
221 221 204
204 204 204
204 204 187
204 204 187
187 187 170
187 187 170
187 187 170
187 187 170
187 187 170
187 170 153
170 170 136
170 153 136
170 170 136
187 170 153
187 187 170
187 187 170
187 170 153
170 170 153
170 170 153
0 0 255
0 0 255
170 153 136
153 153 136
153 153 136
170 170 153
170 170 153
170 170 153
170 187 170
170 170 153
170 170 153
153 153 136
136 136 102
119 119 102
119 102 85
119 119 85
119 119 102
136 119 102
136 136 102
136 136 119
136 119 102
119 102 102
102 102 85
102 102 85
119 102 85
102 102 85
119 119 102
153 153 136
187 170 153
187 170 153
170 170 153
170 170 153
187 170 153
187 187 170
187 170 153
170 170 153
187 170 170
187 187 170
187 187 170
187 187 170
187 187 170
204 204 187
187 187 187
187 187 170
187 187 170
187 187 170
187 187 170
187 187 170
187 187 170
204 204 187
204 204 187
204 204 187
204 204 187
187 187 187
170 170 170
170 170 153
153 153 136
136 119 119
119 119 102
119 102 85
102 102 85
119 119 102
136 136 119
153 136 136
153 136 119
153 136 119
153 153 136
153 153 136
153 136 119
170 153 136
170 170 153
170 170 153
170 170 153
187 187 170
187 187 170
204 187 170
204 204 187
204 187 170
204 187 170
204 204 187
204 204 187
204 204 187
204 204 187
204 204 187
221 204 187
221 221 204
221 221 221
238 238 221
238 238 221
238 238 221
238 238 221
238 238 221
238 238 221
238 238 221
238 238 221
238 238 221
238 238 221
238 238 221
238 238 221
238 238 221
238 238 238
238 238 238
238 238 238
255 255 238
255 255 238
255 255 238
255 255 238
0 0 255
0 0 255
238 255 238
238 238 238
238 238 238
238 238 238
238 238 238
238 238 238
238 238 238
238 238 238
238 238 238
238 238 238
238 238 238
238 238 238
238 238 238
238 238 238
238 238 238
238 238 238
238 238 238
238 238 238
238 238 238
238 238 238
238 238 238
238 238 238
238 238 238
238 238 238
238 238 238
238 238 238
238 238 238
238 238 238
238 238 238
238 238 238
238 238 238
238 238 238
238 238 238
238 238 238
238 238 238
238 238 238
238 238 238
238 238 238
238 238 238
238 238 238
238 238 238
238 238 238
238 238 238
238 238 238
238 238 238
238 238 238
238 238 238
238 238 238
238 238 238
238 238 238
238 238 238
238 238 238
238 238 238
238 238 238
238 238 238
238 238 238
238 238 238
238 238 238
238 238 238
238 238 238
238 238 238
238 238 238
238 238 238
238 238 238
238 238 238
238 238 238
238 238 238
238 238 238
238 238 238
238 238 238
238 238 238
238 238 238
238 238 238
238 238 238
238 238 238
238 238 238
238 238 238
238 238 238
238 238 238
238 238 238
238 238 238
238 238 238
238 238 238
255 0 0
255 0 0
255 0 0
255 0 0
255 0 0
255 0 0
255 0 0
255 0 0
255 0 0
255 0 0
255 0 0
255 0 0
255 0 0
255 0 0
255 0 0
255 0 0
238 238 238
238 238 238
238 238 238
238 238 238
238 238 238
238 238 238
204 204 187
204 204 204
204 204 204
204 221 204
221 221 204
221 221 204
221 221 204
221 221 204
221 221 204
221 221 204
221 221 204
221 221 204
221 221 204
221 221 204
204 204 204
204 204 187
204 204 187
204 204 187
204 204 204
204 221 204
221 221 204
221 221 204
221 221 204
221 221 204
221 221 204
221 221 204
221 221 204
221 221 221
221 221 221
221 221 221
221 221 221
221 221 221
221 221 204
221 221 204
221 221 204
221 221 204
204 221 204
204 204 204
204 204 204
204 204 187
221 204 204
204 204 187
204 204 187
204 204 187
204 204 187
204 204 187
204 187 170
187 187 170
204 204 187
221 221 204
221 221 221
221 221 221
221 221 221
221 221 221
221 221 221
221 221 221
221 221 221
221 221 221
221 221 221
221 221 221
221 221 221
221 221 221
221 221 221
221 221 221
221 221 221
221 221 221
221 221 221
221 221 221
221 221 221
221 221 221
221 221 221
221 221 221
221 221 221
221 221 221
221 221 221
221 221 221
221 221 221
221 221 221
221 221 221
221 221 221
221 221 221
221 221 221
221 221 221
221 221 221
221 221 221
221 221 221
221 221 204
221 221 204
204 221 204
204 204 187
204 204 187
204 187 187
187 187 170
187 187 170
187 187 153
170 170 153
170 170 153
170 170 136
170 153 136
170 153 136
170 170 153
170 170 153
170 170 136
170 170 136
170 170 136
170 170 153
0 0 255
0 0 255
153 153 119
153 136 119
170 153 136
170 170 153
170 170 153
170 170 153
170 170 153
170 170 153
170 153 153
153 153 136
136 136 102
119 119 102
119 102 85
102 102 85
119 102 85
119 119 85
119 119 85
119 119 102
119 119 102
119 119 102
102 102 85
102 102 85
102 102 85
102 102 85
136 136 119
170 170 153
187 187 170
187 187 153
187 187 170
187 187 170
187 187 170
187 187 170
170 170 153
170 170 153
170 170 153
187 187 170
187 187 187
187 187 170
187 187 170
204 204 187
187 187 187
187 187 170
187 187 170
187 187 187
187 187 170
187 187 170
187 187 170
204 204 187
204 204 187
204 204 187
204 204 187
187 187 187
170 170 170
153 153 153
153 136 136
136 136 119
136 119 102
119 119 102
102 102 85
119 119 102
136 136 119
136 136 119
153 136 119
153 136 136
153 136 136
153 153 136
153 136 119
153 153 136
170 153 136
170 170 153
170 170 153
187 170 153
187 187 170
187 187 170
204 187 170
187 187 170
187 187 153
204 187 170
204 204 170
204 204 187
204 204 187
204 204 187
221 221 204
221 221 204
221 221 221
238 238 221
238 238 221
238 238 221
238 238 221
238 238 221
238 238 221
238 238 221
238 238 221
238 238 221
238 238 221
221 221 221
221 238 221
221 238 221
221 238 221
238 238 221
238 238 221
238 238 238
238 238 238
238 238 238
238 255 238
0 0 255
0 0 255
238 255 238
238 238 238
238 238 238
238 238 238
238 238 238
238 238 238
238 238 238
238 238 238
238 238 238
238 238 238
238 238 238
238 238 238
238 238 238
238 238 238
238 238 238
238 238 238
238 238 238
238 238 238
238 238 238
238 238 238
238 238 238
238 238 238
238 238 238
238 238 238
238 238 238
238 238 238
238 238 238
238 238 238
238 238 238
238 238 238
238 238 238
238 238 238
238 238 238
238 238 238
238 238 238
238 238 238
238 238 238
238 238 238
238 238 238
238 238 238
238 238 238
238 238 238
238 238 238
238 238 238
238 238 238
238 238 238
238 238 238
238 238 238
238 238 238
238 238 238
238 238 238
238 238 238
238 238 238
238 238 238
238 238 238
238 238 238
238 238 238
238 238 238
238 238 238
238 238 238
238 238 238
238 238 238
238 238 238
238 238 238
238 238 238
238 238 238
238 238 238
238 238 238
238 238 238
238 238 238
238 238 238
238 238 238
238 238 238
238 238 238
238 238 238
238 238 238
238 238 238
238 238 238
238 238 238
238 238 238
238 238 238
238 238 238
238 238 238
255 0 0
255 0 0
255 0 0
255 0 0
255 0 0
255 0 0
255 0 0
255 0 0
255 0 0
255 0 0
255 0 0
255 0 0
255 0 0
255 0 0
255 0 0
255 0 0
238 238 238
238 238 238
238 238 238
238 238 238
238 238 238
238 238 238
187 204 187
204 204 187
204 204 204
204 221 204
204 204 204
204 221 204
204 221 204
221 221 204
221 221 204
221 221 204
221 221 204
221 221 204
204 221 204
204 204 204
204 204 187
204 204 187
204 204 204
204 204 204
221 221 204
221 221 204
221 221 204
221 221 204
221 221 204
221 221 204
221 221 204
221 221 204
221 221 221
221 221 221
221 221 221
221 221 221
221 221 204
221 221 204
221 221 204
221 221 204
221 221 204
204 204 204
204 204 204
204 204 204
204 204 204
204 204 204
204 204 187
204 204 187
204 204 187
204 204 187
204 204 187
204 204 170
187 187 170
204 204 187
221 221 204
221 221 221
221 221 221
221 221 221
221 221 221
221 221 221
221 221 221
221 221 221
221 221 221
221 221 221
221 221 221
221 221 221
221 221 221
221 221 221
221 221 221
221 221 221
221 221 221
221 221 221
221 221 221
221 221 221
221 221 221
221 221 221
221 221 221
221 221 221
221 221 221
221 221 221
221 221 221
221 221 221
221 221 221
221 221 221
221 221 221
221 221 221
221 221 221
221 221 221
221 221 221
221 221 221
221 221 221
221 221 221
221 221 204
221 221 204
221 221 204
204 204 204
204 204 187
204 204 187
187 187 170
187 187 170
187 187 170
187 170 153
170 170 153
170 170 153
170 170 136
170 153 136
170 153 136
170 153 136
170 153 136
170 170 136
170 170 153
187 170 153
0 0 255
0 0 255
153 153 119
153 136 119
170 153 136
170 170 153
170 153 136
153 153 136
153 153 136
153 153 136
153 153 136
136 136 119
136 136 102
136 119 102
119 119 102
102 102 85
119 102 85
119 102 85
119 102 85
119 102 85
119 119 102
119 119 102
102 102 85
102 102 85
102 102 85
102 102 85
136 136 119
170 170 153
187 187 170
187 187 170
204 187 170
187 187 170
187 187 170
170 170 153
170 170 153
170 170 153
170 170 153
187 187 170
187 187 187
187 187 170
187 187 170
204 204 187
204 204 187
187 187 170
187 187 170
187 187 187
187 187 170
187 187 170
187 187 170
187 187 187
204 204 187
204 204 187
204 204 187
187 187 187
187 187 170
153 153 153
153 136 136
136 136 119
136 119 102
119 119 102
102 102 85
119 119 85
136 119 102
136 136 119
153 136 119
153 136 136
153 136 136
153 153 136
153 136 136
153 136 119
170 153 136
170 153 136
170 170 136
170 170 153
187 170 153
187 187 170
187 187 170
187 187 170
187 187 170
187 187 170
204 187 170
204 204 170
204 204 187
204 204 187
221 221 204
221 221 221
238 238 221
238 238 221
238 238 221
238 238 221
238 238 221
238 238 221
238 238 238
238 238 238
238 238 238
238 238 238
238 238 221
238 238 221
238 238 221
221 238 221
221 221 221
221 221 221
221 221 221
238 238 221
238 238 221
238 238 221
238 238 238
0 0 255
0 0 255
238 238 238
238 238 238
238 238 238
238 238 238
238 238 238
238 238 238
238 238 238
238 238 238
238 238 238
238 238 238
238 238 238
238 238 238
238 238 238
238 238 238
238 238 238
238 238 238
238 238 238
238 238 238
238 238 238
238 238 238
238 238 238
238 238 238
238 238 238
238 238 238
238 238 238
238 238 238
238 238 238
238 238 238
238 238 238
238 238 238
238 238 238
238 238 238
238 238 238
238 238 238
238 238 238
238 238 238
238 238 238
238 238 238
238 238 238
238 238 238
238 238 238
238 238 238
238 238 238
238 238 238
238 238 238
238 238 238
238 238 238
238 238 238
238 238 238
238 238 238
238 238 238
238 238 238
238 238 238
238 238 238
238 238 238
238 238 238
238 238 238
238 238 238
238 238 238
238 238 238
238 238 238
238 238 238
238 238 238
238 238 238
238 238 238
238 238 238
238 238 238
238 238 238
238 238 238
238 238 238
238 238 238
238 238 238
238 238 238
238 238 238
238 238 238
238 238 238
238 238 238
238 238 238
238 238 238
238 238 238
238 238 238
238 238 238
238 238 238
255 0 0
255 0 0
255 0 0
255 0 0
255 0 0
255 0 0
255 0 0
255 0 0
255 0 0
255 0 0
255 0 0
255 0 0
255 0 0
255 0 0
255 0 0
255 0 0
238 238 238
238 238 238
238 238 238
238 238 238
238 238 238
238 238 238
187 187 170
204 204 187
204 204 187
204 204 204
204 204 204
204 204 204
204 204 204
221 221 204
221 221 204
221 221 204
221 221 204
204 221 204
204 204 204
204 204 187
204 204 187
204 204 204
204 204 204
221 221 204
221 221 204
221 221 204
221 221 204
221 221 204
221 221 204
221 221 204
221 221 204
221 221 204
221 221 204
221 221 221
221 221 221
221 221 221
221 221 204
221 221 204
221 221 204
221 221 204
221 221 204
221 204 204
221 204 204
221 204 204
204 204 204
204 204 187
204 204 187
204 204 187
204 204 187
204 204 170
204 187 170
187 187 170
204 204 187
221 221 204
221 221 221
221 221 221
221 221 221
221 221 221
221 221 221
221 221 221
221 221 221
221 221 221
221 221 221
221 221 221
221 221 221
221 221 221
221 221 221
221 221 221
221 221 221
221 221 221
221 221 221
221 238 221
221 221 221
221 221 221
221 221 221
221 221 221
221 221 221
221 221 221
221 221 221
221 221 221
221 221 221
221 221 221
221 221 221
221 221 221
221 221 221
221 221 221
221 221 221
221 221 221
221 221 221
221 221 221
221 221 221
221 221 204
221 221 204
221 221 204
221 221 204
221 221 204
204 204 204
204 204 187
204 204 187
187 204 187
187 187 170
187 187 170
187 187 153
170 170 153
170 170 153
170 170 136
170 170 136
170 170 136
170 170 153
170 170 136
170 170 136
170 170 153
0 0 255
0 0 255
170 170 153
153 153 136
153 153 136
170 153 136
153 153 136
153 136 119
136 136 119
136 136 119
153 136 119
136 136 119
136 136 102
136 136 102
119 119 102
119 102 85
119 119 102
119 119 102
119 119 85
119 102 85
119 119 85
119 119 102
119 102 85
102 102 85
102 102 85
102 102 85
136 136 119
187 170 153
187 187 170
204 187 170
204 187 170
187 187 170
187 170 153
170 170 153
170 170 153
170 170 153
170 170 153
187 187 170
187 187 187
187 187 170
187 187 170
187 187 170
204 204 187
187 187 187
187 187 170
187 187 187
187 187 187
187 187 170
187 187 170
187 187 170
204 204 187
204 204 187
204 204 187
187 187 187
187 187 170
170 170 153
153 153 136
136 119 102
119 119 102
119 102 85
102 102 85
119 119 102
119 119 102
136 136 119
136 136 119
153 153 136
153 153 136
153 153 136
153 153 136
153 136 119
153 153 136
170 153 136
170 153 136
170 153 136
170 170 153
187 170 153
187 187 170
187 187 170
204 187 170
187 187 170
187 187 170
204 187 170
204 204 170
204 204 170
204 204 187
221 221 221
238 238 221
238 238 221
238 238 221
238 238 221
238 238 238
238 238 238
238 238 238
238 238 238
238 238 238
238 238 238
238 238 238
238 238 238
238 238 238
238 238 221
238 238 221
238 238 221
221 238 221
221 238 221
221 238 221
221 221 221
238 238 221
0 0 255
0 0 255
238 238 238
238 238 238
238 238 238
238 238 238
238 238 238
238 238 238
238 238 238
238 238 238
238 238 238
238 238 238
238 238 238
238 238 238
238 238 238
238 238 238
238 238 238
238 238 238
238 238 238
238 238 238
238 238 238
238 238 238
238 238 238
238 238 238
238 238 238
238 238 238
238 238 238
238 238 238
238 238 238
238 238 238
238 238 238
238 238 238
238 238 238
238 238 238
238 238 238
238 238 238
238 238 238
238 238 238
238 238 238
238 238 238
238 238 238
238 238 238
238 238 238
238 238 238
238 238 238
238 238 238
238 238 238
238 238 238
238 238 238
238 238 238
238 238 238
238 238 238
238 238 238
238 238 238
238 238 238
238 238 238
238 238 238
238 238 238
238 238 238
238 238 238
238 238 238
238 238 238
238 238 238
238 238 238
238 238 238
238 238 238
238 238 238
238 238 238
238 238 238
238 238 238
238 238 238
238 238 238
238 238 238
238 238 238
238 238 238
238 238 238
238 238 238
238 238 238
238 238 238
238 238 238
238 238 238
238 238 238
238 238 238
238 238 238
238 238 238
255 0 0
255 0 0
255 0 0
255 0 0
255 0 0
255 0 0
255 0 0
255 0 0
255 0 0
255 0 0
255 0 0
255 0 0
255 0 0
255 0 0
255 0 0
255 0 0
238 238 238
238 238 238
238 238 238
238 238 238
238 238 238
238 238 238
170 187 170
187 187 187
204 204 187
204 204 204
204 204 204
204 204 204
221 221 204
221 221 204
221 221 204
221 221 204
221 221 204
204 204 204
204 204 204
204 204 204
204 204 204
204 221 204
221 221 204
221 221 204
221 221 204
221 221 204
221 221 204
221 221 204
221 221 204
221 221 204
221 221 204
221 221 221
221 221 221
221 221 221
221 221 221
221 221 204
221 221 204
221 221 204
221 221 204
221 204 204
221 204 204
221 204 204
221 204 204
204 204 204
204 204 187
204 204 187
204 204 187
204 204 187
204 204 170
204 187 170
187 187 170
204 204 187
221 221 204
221 221 221
221 221 221
221 221 221
221 221 221
221 221 221
221 221 221
221 221 221
221 221 221
221 221 221
221 221 221
221 221 221
221 221 221
221 221 221
221 221 221
221 221 221
221 221 221
221 221 221
221 221 221
221 221 221
221 221 221
221 221 221
221 221 221
221 221 221
221 221 221
221 221 221
221 221 221
221 221 221
221 221 221
221 221 221
221 221 221
221 221 221
221 221 221
221 221 221
221 221 221
221 221 221
221 221 221
221 221 221
221 221 221
221 221 204
221 221 204
221 221 204
221 221 204
221 221 204
204 204 204
204 204 187
204 204 187
204 204 187
187 187 170
187 187 170
187 187 170
170 170 153
170 170 153
170 170 153
170 170 153
170 170 153
170 170 153
187 170 153
170 170 153
170 170 153
0 0 255
0 0 255
170 170 153
153 153 136
153 136 119
153 153 136
153 136 119
136 136 102
136 136 119
153 136 119
153 136 119
136 136 119
136 136 102
136 136 119
119 119 102
136 119 102
136 119 102
119 119 102
119 119 85
119 102 85
119 102 85
119 102 85
102 102 85
102 102 85
102 102 85
119 102 85
136 136 119
170 153 136
187 187 170
204 204 170
187 187 170
187 187 170
187 187 170
187 187 153
170 170 153
170 170 153
187 170 153
187 187 170
187 187 170
187 187 170
187 187 170
187 187 170
187 187 170
187 187 170
187 187 170
187 187 187
204 204 187
187 187 170
187 187 170
187 187 170
204 204 187
187 204 187
187 187 187
187 187 187
187 187 170
170 170 153
153 136 136
119 119 102
119 102 85
102 102 85
102 102 85
119 119 102
136 119 102
136 136 119
136 136 119
153 153 136
153 153 136
153 153 136
153 153 136
153 153 136
153 153 136
170 170 153
170 170 153
170 170 136
170 170 153
170 170 153
170 170 153
170 170 153
187 187 170
187 187 170
187 187 170
187 187 170
204 187 170
204 187 170
204 204 187
221 221 204
238 238 221
238 238 221
238 238 221
238 238 221
238 238 221
238 238 221
238 238 221
238 238 221
238 238 238
238 238 238
238 238 238
238 255 238
255 255 238
238 238 238
238 238 238
238 238 238
238 238 238
238 238 221
238 238 221
238 238 221
238 238 221
0 0 255
0 0 255
238 238 238
238 238 238
238 238 238
238 238 238
238 238 238
238 238 238
238 238 238
238 238 238
238 238 238
238 238 238
238 238 238
238 238 238
238 238 238
238 238 238
238 238 238
238 238 238
238 238 238
238 238 238
238 238 238
238 238 238
238 238 238
238 238 238
238 238 238
238 238 238
238 238 238
238 238 238
238 238 238
238 238 238
238 238 238
238 238 238
238 238 238
238 238 238
238 238 238
238 238 238
238 238 238
238 238 238
238 238 238
238 238 238
238 238 238
238 238 238
238 238 238
238 238 238
238 238 238
238 238 238
238 238 238
238 238 238
238 238 238
238 238 238
238 238 238
238 238 238
238 238 238
238 238 238
238 238 238
238 238 238
238 238 238
238 238 238
238 238 238
238 238 238
238 238 238
238 238 238
238 238 238
238 238 238
238 238 238
238 238 238
238 238 238
238 238 238
238 238 238
238 238 238
238 238 238
238 238 238
238 238 238
238 238 238
238 238 238
238 238 238
238 238 238
238 238 238
238 238 238
238 238 238
238 238 238
238 238 238
238 238 238
238 238 238
238 238 238
255 0 0
255 0 0
255 0 0
255 0 0
255 0 0
255 0 0
255 0 0
255 0 0
255 0 0
255 0 0
255 0 0
255 0 0
255 0 0
255 0 0
255 0 0
255 0 0
238 238 238
238 238 238
238 238 238
238 238 238
238 238 238
238 238 238
170 170 170
187 187 170
187 204 187
204 204 187
204 204 204
204 221 204
221 221 204
221 221 204
221 221 204
221 221 204
204 221 204
204 204 204
204 221 204
204 221 204
221 221 204
221 221 204
221 221 204
221 221 204
221 221 204
221 221 204
221 221 204
221 221 204
221 221 204
221 221 204
221 221 204
221 221 221
221 221 221
221 221 204
221 221 204
221 221 204
221 221 204
221 221 204
221 204 204
221 204 204
221 204 204
221 204 204
221 204 204
204 204 204
204 204 187
204 204 187
204 204 187
204 204 170
204 187 170
204 187 170
204 204 187
221 221 204
221 221 221
221 221 204
221 221 221
221 221 221
221 221 221
221 221 221
221 221 221
221 221 221
221 221 221
221 221 221
221 221 221
221 221 221
221 221 221
221 221 221
221 221 221
221 221 221
221 238 221
221 221 221
221 221 221
221 221 221
221 221 221
221 221 221
221 221 221
221 221 221
221 221 221
221 221 221
221 221 221
221 221 221
221 221 221
221 221 221
221 221 221
221 221 221
221 221 221
221 221 221
221 221 221
221 221 221
221 221 221
221 221 221
221 221 204
221 221 221
221 221 204
221 221 204
221 221 204
221 221 204
221 221 204
204 204 204
204 204 187
204 204 187
204 204 187
187 187 170
187 187 170
187 187 170
170 170 153
170 170 153
170 170 153
170 170 153
187 170 153
170 170 153
153 153 136
153 153 136
0 0 255
0 0 255
170 170 136
153 153 136
136 136 119
136 136 119
136 119 102
119 119 102
136 136 119
153 153 119
153 136 119
136 136 119
119 119 102
119 119 102
136 136 102
153 136 119
136 136 119
119 119 102
119 102 85
102 102 85
102 102 85
102 102 85
102 85 68
102 85 68
102 102 85
102 102 85
119 119 102
170 170 153
204 187 170
187 187 170
187 187 170
187 187 170
187 187 170
187 187 153
170 170 153
170 170 153
170 170 153
187 187 170
187 187 170
187 187 170
187 187 170
187 170 170
170 170 153
187 187 170
187 187 170
187 187 170
187 187 170
187 187 170
187 187 170
187 187 170
204 204 187
187 187 187
187 187 170
187 187 170
170 170 153
153 153 136
136 136 119
119 119 85
102 102 85
102 85 68
102 102 85
119 102 85
119 119 102
136 119 102
136 136 119
153 153 136
153 153 136
153 153 136
153 153 136
153 153 136
153 153 136
170 153 136
170 170 153
170 170 153
170 170 153
170 170 153
187 187 153
170 170 153
170 170 153
170 170 153
187 187 170
187 187 153
187 187 170
187 187 170
204 204 187
221 221 204
221 221 204
221 221 204
221 221 204
221 221 204
221 221 204
221 221 221
221 221 221
221 221 221
221 221 221
238 238 221
238 238 221
238 238 221
238 238 238
238 238 238
238 238 238
238 238 238
238 238 238
238 238 238
238 238 238
238 238 221
238 238 221
0 0 255
0 0 255
238 238 238
238 238 238
238 238 238
238 238 238
238 238 238
238 238 238
238 238 221
238 238 238
238 238 238
238 238 238
238 238 238
238 238 238
238 238 238
238 238 238
238 238 238
238 238 238
238 238 238
238 238 238
238 238 238
238 238 238
238 238 238
238 238 238
238 238 238
238 238 238
238 238 238
238 238 238
238 238 238
238 238 238
238 238 238
238 238 238
238 238 238
238 238 238
238 238 238
238 238 238
238 238 238
238 238 238
238 238 238
238 238 238
238 238 238
238 238 238
238 238 238
238 238 238
238 238 238
238 238 238
238 238 238
238 238 238
238 238 238
238 238 238
238 238 238
238 238 238
238 238 238
238 238 238
238 238 238
238 238 238
238 238 238
238 238 238
238 238 238
238 238 238
238 238 238
238 238 238
238 238 238
238 238 238
238 238 238
238 238 238
238 238 238
238 238 238
238 238 238
238 238 238
238 238 238
238 238 238
238 238 238
238 238 238
238 238 238
238 238 238
238 238 238
238 238 238
238 238 238
238 238 238
238 238 238
238 238 238
238 238 238
238 238 238
238 238 238
255 0 0
255 0 0
255 0 0
255 0 0
255 0 0
255 0 0
255 0 0
255 0 0
255 0 0
255 0 0
255 0 0
255 0 0
255 0 0
255 0 0
255 0 0
255 0 0
238 238 238
238 238 238
238 238 238
238 238 238
238 238 238
238 238 238
170 170 153
170 187 170
187 187 170
187 204 187
204 204 187
204 204 204
221 221 204
221 221 204
221 221 204
204 221 204
204 204 204
204 204 204
204 221 204
221 221 204
221 221 204
221 221 204
221 221 204
221 221 204
221 221 204
221 221 204
221 221 204
221 221 204
221 221 204
221 221 221
221 221 221
221 221 221
221 221 204
221 221 204
221 221 204
221 221 204
221 221 204
221 204 204
204 204 204
221 204 204
204 204 204
221 204 204
204 204 187
204 204 187
204 204 187
204 204 187
204 204 170
204 187 170
204 187 170
204 204 187
221 221 204
221 221 221
221 221 221
221 221 221
221 221 221
221 221 221
221 221 221
221 221 221
221 221 221
221 221 221
221 221 221
221 221 221
221 221 221
221 221 221
221 221 221
221 238 221
221 221 221
221 238 221
221 238 221
221 238 221
221 221 221
221 221 221
221 221 221
221 221 221
221 221 221
221 221 221
221 221 221
221 221 221
221 221 221
221 221 221
221 221 221
221 221 221
221 221 221
221 221 221
221 221 221
221 221 221
221 221 221
221 221 221
221 221 221
221 221 221
221 221 204
221 221 221
221 221 204
221 221 204
221 221 204
221 221 204
221 221 204
204 221 204
204 204 204
204 204 187
204 204 187
204 204 187
187 187 187
187 187 170
187 187 170
170 170 170
170 170 153
170 170 153
170 170 153
153 153 136
153 153 136
153 153 119
0 0 255
0 0 255
153 153 136
136 136 119
136 119 102
119 119 102
119 102 85
102 102 85
119 119 102
136 136 119
153 136 119
136 136 119
119 119 102
119 119 102
119 119 102
153 153 119
136 136 102
119 119 85
102 102 85
85 85 68
85 85 68
102 85 68
102 85 68
102 85 68
102 85 68
102 102 85
136 136 119
170 170 153
187 187 170
187 187 170
187 187 170
187 187 170
187 187 170
187 187 153
170 170 153
170 153 136
170 170 153
187 187 170
187 187 170
187 187 170
187 170 170
170 170 153
170 170 153
170 170 170
187 187 170
187 187 170
187 187 170
187 187 170
187 187 170
187 187 170
187 187 187
187 187 170
187 187 170
170 170 170
170 170 153
136 136 119
119 119 102
119 102 85
102 102 85
102 85 68
102 102 85
102 102 85
102 102 85
119 102 85
136 136 119
153 136 136
153 153 136
153 153 136
153 153 136
153 153 136
170 153 136
153 153 136
170 153 136
170 170 153
170 170 153
170 170 153
187 187 170
187 187 170
170 170 153
170 170 153
187 170 153
187 187 153
187 187 170
187 187 170
204 187 187
204 204 187
221 221 204
221 221 204
221 221 204
221 221 204
221 221 221
221 221 221
221 221 221
221 221 221
221 221 221
221 221 221
221 221 221
221 221 221
221 238 221
238 238 221
238 238 221
238 238 238
238 238 238
238 238 238
238 238 238
238 238 238
238 238 238
0 0 255
0 0 255
238 238 221
238 238 238
238 238 238
238 238 238
238 238 238
238 238 238
238 238 238
238 238 238
238 238 221
238 238 238
238 238 238
238 238 238
238 238 238
238 238 238
238 238 238
238 238 238
238 238 238
238 238 238
238 238 238
238 238 238
238 238 238
238 238 238
238 238 238
238 238 238
238 238 238
238 238 238
238 238 238
238 238 238
238 238 238
238 238 238
238 238 238
238 238 238
238 238 238
238 238 238
238 238 238
238 238 238
238 238 238
238 238 238
238 238 238
238 238 238
238 238 238
238 238 238
238 238 238
238 238 238
238 238 238
238 238 238
238 238 238
238 238 238
238 238 238
238 238 238
238 238 238
238 238 238
238 238 238
238 238 238
238 238 238
238 238 238
238 238 238
238 238 238
238 238 238
238 238 238
238 238 238
238 238 238
238 238 238
238 238 238
238 238 238
238 238 238
238 238 238
238 238 238
238 238 238
238 238 238
238 238 238
238 238 238
238 238 238
238 238 238
238 238 238
238 238 238
238 238 238
238 238 238
238 238 238
238 238 238
238 238 238
238 238 238
238 238 238
255 0 0
255 0 0
255 0 0
255 0 0
255 0 0
255 0 0
255 0 0
255 0 0
255 0 0
255 0 0
255 0 0
255 0 0
255 0 0
255 0 0
255 0 0
255 0 0
238 238 238
238 238 238
238 238 238
238 238 238
238 238 238
238 238 238
170 170 153
170 170 170
170 187 170
187 187 187
204 204 187
204 204 204
204 221 204
204 221 204
204 204 204
204 204 204
204 221 204
221 221 204
221 221 204
221 221 204
221 221 204
221 221 204
221 221 204
221 221 204
221 221 204
221 221 204
221 221 204
221 221 204
221 221 204
221 221 221
221 221 221
221 221 221
221 221 204
221 221 204
221 221 204
204 221 204
204 204 204
204 204 204
204 204 204
204 204 204
204 204 204
204 204 204
204 204 187
204 204 187
204 204 187
204 204 170
204 187 170
204 187 170
204 204 187
221 221 204
221 221 221
221 221 221
221 221 221
221 221 221
221 221 221
221 221 221
221 221 221
221 221 221
221 221 221
221 221 221
221 221 221
221 221 221
221 221 221
221 221 221
221 221 221
221 238 221
221 238 221
221 238 221
221 238 221
221 238 221
221 221 221
221 221 221
221 221 221
221 221 221
221 221 221
221 221 221
221 221 221
221 221 221
221 221 221
221 221 221
221 221 221
221 221 221
221 221 221
221 221 221
221 221 221
221 221 221
221 221 221
221 221 221
221 221 221
221 221 221
221 221 221
221 221 221
221 221 204
221 221 204
221 221 204
221 221 204
221 221 204
221 221 204
204 221 204
204 204 204
204 204 187
204 204 187
204 204 187
204 204 187
187 187 187
187 187 170
187 187 170
170 170 170
170 170 153
170 170 153
170 170 136
153 153 136
0 0 255
0 0 255
153 153 136
136 136 119
136 136 119
119 119 102
119 119 102
119 119 102
119 119 102
119 119 102
136 136 119
136 119 102
102 102 85
102 102 85
102 102 85
136 119 102
119 119 102
119 102 85
102 102 85
85 68 51
68 68 51
85 68 51
85 85 51
85 85 68
85 85 68
102 102 85
153 153 136
187 187 170
187 187 170
187 187 170
187 187 170
187 187 170
187 187 153
170 170 153
170 153 136
170 153 136
170 170 153
187 187 170
187 170 153
170 170 153
187 170 153
170 170 153
170 170 153
170 170 153
187 187 170
187 187 170
187 187 170
187 187 170
187 187 187
187 187 170
187 187 170
187 187 170
187 187 170
170 170 170
170 170 153
153 136 136
119 119 102
119 119 102
102 102 85
102 85 68
102 102 85
102 102 85
102 85 68
102 85 68
119 119 102
136 136 119
153 136 119
153 136 119
153 153 136
153 153 136
170 153 136
153 153 136
153 153 119
170 170 153
170 170 153
170 153 136
170 170 153
187 187 170
187 170 153
187 170 153
187 187 170
187 187 170
187 187 170
187 187 170
187 187 170
204 204 187
221 221 204
221 221 221
221 221 221
221 221 221
221 221 221
221 221 221
221 221 221
221 221 221
221 221 221
221 221 221
221 221 221
221 221 221
221 221 221
221 221 221
221 221 221
238 238 221
238 238 221
238 238 221
238 238 221
238 238 238
238 238 238
0 0 255
0 0 255
238 238 238
238 238 238
238 238 238
238 238 238
238 238 238
238 238 238
238 238 238
238 238 238
238 238 221
238 238 238
238 238 238
238 238 238
238 238 238
238 238 238
238 238 238
238 238 238
238 238 238
238 238 238
238 238 238
238 238 238
238 238 238
238 238 238
238 238 238
238 238 238
238 238 238
238 238 238
238 238 238
238 238 238
238 238 238
238 238 238
238 238 238
238 238 238
238 238 238
238 238 238
238 238 238
238 238 238
238 238 238
238 238 238
238 238 238
238 238 238
238 238 238
238 238 238
238 238 238
238 238 238
238 238 238
238 238 238
238 238 238
238 238 238
238 238 238
238 238 238
238 238 238
238 238 238
238 238 238
238 238 238
238 238 238
238 238 238
238 238 238
238 238 238
238 238 238
238 238 238
238 238 238
238 238 238
238 238 238
238 238 238
238 238 238
238 238 238
238 238 238
238 238 238
238 238 238
238 238 238
238 238 238
238 238 238
238 238 238
238 238 238
238 255 238
238 255 238
238 238 238
238 238 238
238 238 238
238 238 238
238 238 238
238 238 238
238 238 238
255 0 0
255 0 0
255 0 0
255 0 0
255 0 0
255 0 0
255 0 0
255 0 0
255 0 0
255 0 0
255 0 0
255 0 0
255 0 0
255 0 0
255 0 0
255 0 0
238 238 238
238 238 238
238 238 238
238 238 238
238 238 238
238 238 238
170 170 153
170 170 170
170 170 170
187 187 170
187 204 187
204 204 187
204 204 204
204 204 204
204 204 204
204 204 204
204 221 204
221 221 204
221 221 204
221 221 204
221 221 204
221 221 204
221 221 204
221 221 204
221 221 204
221 221 204
221 221 204
221 221 204
221 221 204
221 221 204
221 221 204
221 221 204
221 221 204
221 221 204
204 221 204
204 204 204
204 204 204
204 204 204
204 204 204
204 204 204
204 204 187
204 204 187
204 204 187
204 204 187
204 204 170
204 187 170
204 187 170
204 204 187
221 221 204
221 221 204
221 221 221
221 221 221
221 221 221
221 221 221
221 221 221
221 221 221
221 221 221
221 221 221
221 221 221
221 221 221
221 221 221
221 221 221
221 221 221
221 221 221
221 238 221
221 221 221
221 238 221
221 238 221
221 238 221
221 238 221
221 238 221
221 221 221
221 221 221
221 221 221
221 221 221
221 221 221
221 221 221
221 221 221
221 221 221
221 221 221
221 221 221
221 221 221
221 221 221
221 221 221
221 221 221
221 221 221
221 221 221
221 221 221
221 221 221
221 221 221
221 221 221
221 221 221
221 221 221
221 221 204
221 221 204
221 221 204
221 221 204
221 221 204
221 221 204
204 221 204
204 204 204
204 204 204
204 204 187
204 204 187
204 204 187
204 204 187
187 187 187
187 187 170
187 187 170
170 187 170
170 170 153
170 170 153
0 0 255
0 0 255
153 153 153
153 153 136
153 153 136
153 153 136
153 153 136
136 136 119
119 119 102
119 119 102
119 119 102
119 119 102
102 102 85
85 85 68
102 102 85
119 119 102
119 119 102
119 119 102
102 102 85
85 85 68
51 51 34
51 51 34
68 68 51
85 68 51
85 85 68
136 119 102
170 170 153
187 187 170
187 170 153
187 170 153
187 187 153
187 170 153
170 170 136
170 153 136
170 153 136
170 153 136
170 170 153
187 187 170
170 170 153
170 170 153
187 170 153
170 170 153
170 170 153
170 170 153
187 187 170
204 187 187
187 187 170
187 187 170
204 204 187
187 187 170
187 187 170
187 187 170
187 187 170
187 187 170
170 170 153
153 153 136
119 119 102
119 119 102
119 119 102
102 102 85
102 102 85
102 102 85
102 85 68
85 85 68
102 85 68
119 119 102
136 119 119
136 136 119
153 136 119
153 153 136
170 153 136
153 153 136
153 153 136
153 153 136
170 170 153
170 170 153
170 170 153
187 187 170
187 187 170
187 187 170
204 187 170
204 204 187
204 204 187
187 187 170
187 187 153
204 187 170
221 204 204
221 221 204
221 221 204
221 221 221
238 238 221
238 238 221
238 238 221
238 238 221
238 238 221
238 238 221
238 238 221
238 238 221
238 238 221
238 238 221
238 238 221
238 238 221
238 238 221
238 238 221
238 238 221
238 238 221
238 238 221
0 0 255
0 0 255
238 238 238
238 238 238
238 238 238
238 238 238
238 238 238
238 238 238
238 238 238
238 238 238
238 238 238
238 238 238
238 238 238
238 238 238
238 238 238
238 238 238
238 238 238
238 238 238
238 238 238
238 238 238
238 238 238
238 238 238
238 238 238
238 238 238
238 238 238
238 238 238
238 238 238
238 238 238
238 238 238
238 238 238
238 238 238
238 238 238
238 238 238
238 238 238
238 238 238
238 238 238
238 238 238
238 238 238
238 238 238
238 238 238
238 238 238
238 238 238
238 238 238
238 238 238
238 238 238
238 238 238
238 238 238
238 238 238
238 238 238
238 238 238
238 238 238
238 238 238
238 238 238
238 238 238
238 238 238
238 238 238
238 238 238
238 238 238
238 238 238
238 238 238
238 238 238
238 238 238
238 238 238
238 238 238
238 238 238
238 238 238
238 238 238
238 238 238
238 238 238
238 238 238
238 238 238
238 238 238
238 238 238
238 238 238
238 238 238
238 238 238
238 238 238
238 238 238
238 238 238
238 238 238
238 238 238
238 238 238
238 238 238
238 238 238
238 238 238
255 0 0
255 0 0
255 0 0
255 0 0
255 0 0
255 0 0
255 0 0
255 0 0
255 0 0
255 0 0
255 0 0
255 0 0
255 0 0
255 0 0
255 0 0
255 0 0
238 238 238
238 238 238
238 238 238
238 238 238
238 238 238
238 238 238
170 170 153
170 170 153
170 170 153
170 170 170
187 187 170
187 187 187
204 204 187
204 204 187
204 204 204
204 204 204
221 221 204
221 221 204
221 221 204
221 221 204
221 221 204
204 221 204
204 221 204
221 221 204
221 221 204
221 221 204
221 221 204
221 221 204
221 221 204
221 221 204
221 221 204
221 221 204
221 221 204
204 204 204
204 204 204
204 204 204
204 204 187
204 204 204
204 204 204
204 204 187
204 204 187
204 204 187
204 204 187
204 204 170
204 187 153
204 187 170
221 221 204
221 221 204
221 221 221
221 221 221
221 221 221
221 221 221
221 221 221
221 221 221
221 221 221
221 221 221
221 221 221
221 221 221
221 221 221
221 221 221
221 221 221
221 221 221
221 221 221
221 238 221
221 238 221
221 238 221
221 238 221
221 238 221
221 238 221
221 238 221
221 221 221
221 221 221
221 238 221
221 238 221
221 221 221
221 221 221
221 221 221
221 221 221
221 221 221
221 221 221
221 221 221
221 221 221
221 221 221
221 221 221
221 221 221
221 221 221
221 221 221
221 221 221
221 221 221
221 221 221
221 221 221
221 221 221
221 221 221
221 221 204
221 221 204
221 221 204
221 221 204
221 221 204
221 221 204
221 221 204
204 204 204
204 204 204
204 204 204
204 204 187
204 204 187
204 204 187
204 204 187
204 204 187
187 187 170
187 187 170
187 187 170
187 187 170
0 0 255
0 0 255
170 170 153
170 170 153
170 170 153
170 170 153
170 170 153
153 153 153
136 136 136
119 119 119
102 102 85
102 102 85
85 85 68
51 51 51
85 85 85
102 119 102
119 119 119
119 119 102
102 102 85
68 68 68
51 51 34
51 51 34
68 68 51
85 68 68
102 85 68
136 136 119
170 153 136
170 170 153
170 170 153
170 170 153
170 170 136
170 153 136
153 153 136
153 153 136
170 153 136
170 170 136
170 170 136
170 153 136
153 153 136
170 153 136
170 170 153
170 170 153
170 170 153
170 170 153
187 187 170
204 204 187
187 187 170
170 170 170
187 187 170
187 187 170
187 187 170
187 187 170
187 187 170
170 170 170
170 170 153
153 153 136
136 136 119
136 119 119
136 119 102
119 119 102
119 119 102
102 102 85
102 102 85
102 85 68
85 85 68
85 85 68
102 102 85
119 102 85
119 119 102
136 136 119
153 153 136
153 153 136
153 153 136
153 153 136
170 170 153
170 170 153
170 170 153
170 170 153
187 187 170
170 170 153
187 170 153
187 170 153
170 170 153
170 153 136
170 170 153
187 187 170
204 204 187
204 204 187
221 204 204
221 221 204
221 221 221
221 221 221
238 238 221
238 238 221
238 238 221
238 238 221
238 238 221
238 238 221
238 238 221
238 238 221
238 238 221
238 238 221
238 238 221
238 238 221
238 238 221
238 238 221
238 238 221
0 0 255
0 0 255
238 238 238
238 238 221
238 238 221
238 238 221
238 238 221
238 238 238
238 238 238
238 238 238
238 238 238
238 238 238
238 238 238
238 238 238
238 238 238
238 238 238
238 238 238
238 238 238
238 238 238
238 238 238
238 238 238
238 238 238
238 238 238
238 238 238
238 238 238
238 238 238
238 238 238
238 238 238
238 238 238
238 238 238
238 238 238
238 238 238
238 238 238
238 238 238
238 238 238
238 238 238
238 238 238
238 238 238
238 238 238
238 238 238
238 238 238
238 238 238
238 238 238
238 238 238
238 238 238
238 238 238
238 238 238
238 238 238
238 238 238
238 238 238
238 238 238
238 238 238
238 238 238
238 238 238
238 238 238
238 238 238
238 238 238
238 238 238
238 238 238
238 238 238
238 238 238
238 238 238
238 238 238
238 238 238
238 238 238
238 238 238
238 238 238
238 238 238
238 238 238
238 238 238
238 238 238
238 238 238
238 238 238
238 238 238
238 238 238
238 238 238
238 238 238
238 238 238
238 238 238
238 238 238
238 238 238
238 238 238
238 238 238
238 238 238
238 238 238
255 0 0
255 0 0
255 0 0
255 0 0
255 0 0
255 0 0
255 0 0
255 0 0
255 0 0
255 0 0
255 0 0
255 0 0
255 0 0
255 0 0
255 0 0
255 0 0
238 238 238
238 238 238
238 238 238
238 238 238
238 238 238
238 238 238
170 170 153
170 170 153
170 170 153
170 170 153
170 187 170
187 187 170
187 204 187
204 204 187
204 204 204
204 204 204
221 221 204
221 221 204
221 221 204
221 221 204
204 221 204
204 221 204
221 221 204
221 221 204
221 221 204
221 221 204
221 221 204
221 221 204
221 221 204
221 221 204
221 221 204
221 221 204
204 204 204
204 204 204
204 204 187
204 204 204
204 204 187
204 204 187
204 204 187
204 204 187
204 204 187
204 204 170
204 204 170
187 187 153
204 187 170
221 221 204
221 221 204
221 221 221
221 221 221
221 221 221
221 221 221
221 221 221
221 221 221
221 221 221
221 221 221
221 221 221
221 221 221
221 221 221
221 221 221
221 221 221
221 221 221
221 221 221
221 238 221
221 238 221
221 238 221
221 238 221
221 238 221
221 238 221
221 238 221
221 238 221
221 238 221
221 221 221
221 238 221
221 238 221
221 221 221
221 221 221
221 221 221
221 221 221
221 221 221
221 221 221
221 221 221
221 221 221
221 221 221
221 221 221
221 221 221
221 221 221
221 221 221
221 221 221
221 221 221
221 221 221
221 221 221
221 221 221
221 221 204
221 221 204
221 221 204
221 221 204
221 221 204
221 221 204
221 221 204
221 221 204
221 221 204
204 221 204
204 204 204
204 204 204
204 204 187
204 204 187
204 204 187
204 204 187
204 204 187
204 204 187
204 204 187
187 187 187
0 0 255
0 0 255
187 187 170
187 187 170
170 170 170
170 170 153
170 170 153
170 170 153
153 170 153
153 153 136
136 136 119
119 119 119
102 102 85
68 68 68
51 68 51
68 68 68
68 85 68
85 85 68
68 68 68
51 51 51
68 68 51
68 68 68
85 85 68
102 102 85
102 102 85
119 119 102
153 153 136
170 170 153
170 170 153
170 170 136
170 153 136
153 153 136
153 153 136
170 153 136
170 153 136
153 153 136
153 136 119
153 136 119
153 153 119
170 153 136
170 170 153
170 153 136
170 170 153
187 170 170
187 187 170
204 204 187
187 170 170
170 170 153
187 187 170
187 187 170
187 187 170
187 187 187
187 187 170
170 170 153
153 153 136
153 136 119
136 136 119
136 136 119
136 136 119
136 136 119
136 136 119
136 119 119
119 119 102
119 102 102
102 102 85
102 85 85
102 102 85
102 102 85
119 119 102
119 119 102
153 136 119
153 136 119
153 136 119
136 136 119
153 153 136
170 170 153
170 170 153
187 170 170
187 170 170
170 170 153
153 153 136
153 136 119
153 136 119
153 153 119
170 170 136
187 187 153
204 204 187
204 204 187
221 221 204
221 221 204
221 221 221
221 221 221
221 221 221
221 221 221
238 238 221
238 238 221
238 238 221
238 238 221
238 238 221
238 238 221
238 238 221
238 238 221
238 238 221
238 238 221
238 238 221
238 238 221
238 238 221
0 0 255
0 0 255
238 238 221
238 238 221
238 238 221
238 238 221
238 238 221
238 238 238
238 238 238
238 238 238
238 238 238
238 238 238
238 238 238
238 238 238
238 238 238
238 238 238
238 238 238
238 238 238
238 238 238
238 238 238
238 238 238
238 238 238
238 238 238
238 238 238
238 238 238
238 238 238
238 238 238
238 238 238
238 238 238
238 238 238
238 238 238
238 238 238
238 238 238
238 238 238
238 238 238
238 238 238
238 238 238
238 238 238
238 238 238
238 238 238
238 238 238
238 238 238
238 238 238
238 238 238
238 238 238
238 238 238
238 238 238
238 238 238
238 238 238
238 238 238
238 238 238
238 238 238
238 238 238
238 238 238
238 238 238
238 238 238
238 238 238
238 238 238
238 238 221
238 238 238
238 238 238
238 238 238
238 238 238
238 238 238
238 238 238
238 238 238
238 238 238
238 238 238
238 238 238
238 238 238
238 238 238
238 238 238
238 238 238
238 238 238
238 238 238
238 238 238
238 238 238
238 238 238
238 238 238
238 238 238
238 238 238
238 238 238
238 238 238
238 238 238
238 238 238
255 0 0
255 0 0
255 0 0
255 0 0
255 0 0
255 0 0
255 0 0
255 0 0
255 0 0
255 0 0
255 0 0
255 0 0
255 0 0
255 0 0
255 0 0
255 0 0
238 238 238
238 238 238
238 238 238
238 238 238
238 238 238
238 238 238
170 170 153
170 170 153
170 170 153
170 170 153
170 170 170
187 187 170
187 187 187
204 204 187
204 204 187
204 204 204
204 221 204
221 221 204
221 221 204
204 221 204
204 221 204
204 221 204
221 221 204
221 221 204
221 221 204
221 221 204
221 221 204
221 221 204
221 221 204
221 221 204
221 204 204
204 204 204
204 204 204
204 204 187
204 204 187
204 204 187
204 204 204
204 204 187
204 204 187
204 204 187
204 204 170
204 187 170
187 187 153
204 204 170
221 221 204
221 221 204
221 221 204
221 221 221
221 221 221
221 221 221
221 221 221
221 221 221
221 221 221
221 221 221
221 221 221
221 221 221
221 221 221
221 221 221
221 221 221
221 221 221
221 221 221
221 238 221
221 238 221
221 238 221
221 238 221
221 238 221
221 238 221
221 238 221
221 238 221
221 238 221
221 238 221
221 221 221
221 238 221
221 221 221
221 221 221
221 221 221
221 221 221
221 221 221
221 221 221
221 221 221
221 221 221
221 221 221
221 221 221
221 221 221
221 221 221
221 221 221
221 221 221
221 221 221
221 221 221
221 221 221
221 221 221
221 221 221
221 221 204
221 221 221
221 221 204
221 221 204
221 221 204
221 221 204
221 221 204
221 221 204
221 221 204
221 221 204
204 221 204
204 221 204
204 204 204
204 204 204
204 204 204
204 204 204
204 204 187
204 204 187
204 204 187
204 204 187
0 0 255
0 0 255
187 187 187
187 187 170
187 187 170
187 187 170
187 187 170
170 170 170
170 170 153
170 170 153
170 170 153
170 170 153
153 153 136
136 136 119
102 119 102
102 102 102
102 102 102
102 102 102
102 102 102
102 102 85
102 102 102
119 119 102
119 119 102
119 119 102
119 119 102
136 136 119
170 153 136
170 170 153
170 170 153
170 170 153
170 170 136
170 153 136
170 153 136
170 153 136
153 153 136
136 136 119
136 136 119
153 136 119
153 153 136
170 153 136
170 153 136
170 170 153
170 170 153
187 187 170
187 187 187
187 187 170
170 170 153
170 170 153
170 170 153
187 187 170
187 187 187
187 187 187
187 187 170
170 170 153
153 153 136
136 136 119
136 136 119
136 136 119
136 136 119
136 136 119
153 136 119
136 136 119
136 136 119
136 136 119
136 119 119
119 119 102
102 102 85
102 102 85
119 119 85
119 119 102
136 119 119
136 136 119
136 136 119
136 136 119
136 136 119
153 153 136
170 170 136
170 170 153
187 170 153
170 170 153
170 153 136
153 153 136
153 153 136
153 153 119
170 170 153
187 187 170
204 204 187
204 204 204
221 221 204
221 221 221
221 221 221
221 221 221
221 221 221
221 221 221
221 238 221
221 221 221
221 221 221
238 238 221
238 238 221
238 238 221
238 238 221
238 238 221
238 238 221
238 238 221
238 238 221
238 238 221
238 238 221
0 0 255
0 0 255
238 238 221
238 238 221
238 238 221
238 238 221
238 238 221
238 238 221
238 238 221
238 238 221
238 238 221
238 238 221
238 238 221
238 238 238
238 238 238
238 238 238
238 238 238
238 238 238
238 238 238
238 238 238
238 238 238
238 238 238
238 238 238
238 238 238
238 238 238
238 238 238
238 238 238
238 238 238
238 238 238
238 238 238
238 238 238
238 238 238
238 238 238
238 238 238
238 238 238
238 238 238
238 238 238
238 238 238
238 238 238
238 238 238
238 238 238
238 238 238
238 238 238
238 238 238
238 238 238
238 238 238
238 238 238
238 238 238
238 238 238
238 238 238
238 238 238
238 238 238
238 238 238
238 238 238
238 238 238
238 238 238
238 238 238
238 238 238
238 238 238
238 238 238
238 238 238
238 238 238
238 238 238
238 238 238
238 238 238
238 238 221
238 238 238
238 238 238
238 238 238
238 238 238
238 238 238
238 238 238
238 238 238
238 238 238
238 238 238
238 238 238
238 238 238
238 238 238
238 238 238
238 238 238
238 238 238
238 238 238
238 238 238
238 238 238
238 238 238
238 238 238
238 238 238
238 238 238
238 238 238
238 238 238
238 238 238
238 238 238
238 238 238
238 238 238
238 238 238
238 238 238
238 238 238
238 238 238
238 238 238
238 238 238
238 238 238
238 238 238
238 238 238
238 238 238
238 238 238
238 238 238
238 238 238
170 170 153
170 170 170
170 170 170
170 170 153
170 170 170
170 170 170
187 187 170
187 187 187
204 204 187
204 204 204
204 221 204
221 221 204
204 221 204
204 204 204
204 204 204
221 221 204
221 221 204
221 221 204
221 221 204
221 221 204
221 221 204
221 221 204
221 221 204
204 204 204
204 204 204
204 204 187
204 204 187
204 204 187
204 204 187
204 204 187
204 204 187
204 204 187
204 204 187
204 204 170
204 187 170
187 187 170
204 204 187
221 221 204
221 221 204
221 221 221
221 221 204
221 221 221
221 221 221
221 221 221
221 221 221
221 221 221
221 221 221
221 221 221
221 221 221
221 221 221
221 221 221
221 221 221
221 221 221
221 221 221
221 238 221
221 238 221
221 238 221
221 238 221
221 238 221
221 238 221
221 238 221
221 238 221
221 238 221
221 238 221
221 221 221
221 221 221
221 238 221
221 238 221
221 221 221
221 221 221
221 221 221
221 221 221
221 221 221
221 221 221
221 221 221
221 221 221
221 221 221
221 221 221
221 221 221
221 221 221
221 221 221
221 221 221
221 221 221
221 221 221
221 221 221
221 221 221
221 221 221
221 221 221
221 221 204
221 221 204
221 221 204
221 221 204
221 221 204
221 221 204
221 221 204
221 221 204
221 221 204
221 221 204
221 221 204
204 221 204
204 204 204
204 204 204
204 204 204
204 204 204
204 204 187
204 204 187
0 0 255
0 0 255
204 204 187
187 204 187
187 187 187
187 187 187
187 187 170
187 187 170
187 187 170
187 187 170
187 187 170
170 170 170
170 170 153
170 170 153
153 153 153
153 153 136
153 153 136
153 153 136
153 153 136
153 153 136
153 153 136
153 153 136
136 136 136
136 136 119
136 136 119
153 136 119
170 170 153
187 187 170
187 187 170
187 187 153
170 170 153
170 170 153
170 170 153
170 153 136
153 153 136
153 153 119
153 153 119
153 136 119
153 153 136
153 153 136
170 170 153
170 170 153
170 170 153
187 187 170
187 187 170
187 170 153
170 170 136
153 153 136
170 170 153
187 187 170
187 187 187
187 187 187
187 187 170
170 170 153
153 153 136
153 136 136
153 136 136
153 153 136
153 153 136
153 153 136
153 153 136
153 153 136
153 153 136
153 153 136
153 153 136
153 136 136
136 136 119
136 119 119
119 119 102
119 119 102
136 136 119
136 136 119
136 136 119
136 136 119
136 136 119
136 136 119
153 136 119
153 153 119
153 153 136
153 153 136
153 153 136
153 153 136
153 153 136
153 153 136
170 170 153
187 187 170
204 204 204
221 221 204
221 221 221
221 221 221
221 221 221
221 221 221
221 221 221
221 221 221
238 238 221
221 238 221
221 238 221
238 238 221
238 238 221
238 238 221
238 238 221
238 238 221
238 238 221
238 238 221
238 238 221
238 238 221
238 238 221
0 0 255
0 0 255
238 238 221
238 238 221
238 238 221
238 238 221
238 238 221
238 238 221
238 238 221
238 238 221
221 238 221
238 238 221
238 238 221
238 238 238
238 238 238
238 238 238
238 238 238
238 238 238
238 238 238
238 238 238
238 238 238
238 238 238
238 238 238
238 238 238
238 238 238
238 238 238
238 238 238
238 238 238
238 238 238
238 238 238
238 238 238
238 238 238
238 238 238
238 238 238
238 238 238
238 238 238
238 238 238
238 238 238
238 238 238
238 238 238
238 238 238
238 238 238
238 238 238
238 238 238
238 238 238
238 238 238
238 238 238
238 238 238
238 238 238
238 238 238
238 238 238
238 238 238
238 238 238
238 238 238
238 238 238
238 238 238
238 238 238
238 238 238
238 238 238
238 238 221
238 238 238
238 238 238
238 238 221
238 238 238
238 238 238
238 238 238
238 238 221
238 238 221
238 238 238
238 238 221
238 238 238
238 238 238
238 238 238
238 238 221
238 238 238
238 238 238
238 238 238
238 238 238
238 238 238
238 238 238
238 238 238
238 238 238
238 238 238
238 238 238
238 238 238
238 238 238
238 238 238
238 238 238
238 238 238
238 238 238
238 238 238
238 238 238
238 238 238
238 238 238
238 238 238
238 238 238
238 238 238
238 238 238
238 238 238
238 238 238
238 238 238
238 238 238
238 238 238
238 238 238
238 238 238
238 238 238
238 238 238
170 170 153
170 170 170
170 170 170
170 170 170
170 170 170
170 170 170
170 170 170
187 187 170
187 204 187
204 204 187
204 204 204
204 204 204
204 204 204
204 204 204
204 221 204
221 221 204
221 221 204
221 221 204
221 221 204
221 221 204
221 221 204
204 204 204
204 204 204
204 204 204
204 204 204
204 204 187
204 204 187
204 204 204
204 204 187
204 204 187
204 204 187
204 204 187
204 204 170
204 187 170
187 187 153
204 204 187
221 221 204
221 221 204
221 221 221
221 221 221
221 221 221
221 221 221
221 221 221
221 221 221
221 221 221
221 221 221
221 221 221
221 221 221
221 221 221
221 221 221
221 221 221
221 221 221
221 221 221
221 221 221
221 238 221
221 238 221
221 238 221
221 238 221
221 238 221
221 238 221
221 238 221
221 238 221
221 238 221
221 221 221
221 221 221
221 238 221
221 221 221
221 221 221
221 221 221
221 221 221
221 221 221
221 221 221
221 221 221
221 221 221
221 221 221
221 221 221
221 221 221
221 221 221
221 221 221
221 221 221
221 221 221
221 221 221
221 221 221
221 221 221
221 221 221
221 221 221
221 221 221
221 221 221
221 221 221
221 221 204
221 221 204
221 221 204
221 221 204
221 221 204
221 221 204
221 221 204
221 221 204
221 221 204
221 221 204
221 221 204
221 221 204
204 221 204
204 221 204
204 204 204
204 204 204
204 204 187
0 0 255
0 0 255
204 204 187
204 204 187
204 204 187
187 204 187
187 187 187
187 187 187
187 187 187
187 187 170
187 187 170
187 187 170
187 187 170
170 170 170
170 170 170
170 170 153
170 170 153
170 170 153
153 170 153
153 170 153
153 153 153
153 153 153
153 153 136
153 153 136
153 153 136
153 153 136
170 170 153
187 187 170
187 187 170
187 187 170
187 187 170
187 170 170
170 170 153
170 170 153
170 170 153
170 170 153
153 153 136
153 153 136
153 153 136
153 153 136
170 170 153
170 170 136
170 170 153
187 170 153
170 170 153
170 170 153
170 153 136
170 153 136
170 170 153
187 170 170
187 187 170
187 204 187
187 187 170
170 170 170
170 170 153
153 153 153
170 153 153
170 170 153
170 170 153
170 170 153
170 170 153
170 170 153
170 170 153
170 170 153
170 153 153
170 153 153
170 153 153
153 153 136
153 136 136
136 136 119
136 136 119
136 136 102
136 136 102
136 136 102
119 119 102
119 119 85
119 102 85
102 102 85
102 102 85
119 119 102
119 119 102
136 136 119
170 153 153
187 170 170
187 187 187
204 204 204
221 221 204
221 221 204
221 221 221
221 221 221
221 221 221
221 221 221
221 221 221
221 221 221
221 221 221
221 221 221
221 238 221
221 221 221
221 238 221
221 238 221
238 238 221
221 238 221
238 238 221
238 238 221
238 238 221
238 238 221
238 238 221
0 0 255
0 0 255
221 238 221
238 238 221
238 238 221
221 238 221
238 238 221
221 238 221
221 238 221
238 238 221
238 238 221
238 238 221
238 238 221
238 238 221
238 238 221
238 238 221
238 238 238
238 238 238
238 238 238
238 238 238
238 238 238
238 238 238
238 238 238
238 238 238
238 238 238
238 238 238
238 238 238
238 238 238
238 238 238
238 238 238
238 238 238
238 238 238
238 238 238
238 238 238
238 238 238
238 238 238
238 238 238
238 238 238
238 238 238
238 238 238
238 238 238
238 238 238
238 238 238
238 238 238
238 238 238
238 238 238
238 238 238
238 238 238
238 238 238
238 238 238
238 238 238
238 238 238
238 238 238
238 238 238
238 238 238
238 238 238
238 238 238
238 238 238
238 238 238
238 238 238
238 238 221
238 238 238
238 238 238
238 238 238
238 238 238
238 238 238
238 238 221
238 238 221
238 238 221
238 238 221
238 238 238
238 238 238
238 238 238
238 238 238
238 238 238
238 238 238
238 238 238
238 238 238
238 238 238
238 238 238
238 238 238
238 238 238
238 238 238
238 238 238
238 238 238
238 238 238
238 238 238
238 238 238
238 238 238
238 238 238
238 238 238
238 238 238
238 238 238
238 238 238
238 238 238
238 238 238
238 238 238
238 238 238
238 238 238
238 238 238
238 238 238
238 238 238
238 238 238
238 238 238
238 238 238
238 238 238
238 238 238
170 170 153
170 170 170
170 170 170
170 170 170
170 170 153
170 170 153
170 170 153
170 187 170
187 187 170
187 204 187
204 204 187
204 204 187
204 204 204
204 221 204
221 221 204
221 221 204
221 221 204
221 221 204
221 221 204
221 221 204
204 204 204
204 204 204
204 204 204
204 204 204
204 204 204
204 204 187
204 204 187
221 204 204
204 204 187
204 204 187
204 204 187
204 204 170
187 187 153
187 187 153
204 204 187
221 221 204
221 221 221
221 221 221
221 221 221
221 221 221
221 221 221
221 221 221
221 221 221
221 221 221
221 221 221
221 221 221
221 221 221
221 221 221
221 221 221
221 221 221
221 221 221
221 221 221
221 221 221
221 238 221
221 238 221
221 238 221
221 238 221
221 238 221
221 238 221
221 238 221
221 238 221
221 221 221
221 221 221
221 238 221
221 221 221
221 221 221
221 221 221
221 221 221
221 221 221
221 221 221
221 221 221
221 221 221
221 221 221
221 221 221
221 221 221
221 221 221
221 221 221
221 221 221
221 221 221
221 221 221
221 221 221
221 221 221
221 221 221
221 221 221
221 221 221
221 221 221
221 221 221
221 221 221
221 221 221
221 221 204
221 221 204
221 221 204
221 221 204
221 221 204
221 221 204
221 221 204
221 221 204
221 221 204
221 221 204
221 221 204
221 221 204
221 221 204
204 221 204
204 221 204
204 204 204
204 204 204
0 0 255
0 0 255
204 204 187
204 204 187
204 204 187
204 204 187
204 204 187
204 204 187
187 204 187
187 187 187
187 187 170
187 187 170
187 187 170
187 187 170
187 187 170
187 187 170
170 170 170
170 170 170
170 170 153
170 170 153
170 170 153
170 170 153
153 170 153
153 153 136
153 153 136
153 153 136
170 170 153
187 187 170
187 187 170
187 187 170
187 187 170
187 187 170
187 170 153
170 170 153
187 170 170
187 170 170
170 170 153
170 170 153
170 153 136
170 153 136
170 170 153
170 170 153
170 170 153
187 187 170
170 170 153
170 170 153
170 170 153
153 153 136
170 170 153
187 187 170
187 187 187
187 204 187
187 187 187
187 187 170
170 170 153
170 170 153
170 170 153
170 170 153
170 170 170
170 170 170
170 170 170
170 170 170
170 170 170
170 170 153
170 170 153
170 170 153
170 170 153
170 170 153
170 170 153
153 153 153
153 153 136
136 136 119
136 136 119
136 136 119
119 119 102
119 119 102
119 119 102
119 119 119
136 136 119
153 153 136
170 170 153
187 187 170
204 187 187
204 204 187
221 221 204
221 221 204
221 221 204
221 221 221
221 221 221
221 221 221
221 221 221
221 221 221
221 221 221
221 221 221
221 221 221
221 221 221
221 221 221
221 221 221
221 221 221
221 238 221
238 238 221
221 238 221
221 238 221
221 238 221
221 238 221
221 238 221
221 238 221
0 0 255
0 0 255
221 238 221
221 238 221
221 238 221
221 238 221
221 238 221
221 238 221
221 238 221
221 238 221
221 238 221
221 238 221
221 238 221
238 238 221
238 238 221
238 238 221
238 238 221
238 238 238
238 238 238
238 238 238
238 238 238
238 238 238
238 238 238
238 238 238
238 238 238
238 238 238
238 238 238
238 238 238
238 238 238
238 238 238
238 238 238
238 238 238
238 238 238
238 238 238
238 238 238
238 238 238
238 238 238
238 238 238
238 238 238
238 238 238
238 238 238
238 238 238
238 238 238
238 238 238
238 238 238
238 238 238
238 238 238
238 238 238
238 238 238
238 238 238
238 238 238
238 238 238
238 238 238
238 238 238
238 238 238
238 238 238
238 238 238
238 238 238
238 238 238
238 238 221
238 238 221
238 238 238
238 238 238
238 238 238
238 238 238
238 238 221
238 238 221
238 238 221
238 238 238
238 238 238
238 238 221
238 238 221
238 238 221
238 238 238
238 238 238
238 238 238
238 238 238
238 238 238
238 238 238
238 238 238
238 238 238
238 238 238
238 238 238
238 238 238
238 238 238
238 238 238
238 238 238
238 238 238
238 238 238
238 238 238
238 238 238
238 238 238
238 238 238
238 238 238
238 238 238
238 238 238
238 238 238
238 238 238
238 238 238
238 238 238
238 238 238
238 238 238
238 238 238
238 238 238
238 238 238
238 238 238
238 238 238
153 170 153
170 170 153
170 170 170
170 170 153
153 170 153
153 170 153
170 170 153
170 170 153
170 187 170
187 187 187
187 204 187
204 204 187
204 204 204
204 221 204
221 221 204
221 221 204
221 221 204
221 221 204
204 204 204
204 204 187
204 204 204
204 204 204
204 204 204
204 204 204
204 204 204
204 204 187
204 204 204
204 204 187
204 204 187
204 204 187
204 204 170
187 187 153
187 187 170
204 204 187
221 221 204
221 221 204
221 221 221
221 221 221
221 221 221
221 221 221
221 221 221
221 221 221
221 221 221
221 221 221
221 221 221
221 221 221
221 221 221
221 221 221
221 221 221
221 221 221
221 221 221
221 221 221
221 238 221
221 238 221
221 238 221
221 238 221
221 238 221
221 238 221
221 238 221
221 238 221
221 238 221
221 221 221
221 238 221
221 238 221
221 221 221
221 221 221
221 221 221
221 221 221
221 221 221
221 221 221
221 221 221
221 221 221
221 221 221
221 221 221
221 221 221
221 221 221
221 221 221
221 221 221
221 221 221
221 221 221
221 221 221
221 221 221
221 221 221
221 221 221
221 221 221
221 221 221
221 221 221
221 221 204
221 221 204
221 221 204
221 221 204
221 221 204
221 221 204
221 221 204
221 221 204
221 221 204
221 221 204
221 221 204
221 221 204
221 221 204
221 221 204
221 221 204
221 221 204
204 221 204
204 204 204
204 204 204
0 0 255
0 0 255
204 204 187
204 204 187
204 204 187
204 204 187
204 204 187
204 204 187
204 204 187
204 204 187
204 204 187
187 187 187
187 187 187
187 187 187
187 187 187
187 187 170
187 187 170
187 187 170
187 187 170
187 187 170
170 170 170
170 170 153
170 170 153
170 170 153
170 153 136
153 153 136
170 170 153
170 170 153
187 187 170
187 187 170
187 187 170
187 187 170
187 187 170
187 187 170
187 187 170
187 187 170
187 187 170
170 170 153
153 153 136
153 153 119
170 153 136
170 170 153
170 170 153
187 187 170
187 187 170
187 187 170
170 170 153
170 170 153
170 170 153
170 170 170
187 187 170
187 187 187
204 204 187
187 187 170
170 170 170
170 170 153
170 170 153
170 170 153
170 170 153
170 170 170
170 170 170
170 170 170
170 170 170
170 170 170
170 170 170
170 170 170
170 170 153
170 170 170
170 170 153
170 170 170
170 170 153
170 170 153
170 170 153
170 170 153
153 153 153
153 153 153
170 170 153
170 170 170
187 187 170
187 187 187
187 187 187
204 204 187
204 204 187
204 204 204
204 204 204
221 221 204
221 221 204
221 221 221
221 221 221
221 221 221
221 221 221
221 221 221
221 221 221
221 221 221
221 221 221
221 221 221
221 221 221
221 221 221
221 221 221
221 238 221
221 238 221
221 238 221
221 238 221
221 238 221
221 238 221
221 238 221
221 238 221
0 0 255
0 0 255
221 238 221
221 238 221
221 238 221
221 238 221
221 238 221
221 238 221
221 238 221
221 238 221
221 238 221
221 238 221
221 238 221
221 238 221
238 238 221
221 238 221
238 238 221
238 238 238
238 238 238
238 238 238
238 238 238
238 238 238
238 238 238
238 238 238
238 238 238
238 238 238
238 238 238
238 238 238
238 238 238
238 238 238
238 238 238
238 238 238
238 238 238
238 238 238
238 238 238
238 238 238
238 238 238
238 238 238
238 238 238
238 238 238
238 238 238
238 238 238
238 238 238
238 238 238
238 238 238
238 238 238
238 238 238
238 238 238
238 238 238
238 238 238
238 238 238
238 238 238
238 238 238
238 238 238
238 238 238
238 238 238
238 238 238
238 238 238
238 238 238
238 238 221
221 238 221
238 238 221
238 238 221
238 238 221
238 238 221
238 238 221
238 238 221
238 238 221
238 238 221
238 238 221
238 238 221
238 238 221
238 238 221
221 238 221
221 238 221
238 238 221
238 238 221
238 238 221
238 238 238
238 238 238
238 238 238
238 238 238
238 238 221
238 238 238
238 238 238
238 238 238
238 238 238
238 238 238
238 238 238
238 238 238
238 238 238
238 238 238
238 238 238
238 238 238
238 238 238
238 238 238
238 238 238
238 238 238
238 238 238
238 238 238
238 238 238
238 238 238
238 238 238
238 238 238
238 238 238
238 238 238
238 238 238
153 153 153
170 170 153
170 170 153
153 170 153
153 170 153
153 170 153
153 170 153
170 170 153
170 187 170
187 187 170
187 204 187
204 204 187
204 204 187
204 204 204
221 221 204
221 221 204
204 204 204
204 204 204
204 204 187
204 204 187
204 204 204
204 204 204
204 204 204
204 204 204
204 204 204
204 204 187
204 204 187
204 204 187
204 204 187
204 204 170
187 187 153
187 187 170
204 204 187
221 221 204
221 221 204
221 221 221
221 221 221
221 221 221
221 221 221
221 221 221
221 221 221
221 221 221
221 221 221
221 221 221
221 221 221
221 221 221
221 221 221
221 221 221
221 221 221
221 221 221
221 221 221
221 238 221
221 238 221
221 238 221
221 238 221
221 238 221
221 238 221
221 238 221
221 238 221
221 238 221
221 238 221
221 221 221
221 221 221
221 221 221
221 221 221
221 221 221
221 221 221
221 221 221
221 221 221
221 221 221
221 221 221
221 221 221
221 221 221
221 221 221
221 221 221
221 221 221
221 221 221
221 221 221
221 221 221
221 221 221
221 221 221
221 221 221
221 221 221
221 221 221
221 221 221
221 221 204
221 221 204
221 221 204
221 221 204
221 221 204
221 221 204
221 221 204
221 221 204
221 221 204
221 221 204
221 221 204
221 221 204
221 221 204
221 221 204
221 221 204
221 221 204
221 221 204
221 221 204
221 221 204
221 221 204
204 204 204
0 0 255
0 0 255
204 204 187
204 204 187
204 204 187
204 204 187
204 204 187
204 204 187
204 204 187
204 204 187
204 204 187
204 204 187
204 204 187
187 204 187
187 187 187
187 187 187
187 187 170
187 187 170
187 187 170
187 187 170
187 187 170
187 187 170
170 170 170
170 170 153
170 170 153
170 153 136
153 153 136
170 170 153
170 170 153
170 170 153
187 187 170
187 187 170
187 187 170
187 187 170
187 187 170
187 187 170
170 170 170
170 170 153
170 170 153
153 153 136
153 153 136
170 170 153
170 170 153
170 170 153
187 170 153
187 187 170
170 170 153
170 170 153
170 170 153
170 170 153
187 187 170
187 187 187
204 204 187
204 204 187
187 187 170
170 170 153
170 170 153
170 170 153
170 170 153
170 170 170
170 170 170
170 170 170
170 170 170
170 170 170
170 170 170
170 187 170
187 187 170
187 187 170
187 187 170
187 187 170
187 187 170
187 187 170
187 187 170
187 187 170
187 187 170
187 187 170
187 187 170
187 187 187
187 187 187
204 204 187
204 204 204
204 204 204
204 204 204
204 204 204
204 204 204
204 204 204
204 204 204
221 221 204
221 221 204
221 221 221
221 221 221
221 221 221
221 221 221
221 221 221
221 221 221
221 221 221
221 221 221
221 221 221
221 221 221
221 238 221
221 221 221
221 238 221
221 238 221
221 238 221
221 238 221
221 238 221
221 238 221
0 0 255
0 0 255
221 238 221
221 238 221
221 238 221
221 238 221
221 238 221
221 238 221
221 238 221
221 238 221
221 238 221
221 238 221
221 238 221
221 238 221
221 238 221
238 238 221
238 238 221
238 238 221
238 238 221
238 238 221
238 238 238
238 238 238
238 238 238
238 238 238
238 238 238
238 238 238
238 238 238
238 238 238
238 238 238
238 238 238
238 238 238
238 238 238
238 238 238
238 238 238
238 238 238
238 238 238
238 238 238
238 238 238
238 238 238
238 238 238
238 238 238
238 238 238
238 238 238
238 238 238
238 238 238
238 238 238
238 238 238
238 238 238
238 238 238
238 238 238
238 238 238
238 238 238
238 238 238
238 238 238
238 238 238
238 238 238
238 238 238
238 238 221
238 238 221
238 238 221
238 238 221
238 238 238
238 238 221
238 238 221
238 238 221
238 238 238
238 238 221
221 238 221
221 238 221
221 238 221
238 238 221
238 238 221
238 238 221
238 238 221
221 238 221
238 238 221
238 238 221
221 238 221
238 238 221
238 238 221
238 238 238
238 238 238
238 238 238
238 238 221
238 238 238
238 238 238
238 238 238
238 238 238
238 238 238
238 238 238
238 238 238
238 238 238
238 238 238
238 238 238
238 238 238
238 238 238
238 238 238
238 238 238
238 238 238
238 238 238
238 238 238
238 238 238
238 238 238
238 238 238
238 238 238
238 238 238
238 238 238
153 153 153
153 153 153
153 170 153
153 170 153
153 170 153
170 170 153
170 170 153
170 170 170
170 187 170
170 187 170
187 187 187
204 204 187
204 204 187
204 204 187
204 204 204
204 221 204
204 204 204
204 204 187
204 204 187
204 204 204
204 204 187
204 204 187
204 204 204
204 204 204
204 204 187
204 204 187
204 204 187
204 204 170
204 187 170
187 187 153
187 187 170
204 204 204
221 221 204
221 221 204
221 221 221
221 221 221
221 221 221
221 221 221
221 221 221
221 221 221
221 221 221
221 221 221
221 221 221
221 221 221
221 221 221
221 221 221
221 221 221
221 221 221
221 221 221
221 221 221
221 238 221
221 238 221
221 238 221
221 238 221
221 238 221
221 238 221
221 238 221
221 238 221
221 238 221
221 238 221
221 238 221
221 221 221
221 221 221
221 221 221
221 221 221
221 221 221
221 221 221
221 221 221
221 221 221
221 221 221
221 221 221
221 221 221
221 221 221
221 221 221
221 221 221
221 221 221
221 221 221
221 221 221
221 221 221
221 221 221
221 221 221
221 221 221
221 221 221
221 221 221
221 221 221
221 221 221
221 221 221
221 221 204
221 221 204
221 221 204
221 221 204
221 221 204
221 221 204
221 221 204
221 221 204
221 221 204
221 221 204
221 221 204
221 221 204
221 221 204
221 221 204
221 221 204
221 221 204
221 221 204
204 221 204
204 204 204
0 0 255
0 0 255
204 204 204
204 204 187
204 204 187
204 204 187
204 204 187
204 204 187
204 204 187
204 204 187
204 204 187
204 204 187
204 204 187
204 204 187
204 204 187
187 204 187
187 187 187
187 187 187
187 187 187
187 187 170
187 187 170
187 187 170
187 187 170
187 170 170
170 170 153
170 170 153
153 153 136
153 153 136
170 153 153
170 170 153
187 187 170
187 187 170
187 187 170
170 170 153
170 170 153
187 187 170
187 187 170
187 170 153
170 170 153
170 153 136
153 153 119
170 153 136
187 187 170
187 187 170
170 170 153
170 170 153
170 170 153
187 170 153
170 170 153
170 170 153
170 170 170
187 187 187
204 204 187
204 204 187
187 187 170
170 170 170
170 170 153
170 170 170
170 170 170
170 170 170
187 187 170
187 187 170
187 187 170
187 187 170
187 187 170
187 187 170
187 187 170
187 187 170
187 187 170
187 187 187
187 187 187
187 187 187
187 187 187
187 187 187
187 187 187
187 187 187
187 204 187
204 204 187
204 204 187
204 204 187
204 204 204
204 204 204
204 204 204
204 204 204
221 221 204
204 204 204
204 204 204
204 221 204
204 204 204
221 221 204
221 221 204
221 221 204
221 221 221
221 221 221
221 221 221
221 221 221
221 221 221
221 221 221
221 238 221
221 238 221
221 238 221
221 238 221
221 238 221
221 238 221
221 238 221
221 238 221
221 238 221
0 0 255
0 0 255
221 238 221
221 238 221
221 238 221
221 238 221
221 238 221
221 238 221
221 238 221
221 238 221
221 238 221
221 238 221
221 238 221
221 238 221
221 238 221
221 238 221
221 238 221
238 238 221
238 238 221
238 238 221
238 238 221
238 238 238
238 238 238
238 238 238
238 238 238
238 238 238
238 238 238
238 238 238
238 238 238
238 238 238
238 238 238
238 238 238
238 238 238
238 238 238
238 238 238
238 238 238
238 238 238
238 238 238
238 238 238
238 238 238
238 238 238
238 238 238
238 238 238
238 238 238
238 238 238
238 238 238
238 238 238
238 238 238
238 238 238
238 238 238
238 238 238
238 238 238
238 238 238
238 238 238
238 238 238
238 238 221
238 238 238
238 238 221
238 238 221
238 238 221
238 238 221
238 238 221
221 238 221
238 238 221
238 238 221
238 238 221
238 238 221
238 238 221
221 238 221
221 238 221
238 238 221
221 238 221
238 238 221
238 238 221
221 238 221
238 238 221
238 238 221
238 238 221
221 238 221
221 238 221
221 238 221
221 238 221
221 238 221
238 238 221
238 238 221
238 238 238
238 238 238
238 238 238
238 238 238
238 238 238
238 238 238
238 238 238
238 238 238
238 238 238
238 238 238
238 238 238
238 238 238
238 238 238
238 238 238
238 238 238
238 238 238
238 238 238
238 238 238
238 238 238
238 238 238
238 238 238
238 238 238
136 153 136
153 153 153
153 153 153
153 170 153
170 170 153
170 187 170
187 187 170
170 187 170
170 187 170
170 170 170
187 187 170
187 187 187
204 204 187
204 204 187
204 204 187
204 204 204
204 204 187
204 204 187
204 204 187
204 204 187
204 204 204
204 204 204
204 204 204
204 204 204
204 204 187
204 204 187
204 204 170
204 187 170
187 187 153
204 187 170
204 204 204
221 221 204
221 221 204
221 221 204
221 221 221
221 221 221
221 221 221
221 221 221
221 221 221
221 221 221
221 221 221
221 221 221
221 221 221
221 221 221
221 221 221
221 221 221
221 221 221
221 221 221
221 238 221
221 238 221
221 238 221
221 238 221
221 238 221
221 238 221
221 238 221
221 238 221
221 238 221
221 238 221
221 238 221
221 238 221
221 238 221
221 238 221
221 221 221
221 221 221
221 221 221
221 221 221
221 221 221
221 221 221
221 221 221
221 221 221
221 221 221
221 221 221
221 221 221
221 221 221
221 221 221
221 221 221
221 221 221
221 221 221
221 221 221
221 221 221
221 221 221
221 221 221
221 221 221
221 221 221
221 221 221
221 221 221
221 221 204
221 221 204
221 221 204
221 221 204
221 221 204
221 221 204
221 221 204
221 221 204
221 221 204
221 221 204
221 221 204
221 221 204
221 221 204
221 221 204
221 221 204
221 221 204
221 221 204
221 221 204
221 221 204
221 221 204
0 0 255
0 0 255
204 204 204
204 204 204
204 204 204
204 204 187
204 204 187
204 204 187
204 204 187
204 204 187
204 204 187
204 204 187
204 204 187
204 204 187
204 204 187
204 204 187
204 204 187
204 204 187
187 204 187
187 187 187
187 187 187
187 187 170
187 187 170
187 187 170
170 170 170
170 170 153
170 170 153
153 153 136
153 153 136
170 153 136
170 170 153
187 187 170
187 187 170
170 170 153
170 170 136
170 170 153
170 170 136
170 170 136
170 170 153
170 153 136
170 153 136
170 170 153
187 187 170
204 204 187
170 170 153
153 153 136
170 170 153
187 187 170
170 170 153
170 170 153
170 170 153
187 187 170
187 187 187
187 187 187
187 187 170
170 170 170
170 170 153
170 170 170
170 187 170
187 187 170
187 187 170
187 187 170
187 187 170
187 187 170
187 187 170
187 187 170
187 187 187
187 187 187
187 187 187
187 187 187
187 187 187
187 187 187
204 204 187
204 204 187
204 204 187
204 204 187
204 204 187
204 204 187
204 204 204
204 204 204
204 204 204
204 204 204
221 221 204
221 221 204
221 221 204
221 221 204
221 221 204
221 221 204
221 221 204
221 221 204
221 221 204
221 221 204
221 221 204
221 221 221
221 221 204
221 221 221
221 221 221
221 221 221
221 221 221
221 238 221
221 238 221
221 238 221
221 238 221
221 238 221
221 238 221
221 238 221
221 238 221
0 0 255
0 0 255
221 238 221
221 238 221
221 238 221
221 238 221
221 238 221
221 238 221
221 238 221
221 238 221
221 238 221
221 238 221
221 238 221
221 238 221
221 238 221
238 238 221
238 238 221
221 238 221
238 238 221
221 238 221
238 238 221
238 238 238
238 238 238
238 238 238
238 238 238
238 238 238
238 238 238
238 238 221
238 238 238
238 238 238
238 238 238
238 238 238
238 238 238
238 238 238
238 238 238
238 238 238
238 238 238
238 238 238
238 238 238
238 238 238
238 238 238
238 238 238
238 238 238
238 238 238
238 238 238
238 238 238
238 238 238
238 238 238
238 238 238
238 238 238
238 238 238
238 238 238
238 238 238
238 238 238
238 238 221
238 238 221
238 238 221
238 238 221
238 238 221
238 238 221
238 238 221
221 238 221
238 238 221
238 238 221
238 238 221
238 238 221
221 238 221
238 238 221
221 238 221
221 238 221
221 238 221
221 238 221
221 238 221
221 238 221
221 238 221
221 238 221
221 238 221
221 238 221
221 238 221
221 238 221
221 238 221
221 238 221
238 238 221
238 238 221
221 238 221
238 238 221
238 238 221
238 238 221
221 238 221
238 238 221
238 238 221
238 238 221
238 238 238
238 238 238
238 238 238
238 238 238
238 238 238
238 238 238
238 238 238
238 238 238
238 238 238
238 238 238
238 238 238
238 238 238
238 238 238
238 238 238
238 238 238
102 102 102
153 153 136
153 153 136
170 170 153
170 187 170
187 187 170
187 187 187
187 187 170
170 170 170
170 170 153
170 170 170
187 187 170
187 204 187
204 204 187
204 204 187
204 204 187
204 204 187
204 204 187
204 204 187
204 204 187
204 204 187
204 204 204
204 204 187
204 204 187
204 204 187
204 204 170
204 187 170
187 187 153
204 204 170
221 221 204
221 221 204
221 221 204
221 221 221
221 221 221
221 221 221
221 221 221
221 221 221
221 221 221
221 221 221
221 221 221
221 221 221
221 221 221
221 238 221
221 221 221
221 221 221
221 221 221
221 221 221
221 238 221
221 238 221
221 238 221
221 238 221
221 238 221
221 238 221
221 238 221
221 238 221
221 238 221
221 238 221
221 238 221
221 238 221
221 238 221
221 238 221
221 221 221
221 221 221
221 221 221
221 221 221
221 221 221
221 221 221
221 221 221
221 221 221
221 221 221
221 221 221
221 221 221
221 221 221
221 221 221
221 221 221
221 221 221
221 221 221
221 221 221
221 221 221
221 221 221
221 221 221
221 221 221
221 221 221
221 221 221
221 221 221
221 221 221
221 221 204
221 221 204
221 221 204
221 221 204
221 221 204
221 221 204
221 221 204
221 221 221
221 221 204
221 221 204
221 221 204
221 221 204
221 221 204
221 221 204
221 221 204
221 221 204
221 221 204
221 221 204
221 221 204
221 221 204
0 0 255
0 0 255
204 221 204
204 204 204
204 204 204
204 204 187
204 204 187
204 204 187
204 204 187
204 204 187
204 204 187
204 204 187
204 204 187
204 204 187
204 204 187
204 204 187
204 204 187
204 204 187
204 204 187
204 204 187
187 204 187
187 187 187
187 187 187
187 187 170
187 187 170
187 170 170
170 170 153
153 153 136
153 153 136
153 153 136
170 170 153
187 170 170
170 170 153
153 153 119
153 153 119
153 153 136
153 136 119
153 153 136
170 170 153
170 170 153
170 170 153
187 187 170
204 187 187
187 187 187
170 170 153
153 153 136
170 153 136
187 187 170
170 170 153
170 170 153
170 170 153
170 170 170
187 187 187
187 187 170
187 187 170
170 170 170
170 170 170
187 187 170
187 187 170
187 187 170
187 187 170
187 187 170
187 187 170
187 187 170
187 187 187
187 187 187
187 187 187
187 187 187
187 187 187
187 204 187
204 204 187
204 204 187
204 204 187
204 204 187
204 204 187
204 204 187
204 204 204
204 204 204
204 204 204
204 204 204
204 204 204
204 204 204
221 221 204
221 221 204
221 221 204
221 221 221
221 221 221
221 221 221
221 221 221
221 221 221
221 221 221
221 221 221
221 221 204
221 221 221
221 221 221
221 221 221
221 221 221
221 221 204
221 221 204
221 221 221
221 221 221
221 221 221
221 221 221
221 238 221
221 238 221
221 238 221
221 238 221
0 0 255
0 0 255
221 238 221
221 238 221
221 238 221
221 238 221
221 238 221
221 238 221
221 238 221
221 238 221
221 238 221
221 238 221
221 238 221
221 238 221
221 238 221
221 238 221
221 238 221
221 238 221
221 238 221
238 238 221
221 238 221
238 238 221
238 238 238
238 238 238
238 238 238
238 238 238
238 238 238
238 238 221
238 238 221
238 238 238
238 238 238
238 238 238
238 238 238
238 238 238
238 238 238
238 238 238
238 238 238
238 238 238
238 238 238
238 238 238
238 238 238
238 238 238
238 238 238
238 238 238
238 238 238
238 238 238
238 238 238
238 238 238
238 238 238
238 238 238
238 238 238
238 238 238
238 238 238
238 238 238
238 238 238
238 238 221
238 238 221
238 238 221
238 238 238
238 238 221
238 238 221
221 238 221
238 238 221
238 238 221
221 238 221
221 238 221
221 238 221
221 238 221
221 238 221
221 238 221
221 238 221
221 238 221
221 238 221
221 238 221
221 238 221
221 238 221
221 238 221
221 238 221
221 238 221
221 238 221
238 238 221
238 238 221
238 238 221
221 238 221
221 238 221
221 238 221
238 238 221
238 238 221
238 238 221
238 238 221
238 238 221
238 238 221
238 238 221
238 238 221
238 238 221
238 238 238
238 238 221
238 238 238
238 238 238
238 238 238
238 238 238
238 238 238
238 238 238
238 238 238
238 238 238
238 238 238
238 238 238
51 51 51
119 119 119
153 153 136
153 170 153
170 187 170
187 187 170
187 187 170
187 187 170
170 187 170
170 170 170
170 170 170
187 187 170
187 204 187
204 204 187
204 204 187
204 204 187
204 204 187
204 204 187
204 204 187
204 204 187
204 204 187
204 204 204
204 204 187
204 204 187
204 204 170
204 187 153
187 187 153
204 204 187
221 221 204
221 221 204
221 221 221
221 221 221
221 221 221
221 221 221
221 221 221
221 221 221
221 221 221
221 221 221
221 221 221
221 221 221
221 238 221
221 221 221
221 221 221
221 221 221
221 221 221
221 221 221
221 238 221
221 238 221
221 238 221
221 238 221
221 238 221
221 238 221
221 238 221
221 238 221
221 238 221
221 238 221
221 238 221
221 238 221
221 238 221
221 238 221
221 221 221
221 221 221
221 221 221
221 221 221
221 221 221
221 221 221
221 221 221
221 221 221
221 221 221
221 221 221
221 221 221
221 221 221
221 221 221
221 221 221
221 221 221
221 221 221
221 221 221
221 221 221
221 221 221
221 221 221
221 221 221
221 221 221
221 221 221
221 221 221
221 221 221
221 221 221
221 221 221
221 221 204
221 221 204
221 221 204
221 221 204
221 221 204
221 221 204
221 221 204
221 221 204
221 221 204
221 221 204
221 221 204
221 221 204
221 221 204
221 221 204
221 221 204
221 221 204
221 221 204
221 221 204
221 221 204
0 0 255
0 0 255
204 221 204
204 221 204
204 204 204
204 204 204
204 204 204
204 204 204
204 204 187
204 204 187
204 204 187
204 204 187
204 204 187
204 204 187
204 204 187
204 204 187
204 204 187
204 204 187
204 204 187
204 204 187
204 204 187
204 204 187
204 204 187
187 204 187
187 187 170
187 187 170
170 170 153
170 170 136
153 153 136
153 136 119
170 153 136
170 170 153
153 153 136
136 136 119
136 136 102
136 136 119
136 136 119
153 153 136
170 170 153
187 170 153
187 187 170
187 187 170
187 187 170
187 187 170
170 170 153
153 153 136
170 170 153
187 187 187
170 170 153
170 170 170
170 170 153
170 170 153
187 187 170
170 170 170
170 170 170
170 170 170
187 187 170
187 187 170
187 187 170
187 187 170
187 187 187
187 187 187
187 187 187
187 187 187
187 187 187
187 187 187
187 204 187
187 204 187
204 204 187
204 204 187
204 204 187
204 204 187
204 204 187
204 204 187
204 204 187
204 204 204
204 204 204
204 204 204
204 204 204
204 204 204
204 204 204
204 221 204
221 221 204
221 221 204
221 221 204
221 221 204
221 221 204
221 221 221
221 221 221
221 221 221
221 221 221
221 221 221
221 221 221
221 221 221
221 221 221
221 221 221
221 221 221
221 221 221
221 221 221
221 221 221
221 221 221
221 221 221
221 221 221
221 221 221
221 221 221
221 238 221
221 238 221
0 0 255
0 0 255
221 238 221
221 238 221
221 238 221
221 238 221
221 238 221
221 238 221
221 238 221
221 238 221
221 238 221
221 238 221
221 238 221
221 238 221
221 238 221
221 238 221
221 238 221
221 238 221
221 238 221
221 238 221
221 238 221
238 238 221
238 238 221
238 238 221
238 238 238
238 238 238
238 238 238
238 238 238
238 238 221
238 238 221
238 238 238
238 238 238
238 238 238
238 238 238
238 238 238
238 238 238
238 238 238
238 238 238
238 238 238
238 238 238
238 238 238
238 238 238
238 238 238
238 238 238
238 238 238
238 238 238
238 238 238
238 238 238
238 238 238
238 238 238
238 238 238
238 238 238
238 238 238
238 238 238
238 238 238
238 238 221
238 238 221
238 238 221
238 238 221
238 238 221
221 238 221
221 238 221
221 238 221
221 238 221
221 238 221
221 238 221
221 238 221
221 238 221
221 238 221
221 238 221
221 238 221
221 238 221
221 238 221
221 238 221
221 238 221
221 238 221
221 238 221
221 238 221
221 238 221
221 238 221
221 238 221
221 238 221
221 238 221
221 238 221
221 238 221
221 238 221
238 238 221
221 238 221
221 238 221
221 238 221
221 238 221
221 238 221
238 238 221
238 238 221
238 238 221
221 238 221
238 238 221
238 238 221
238 238 238
238 238 221
238 238 221
238 238 221
238 238 238
238 238 238
238 238 221
238 238 238
238 238 238
17 17 17
68 68 68
136 136 136
153 170 153
170 170 153
170 170 170
170 187 170
170 187 170
187 187 170
187 187 170
187 187 170
187 187 187
204 204 187
204 204 187
204 204 187
204 204 187
204 204 187
204 204 187
204 204 187
204 204 187
204 204 187
204 204 187
204 204 170
204 204 170
204 187 153
187 187 153
204 204 187
221 221 204
221 221 204
221 221 221
221 221 221
221 221 221
221 221 221
221 238 221
238 238 221
238 238 221
221 238 221
221 238 221
221 221 221
221 238 221
221 221 221
221 221 221
221 221 221
221 221 221
221 221 221
221 238 221
221 238 221
221 238 221
221 238 221
221 238 221
221 238 221
221 238 221
221 238 221
221 238 221
221 238 221
221 238 221
221 238 221
221 238 221
221 238 221
221 238 221
221 221 221
221 221 221
221 221 221
221 221 221
221 221 221
221 221 221
221 221 221
221 221 221
221 221 221
221 221 221
221 221 221
221 221 221
221 221 221
221 221 221
221 221 221
221 221 221
221 221 221
221 221 221
221 221 221
221 221 221
221 221 221
221 221 221
221 221 221
221 221 221
221 221 221
221 221 204
221 221 204
221 221 204
221 221 204
221 221 204
221 221 204
221 221 204
221 221 204
221 221 221
221 221 204
221 221 204
221 221 204
221 221 204
221 221 204
221 221 204
221 221 204
221 221 204
221 221 204
221 221 204
221 221 204
221 221 204
0 0 255
0 0 255
221 221 204
221 221 204
221 221 204
204 221 204
204 204 204
204 204 204
204 204 204
204 204 204
204 204 187
204 204 187
204 204 187
204 204 187
204 204 187
204 204 187
204 204 187
204 204 187
204 204 187
204 204 187
204 204 187
204 204 187
204 204 187
204 204 187
204 204 187
187 187 187
187 187 170
170 170 153
153 153 136
136 136 119
153 136 119
153 153 136
153 153 119
153 136 119
136 136 102
136 119 102
136 119 102
136 136 119
153 153 119
170 153 136
170 170 153
170 170 153
170 170 153
187 187 170
170 170 153
153 153 136
170 170 153
187 187 187
170 170 170
170 170 153
170 170 153
170 170 153
187 187 170
170 170 170
170 170 170
187 187 170
187 187 170
187 187 170
187 187 170
187 187 187
187 187 187
187 187 187
187 187 187
187 187 187
187 204 187
204 204 187
204 204 187
204 204 187
204 204 187
204 204 187
204 204 187
204 204 187
204 204 187
204 204 204
204 204 204
204 204 204
204 204 204
204 204 204
204 204 204
204 204 204
204 221 204
204 221 204
221 221 204
221 221 204
221 221 204
221 221 204
221 221 204
221 221 221
221 221 221
221 221 221
221 221 221
221 221 221
221 221 221
221 221 221
221 221 221
221 221 221
221 221 221
221 221 221
221 221 221
221 221 221
221 221 221
221 221 221
221 221 221
221 221 221
221 221 221
221 238 221
221 238 221
0 0 255
0 0 255
221 238 221
221 238 221
221 238 221
221 238 221
221 238 221
221 238 221
221 238 221
221 238 221
221 238 221
221 238 221
221 238 221
221 238 221
221 238 221
221 238 221
221 238 221
221 238 221
221 238 221
221 238 221
221 238 221
238 238 221
238 238 221
238 238 221
238 238 221
238 238 238
238 238 238
238 238 221
238 238 238
238 238 238
238 238 221
238 238 221
238 238 238
238 238 238
238 238 238
238 238 238
238 238 238
238 238 238
238 238 238
238 238 238
238 238 238
238 238 238
238 238 238
238 238 238
238 238 238
238 238 238
238 238 238
238 238 238
238 238 238
238 238 238
238 238 238
238 238 238
238 238 221
238 238 238
238 238 238
238 238 238
238 238 221
238 238 221
221 238 221
238 238 221
221 238 221
221 238 221
221 238 221
221 238 221
221 238 221
221 238 221
221 238 221
221 238 221
221 238 221
221 238 221
221 238 221
221 238 221
221 238 221
221 238 221
221 238 221
221 238 221
221 238 221
221 238 221
221 238 221
221 238 221
221 238 221
221 238 221
221 238 221
221 238 221
221 238 221
221 238 221
221 238 221
221 238 221
221 238 221
221 238 221
221 238 221
238 238 221
221 238 221
238 238 221
238 238 221
221 238 221
221 238 221
238 238 221
238 238 221
221 238 221
238 238 221
238 238 238
238 238 221
238 238 221
238 238 221
238 238 221
238 238 221
17 17 17
17 34 34
85 102 85
153 153 153
153 170 153
153 170 153
170 170 153
170 170 153
170 187 170
170 187 170
187 187 170
187 204 187
204 204 187
204 204 187
187 204 187
204 204 187
204 204 187
204 204 187
204 204 204
204 204 187
204 204 187
204 204 170
204 187 170
187 187 153
204 187 153
204 204 187
221 221 204
221 221 221
221 221 221
221 221 221
221 221 221
221 221 221
238 238 221
238 238 221
238 238 221
238 238 221
238 238 221
238 238 221
221 238 221
221 238 221
221 221 221
221 221 221
221 221 221
221 238 221
221 238 221
221 238 221
221 238 221
221 238 221
221 238 221
221 238 221
221 238 221
221 238 221
221 238 221
221 238 221
221 238 221
221 238 221
221 238 221
221 238 221
221 238 221
221 238 221
221 238 221
221 221 221
221 221 221
221 221 221
221 238 221
221 238 221
221 238 221
221 238 221
221 221 221
221 221 221
221 221 221
221 221 221
221 221 221
221 221 221
221 221 221
221 221 221
221 221 221
221 221 221
221 221 221
221 221 221
221 221 221
221 221 221
221 221 221
221 221 221
221 221 221
221 221 204
221 221 204
221 221 204
221 221 204
221 221 204
221 221 204
221 221 221
221 221 204
221 221 221
221 221 204
221 221 221
221 221 204
221 221 204
221 221 204
221 221 204
221 221 204
221 221 204
221 221 204
221 221 204
221 221 204
221 221 204
0 0 255
0 0 255
221 221 204
221 221 204
221 221 204
221 221 204
204 221 204
204 221 204
204 221 204
204 204 204
204 204 204
204 204 204
204 204 204
204 204 204
204 204 204
204 204 204
204 204 187
204 204 204
204 204 187
204 204 187
204 204 187
204 204 187
204 204 187
204 204 187
204 204 187
204 204 187
187 187 187
187 187 170
187 170 170
170 153 136
153 153 119
153 153 136
170 153 136
153 153 136
153 136 119
136 119 102
119 102 85
136 119 102
119 119 102
136 136 119
136 136 119
153 153 136
170 170 153
170 170 153
170 170 153
170 170 153
170 170 153
187 187 170
170 170 170
170 170 153
170 170 153
170 170 153
170 170 170
170 187 170
187 187 170
187 187 170
187 187 170
187 187 187
187 187 187
187 187 187
187 187 187
187 204 187
204 204 187
204 204 187
204 204 187
204 204 187
204 204 187
204 204 187
204 204 187
204 204 187
204 204 187
204 204 187
204 204 204
204 204 204
204 204 204
204 204 204
204 204 204
204 204 204
204 204 204
204 204 204
221 221 204
221 221 204
221 221 204
221 221 204
221 221 204
221 221 204
221 221 204
221 221 221
221 221 221
221 221 221
221 221 221
221 221 221
221 221 221
221 221 221
221 221 221
221 221 221
221 221 221
221 221 221
221 221 221
221 221 221
221 221 221
221 221 221
221 221 221
221 221 221
221 221 221
221 221 221
221 238 221
0 0 255
0 0 255
221 238 221
221 238 221
221 238 221
221 238 221
221 238 221
221 238 221
221 238 221
221 238 221
221 238 221
221 238 221
221 238 221
221 238 221
221 238 221
221 238 221
221 238 221
221 238 221
221 238 221
221 238 221
221 238 221
238 238 221
238 238 221
221 238 221
238 238 221
238 238 221
238 238 238
238 238 221
238 238 221
238 238 238
238 238 238
238 238 238
238 238 238
238 238 238
238 238 238
238 238 238
238 238 238
238 238 238
238 238 238
238 238 238
238 238 238
238 238 238
238 238 238
238 238 238
238 238 238
238 238 238
238 238 238
238 238 238
238 238 238
238 238 238
238 238 238
238 238 238
238 238 238
238 238 221
238 238 238
238 238 221
238 238 221
238 238 221
238 238 221
238 238 221
221 238 221
221 238 221
221 238 221
221 238 221
221 238 221
221 238 221
221 238 221
221 238 221
221 238 221
221 238 221
221 238 221
221 238 221
221 238 221
221 238 221
221 238 221
221 238 221
221 238 221
221 238 221
221 238 221
221 238 221
221 238 221
221 238 221
221 238 221
221 238 221
221 238 221
221 238 221
221 238 221
221 238 221
221 238 221
221 238 221
221 238 221
221 238 221
221 238 221
221 238 221
221 238 221
221 238 221
221 238 221
221 238 221
238 238 221
221 238 221
221 238 221
238 238 221
238 238 221
238 238 238
238 238 238
238 238 221
238 238 221
0 17 17
0 17 0
34 34 34
85 102 102
153 153 136
153 153 153
153 153 136
153 153 136
153 170 153
153 170 136
153 153 136
170 170 153
187 187 170
204 204 187
187 204 187
204 204 187
204 204 187
221 221 204
204 204 187
204 204 187
204 204 170
204 187 153
187 187 153
204 187 170
204 204 187
221 221 204
221 221 221
221 238 221
221 238 221
221 238 221
221 238 221
221 238 221
221 238 221
221 238 221
238 238 221
238 238 221
238 238 221
221 238 221
221 221 221
221 221 221
221 221 221
221 221 221
221 238 221
221 238 221
221 238 221
221 238 221
221 238 221
221 238 221
221 238 221
221 238 221
221 238 221
221 238 221
221 238 221
221 238 221
221 238 221
221 238 221
221 238 221
221 238 221
221 238 221
221 238 221
221 221 221
221 221 221
221 221 221
221 221 221
221 238 221
221 238 221
221 238 221
221 238 221
221 221 221
221 221 221
221 221 221
221 221 221
221 221 221
221 221 221
221 221 221
221 221 221
221 221 221
221 221 221
221 221 221
221 221 221
221 221 221
221 221 221
221 221 221
221 221 221
221 221 204
221 221 204
221 221 204
221 221 204
221 221 204
221 221 204
221 221 221
221 221 221
221 221 221
221 221 221
221 221 221
221 221 204
221 221 204
221 221 221
221 221 204
221 221 204
221 221 204
221 221 204
221 221 204
221 221 204
221 221 204
221 221 204
0 0 255
0 0 255
221 221 204
221 221 204
221 221 204
221 221 204
221 221 204
221 221 204
221 221 204
221 221 204
204 221 204
204 221 204
204 221 204
204 221 204
204 204 204
204 204 204
204 204 204
204 204 204
204 204 204
204 204 187
204 204 187
204 204 187
204 204 187
204 204 187
204 204 187
204 204 187
204 204 187
204 204 187
187 187 187
187 187 170
170 170 153
170 170 153
170 153 136
153 153 136
136 136 119
102 102 85
119 102 85
136 119 102
136 136 119
136 136 119
119 119 102
119 119 102
153 153 136
170 170 153
170 170 153
153 153 136
153 153 136
170 170 153
170 170 153
153 170 153
170 170 153
170 170 170
187 187 170
187 187 170
187 187 187
187 187 187
187 187 187
187 187 187
187 187 187
204 204 187
204 204 187
187 187 187
204 204 187
204 204 187
204 204 187
204 204 187
204 204 187
204 204 187
204 204 204
204 204 204
204 204 204
204 204 204
204 204 204
204 204 204
204 204 204
204 204 204
204 204 204
204 204 204
204 221 204
204 221 204
204 221 204
221 221 204
204 221 204
221 221 204
221 221 204
221 221 204
221 221 204
221 221 221
221 221 221
221 221 221
221 221 221
221 221 221
221 221 221
221 221 221
221 221 221
221 221 221
221 221 221
221 221 221
221 221 221
221 221 221
221 221 221
221 221 221
221 221 221
221 221 221
221 221 221
221 221 221
221 238 221
0 0 255
0 0 255
221 238 221
221 238 221
221 238 221
221 238 221
221 238 221
221 238 221
221 238 221
221 238 221
221 238 221
221 238 221
221 238 221
221 238 221
221 238 221
221 238 221
221 238 221
221 238 221
221 238 221
221 238 221
221 238 221
221 238 221
221 238 221
238 238 221
238 238 221
221 238 221
238 238 221
238 238 221
221 238 221
238 238 221
238 238 238
238 238 238
238 238 238
238 238 238
238 238 238
238 238 238
238 238 238
238 238 238
238 238 238
238 238 238
238 238 238
238 238 238
238 238 238
238 238 238
238 238 238
238 238 238
238 238 238
238 238 238
238 238 238
238 238 238
238 238 238
238 238 221
238 238 221
238 238 221
238 238 221
238 238 221
238 238 221
238 238 221
238 238 221
238 238 221
238 238 221
221 238 221
221 238 221
221 238 221
221 238 221
221 238 221
221 238 221
221 238 221
221 238 221
221 238 221
221 238 221
221 238 221
221 238 221
221 238 221
221 238 221
221 238 221
221 238 221
221 238 221
221 238 221
221 238 221
221 238 221
221 238 221
221 238 221
221 238 221
221 238 221
221 238 221
221 238 221
221 238 221
221 238 221
221 238 221
221 238 221
221 238 221
221 238 221
221 238 221
221 238 221
221 238 221
221 238 221
221 238 221
221 238 221
221 238 221
221 238 221
221 238 221
238 238 221
238 238 221
238 238 221
238 238 221
221 238 221
0 0 0
0 0 0
0 0 0
17 34 34
102 102 102
153 153 153
153 153 136
153 153 136
153 153 136
153 153 136
136 153 119
136 153 119
170 170 153
187 204 187
204 204 187
204 204 187
204 204 187
221 221 204
204 204 187
204 204 170
187 187 153
187 187 153
204 204 170
221 221 204
221 221 204
221 221 221
221 238 221
221 238 221
221 238 221
221 238 221
221 238 221
221 238 221
221 238 221
221 238 221
238 238 221
238 238 221
221 238 221
221 221 221
221 221 221
221 221 221
221 221 221
221 238 221
221 238 221
221 238 221
221 238 221
221 238 221
221 238 221
221 238 221
221 238 221
221 238 221
221 238 221
221 238 221
221 238 221
221 238 221
221 238 221
221 238 221
221 238 221
221 238 221
221 238 221
221 238 221
221 221 221
221 221 221
221 238 221
221 238 221
221 238 221
221 238 221
221 238 221
221 238 221
221 221 221
221 221 221
221 238 221
221 238 221
221 238 221
221 238 221
221 221 221
221 221 221
221 221 221
221 221 221
221 221 221
221 221 221
221 221 221
221 221 221
221 221 221
221 221 221
221 221 204
221 221 204
221 221 221
221 221 221
221 221 221
221 221 221
221 221 221
221 221 221
221 221 221
221 221 221
221 221 204
221 221 221
221 221 221
221 221 221
221 221 221
221 221 204
221 221 221
221 221 204
221 221 204
221 221 204
221 221 204
221 221 204
0 0 255
0 0 255
221 221 204
221 221 204
221 221 204
221 221 204
221 221 204
221 221 204
221 221 204
221 221 204
221 221 204
204 221 204
221 221 204
204 221 204
204 221 204
204 204 204
204 204 204
204 204 204
204 204 187
204 204 187
204 204 187
204 204 187
204 204 187
204 204 187
204 204 187
204 204 187
204 204 187
204 204 187
204 204 187
204 204 187
187 187 170
170 170 153
170 153 136
153 153 119
119 119 102
68 68 51
85 85 68
102 102 85
102 102 85
102 102 85
102 102 85
102 102 85
136 136 119
153 153 136
153 153 136
153 153 136
170 170 153
170 170 170
187 187 170
187 187 170
187 187 170
187 187 170
187 187 187
187 204 187
187 204 187
204 204 187
204 204 187
204 204 187
204 204 187
204 204 187
204 204 187
204 204 187
204 204 187
204 204 187
204 204 187
204 204 187
204 204 187
204 204 187
204 204 204
204 204 204
204 204 204
204 204 204
204 204 204
204 204 204
204 204 204
204 204 204
204 204 204
204 221 204
204 221 204
204 221 204
204 221 204
221 221 204
204 221 204
204 221 204
221 221 204
221 221 204
221 221 221
221 221 221
221 221 221
221 221 221
221 221 221
221 221 221
221 221 221
221 221 221
221 221 221
221 221 221
221 221 221
221 221 221
221 221 221
221 221 221
221 221 221
221 221 221
221 221 221
221 221 221
221 221 221
221 221 221
221 221 221
0 0 255
0 0 255
221 238 221
221 238 221
221 238 221
221 238 221
221 238 221
221 238 221
221 238 221
221 238 221
221 238 221
221 238 221
221 238 221
221 238 221
221 238 221
221 238 221
221 238 221
221 238 221
221 238 221
221 238 221
221 238 221
221 238 221
221 238 221
221 238 221
221 238 221
221 238 221
221 238 221
238 238 221
238 238 221
221 238 221
238 238 221
238 238 221
238 238 238
238 238 238
238 238 238
238 238 238
238 238 238
238 238 238
238 238 238
238 238 238
238 238 238
238 238 238
238 238 238
238 238 238
238 238 238
238 238 238
238 238 238
238 238 238
238 238 238
238 238 238
238 238 238
238 238 238
238 238 238
238 238 221
238 238 221
238 238 221
238 238 221
221 238 221
238 238 221
221 238 221
221 238 221
221 238 221
221 238 221
221 238 221
221 238 221
221 238 221
221 238 221
221 238 221
221 238 221
221 238 221
221 238 221
221 238 221
221 238 221
221 238 221
221 238 221
221 238 221
221 238 221
221 238 221
221 238 221
221 238 221
221 238 221
221 238 221
221 238 221
221 238 221
221 238 221
221 238 221
221 238 221
221 238 221
221 238 221
221 238 221
221 238 221
221 238 221
221 238 221
221 238 221
221 238 221
221 238 221
221 238 221
221 238 221
221 238 221
221 238 221
238 238 221
221 238 221
221 238 221
238 238 221
221 238 221
238 238 221
238 238 221
0 0 0
0 0 0
17 17 17
17 17 17
51 51 51
119 136 119
170 170 153
170 170 153
170 170 153
153 153 136
153 153 119
153 153 119
170 170 153
187 187 187
204 204 187
204 204 187
204 204 187
204 204 187
204 204 170
187 187 153
204 187 170
204 204 187
221 221 204
221 221 221
221 238 221
221 238 221
238 238 221
238 238 221
238 238 221
221 238 221
221 238 221
221 238 221
221 238 221
221 238 221
221 238 221
221 238 221
221 221 221
221 221 221
221 221 221
221 221 221
221 238 221
221 238 221
221 238 221
221 238 221
221 238 221
221 238 221
238 238 221
221 238 221
221 238 221
238 238 221
221 238 221
221 238 221
221 238 221
221 238 221
221 238 221
221 238 221
221 238 221
221 238 221
221 238 221
221 221 221
221 221 221
221 221 221
221 221 221
221 238 221
221 238 221
221 238 221
221 238 221
221 238 221
221 238 221
221 238 221
221 238 221
221 238 221
221 238 221
221 238 221
221 221 221
221 221 221
221 221 221
221 221 221
221 221 221
221 221 221
221 221 221
221 221 221
221 221 221
221 221 221
221 221 221
221 221 221
221 221 221
221 221 221
221 221 221
221 221 221
221 221 221
221 221 221
221 221 221
221 221 221
221 221 221
221 221 221
221 221 221
221 221 221
221 221 221
221 221 204
221 221 204
221 221 204
221 221 204
221 221 204
221 221 204
221 221 204
0 0 255
0 0 255
221 221 204
221 221 204
221 221 204
221 221 204
221 221 204
221 221 204
221 221 204
221 221 204
221 221 204
221 221 204
221 221 204
221 221 204
204 221 204
204 221 204
204 221 204
204 221 204
204 204 204
204 204 187
204 204 187
204 204 187
204 204 187
204 204 204
204 204 187
204 204 187
204 204 187
204 204 187
204 204 187
204 204 187
204 204 187
187 187 187
187 187 170
170 170 153
153 153 136
102 102 85
85 85 85
102 102 85
85 102 85
119 119 102
119 136 119
136 136 119
153 153 136
170 170 153
170 170 170
187 187 170
187 187 170
187 187 187
204 204 187
204 204 187
204 204 187
204 204 187
204 204 187
204 204 187
204 204 187
204 204 187
204 204 187
204 204 187
204 204 187
204 204 187
204 204 187
204 204 187
204 204 187
204 204 187
204 204 204
204 204 204
204 204 204
204 204 204
204 204 204
204 204 204
204 204 204
204 204 204
204 204 204
204 204 204
204 204 204
204 204 204
204 221 204
204 221 204
204 221 204
204 221 204
204 221 204
204 221 204
221 221 204
204 221 204
204 221 204
221 221 221
221 221 221
221 221 221
221 221 221
221 221 221
221 221 221
221 221 221
221 221 204
204 221 204
221 221 221
221 221 221
221 221 221
221 221 204
221 221 221
221 221 221
221 221 221
221 221 221
221 221 221
221 221 221
221 221 221
221 221 221
221 221 221
0 0 255
0 0 255
221 238 221
221 238 221
221 238 221
221 238 221
221 238 221
221 238 221
221 238 221
221 238 221
221 238 221
221 238 221
221 238 221
221 238 221
221 238 221
221 238 221
221 238 221
221 238 221
221 238 221
221 238 221
221 238 221
221 238 221
221 238 221
221 238 221
221 238 221
221 238 221
238 238 221
221 238 221
221 238 221
221 238 221
238 238 221
238 238 221
238 238 221
238 238 221
238 238 238
238 238 238
238 238 238
238 238 238
238 238 238
238 238 238
238 238 238
238 238 238
238 238 238
238 238 238
238 238 238
238 238 221
238 238 238
238 238 238
238 238 238
238 238 238
238 238 221
238 238 221
238 238 221
238 238 221
221 238 221
238 238 221
238 238 221
221 238 221
221 238 221
221 238 221
221 238 221
221 238 221
221 238 221
221 238 221
221 238 221
221 238 221
221 238 221
221 238 221
221 238 221
221 238 221
221 238 221
221 238 221
221 238 221
221 238 221
221 238 221
221 238 221
221 238 221
221 238 221
221 238 221
221 238 221
221 238 221
221 238 221
221 238 221
221 238 221
221 238 221
221 238 221
221 238 221
221 238 221
221 238 221
221 238 221
221 238 221
221 238 221
221 238 221
221 238 221
221 238 221
221 238 221
221 238 221
221 238 221
221 238 221
221 238 221
221 238 221
221 238 221
238 238 221
221 238 221
221 238 221
221 238 221
221 238 221
17 17 17
0 17 0
17 17 17
17 17 17
17 17 17
51 68 68
153 170 153
187 187 170
170 187 153
153 153 136
153 153 136
153 153 119
170 170 153
187 187 170
204 204 187
204 204 187
204 204 170
204 204 170
204 187 170
204 204 170
221 221 204
221 221 204
221 221 221
238 238 221
238 238 221
238 238 221
221 238 221
238 238 221
238 238 221
238 238 221
238 238 221
238 238 221
238 238 221
221 238 221
221 238 221
221 238 221
221 221 221
221 221 221
221 238 221
221 238 221
238 238 221
238 238 221
238 238 221
238 238 221
238 238 221
238 238 238
238 238 221
238 238 221
221 238 221
221 238 221
221 238 221
221 238 221
221 238 221
221 238 221
221 238 221
221 238 221
221 238 221
221 238 221
221 221 221
221 238 221
221 238 221
221 238 221
221 238 221
221 238 221
221 238 221
221 238 221
221 238 221
221 221 221
221 238 221
221 238 221
221 238 221
221 238 221
221 238 221
221 221 221
221 221 221
221 221 221
221 238 221
221 238 221
221 221 221
221 221 221
221 221 221
221 221 221
221 221 221
221 221 221
221 221 221
221 221 221
221 221 221
221 221 221
221 221 221
221 221 221
221 221 221
221 221 221
221 221 221
221 221 221
221 221 221
221 221 221
221 221 221
221 221 221
221 221 221
221 221 221
221 221 221
221 221 221
221 221 204
221 221 204
221 221 204
221 221 204
0 0 255
0 0 255
221 221 204
221 221 204
221 221 204
221 221 204
221 221 204
221 221 204
221 221 204
221 221 204
221 221 204
221 221 204
221 221 204
221 221 204
221 221 204
221 221 204
221 221 204
221 221 204
204 221 204
204 204 204
204 204 187
204 204 187
204 204 204
204 204 187
204 204 187
204 204 187
204 204 187
204 204 204
204 204 204
204 204 187
204 204 187
204 204 204
204 204 187
204 204 187
204 204 187
187 187 170
170 170 170
170 170 170
170 170 170
187 187 170
187 187 170
187 187 187
187 187 187
187 187 187
204 204 187
204 204 187
204 204 187
204 204 187
204 204 187
204 204 187
204 204 187
204 204 187
204 204 204
204 204 187
204 204 204
204 204 187
204 204 187
204 204 187
204 204 204
204 204 187
204 204 187
204 204 187
204 204 187
204 204 204
204 204 204
204 204 204
204 204 204
204 204 204
204 204 204
204 204 204
204 204 204
204 204 204
204 204 204
204 204 204
204 204 204
204 221 204
204 221 204
204 221 204
204 221 204
204 221 204
204 221 204
204 221 204
204 221 204
221 221 204
221 221 221
221 221 221
221 221 221
221 221 221
221 221 221
221 221 221
221 221 221
221 221 204
204 221 204
204 221 204
221 221 221
221 221 221
221 221 204
221 221 204
221 221 204
221 221 221
221 221 221
221 221 221
221 221 221
221 221 221
221 221 221
221 221 221
221 221 221
0 0 255
0 0 255
221 221 221
221 238 221
221 238 221
221 238 221
221 238 221
221 238 221
221 238 221
221 238 221
221 238 221
221 238 221
221 238 221
221 238 221
221 238 221
221 238 221
221 238 221
221 238 221
221 238 221
221 238 221
221 238 221
221 238 221
221 238 221
238 238 221
221 238 221
221 238 221
221 238 221
221 238 221
221 238 221
221 238 221
238 238 221
221 238 221
221 238 221
221 238 221
238 238 221
238 238 238
238 238 221
238 238 238
238 238 238
238 238 238
238 238 238
238 238 238
238 238 238
238 238 238
238 238 238
238 238 221
238 238 221
238 238 238
238 238 238
238 238 238
238 238 238
238 238 238
238 238 221
238 238 238
238 238 221
238 238 221
238 238 221
221 238 221
221 238 221
221 238 221
221 238 221
221 238 221
221 238 221
221 238 221
221 238 221
221 238 221
221 238 221
221 238 221
221 238 221
221 238 221
221 238 221
221 238 221
221 238 221
221 238 221
221 238 221
221 238 221
221 238 221
221 238 221
221 238 221
221 238 221
221 238 221
221 238 221
221 238 221
221 238 221
221 238 221
221 238 221
221 238 221
221 238 221
221 238 221
221 238 221
221 238 221
221 238 221
221 238 221
221 238 221
221 238 221
221 238 221
221 238 221
221 238 221
221 238 221
221 238 221
221 238 221
221 238 221
221 238 221
221 238 221
221 238 221
221 238 221
221 238 221
51 51 51
17 17 17
0 0 0
0 0 0
0 17 17
17 34 34
119 136 119
204 204 187
187 187 170
170 187 153
170 170 136
153 153 136
153 170 136
187 187 170
187 187 170
204 187 170
187 187 153
204 204 170
221 221 204
221 221 204
238 238 221
238 238 221
238 238 221
238 238 221
221 238 221
221 238 221
221 238 221
221 238 221
238 238 221
238 238 238
238 238 221
238 238 221
238 238 221
221 238 221
221 238 221
221 221 221
221 221 221
221 238 221
238 238 221
238 238 238
238 238 238
238 238 238
238 238 238
238 238 238
238 238 221
238 238 238
238 238 221
238 238 221
238 238 221
221 238 221
221 238 221
221 238 221
221 238 221
221 238 221
221 238 221
221 238 221
221 238 221
221 238 221
221 238 221
221 238 221
221 238 221
221 238 221
221 238 221
221 238 221
221 238 221
221 238 221
221 221 221
221 238 221
221 238 221
221 238 221
221 238 221
221 238 221
221 221 221
221 221 221
221 238 221
221 238 221
221 238 221
221 238 221
221 221 221
221 221 221
221 221 221
221 221 221
221 221 221
221 221 221
221 221 221
221 221 221
221 221 221
221 221 221
221 221 221
221 221 221
221 221 221
221 221 221
221 221 221
221 221 221
221 221 221
221 221 221
221 221 221
221 221 221
221 221 221
221 221 221
221 221 221
221 221 221
221 221 221
221 221 221
221 221 204
221 221 221
0 0 255
0 0 255
221 221 204
221 221 204
221 221 204
221 221 204
221 221 204
221 221 204
221 221 204
221 221 204
221 221 204
221 221 204
221 221 204
221 221 204
221 221 204
221 221 204
221 221 204
221 221 204
221 221 204
204 204 204
204 204 204
204 204 204
204 204 204
204 204 187
204 204 187
204 204 187
204 204 187
204 221 204
204 221 204
204 204 204
204 204 204
204 221 204
204 204 204
204 204 204
204 221 204
204 221 204
204 204 204
204 204 204
204 204 204
204 204 204
204 204 204
204 204 204
204 204 187
204 204 187
204 204 187
204 204 187
204 204 187
204 204 187
204 204 187
204 204 187
204 204 187
204 204 187
204 204 204
204 204 204
204 204 204
204 204 204
204 204 204
204 204 204
204 204 204
204 204 204
204 204 204
204 204 204
204 204 204
204 204 204
204 204 204
204 204 204
204 204 204
204 204 204
204 204 204
204 204 204
204 204 204
204 204 204
204 204 204
204 204 204
204 221 204
204 221 204
204 221 204
204 221 204
204 221 204
204 221 204
221 221 204
221 221 204
204 221 204
204 221 204
221 221 204
221 221 221
221 221 221
221 221 221
221 221 221
221 221 221
221 221 221
221 221 221
204 221 204
221 221 221
221 221 221
221 221 221
204 221 204
221 221 204
221 221 221
221 221 221
221 221 221
221 221 221
221 221 221
221 221 221
221 221 221
221 221 221
221 221 221
0 0 255
0 0 255
221 221 221
221 238 221
221 238 221
221 238 221
221 238 221
221 238 221
221 238 221
221 238 221
221 238 221
221 238 221
221 238 221
221 238 221
221 238 221
221 238 221
221 238 221
221 238 221
221 238 221
221 238 221
221 238 221
221 238 221
221 238 221
221 238 221
221 238 221
221 238 221
221 238 221
221 238 221
221 238 221
238 238 221
238 238 221
221 238 221
221 238 221
221 238 221
221 238 221
238 238 221
238 238 221
238 238 221
238 238 238
238 238 238
238 238 238
238 238 238
238 238 238
238 238 238
238 238 238
238 238 221
238 238 221
238 238 221
238 238 238
238 238 221
238 238 238
238 238 221
238 238 238
238 238 238
238 238 221
238 238 221
238 238 221
221 238 221
221 238 221
221 238 221
221 238 221
221 238 221
221 238 221
221 238 221
221 238 221
221 238 221
221 238 221
221 238 221
221 238 221
221 238 221
221 238 221
221 238 221
221 238 221
221 238 221
221 238 221
221 238 221
221 238 221
221 238 221
221 238 221
221 238 221
221 238 221
221 238 221
221 238 221
221 238 221
221 221 221
221 221 221
221 238 221
221 238 221
221 238 221
221 238 221
221 221 221
221 238 221
221 238 221
221 238 221
221 238 221
221 238 221
221 238 221
221 238 221
221 238 221
221 238 221
221 238 221
221 238 221
221 238 221
221 238 221
221 238 221
221 238 221
221 238 221
34 34 34
17 34 17
17 17 17
17 17 17
17 17 17
51 51 51
153 170 153
204 204 187
204 204 187
187 187 170
187 187 153
153 153 119
153 153 136
170 187 170
187 187 170
187 187 153
204 204 170
221 221 204
221 221 221
221 221 204
221 221 204
238 238 221
238 238 221
221 238 221
221 221 221
221 238 221
238 238 221
238 238 238
238 238 238
238 238 238
238 238 238
238 238 221
221 238 221
221 221 221
221 221 221
221 221 221
221 238 221
238 238 221
238 238 238
238 238 238
238 238 238
238 238 238
238 238 221
238 238 238
238 238 221
238 238 238
238 238 238
238 238 221
221 238 221
221 238 221
221 238 221
221 238 221
221 238 221
221 238 221
221 238 221
221 238 221
221 238 221
221 238 221
221 238 221
221 238 221
221 238 221
221 238 221
221 238 221
221 238 221
221 238 221
221 238 221
221 238 221
221 238 221
221 238 221
221 238 221
221 238 221
221 221 221
221 238 221
221 238 221
221 238 221
221 238 221
221 238 221
221 238 221
221 221 221
221 221 221
221 221 221
221 221 221
221 221 221
221 221 221
221 221 221
221 221 221
221 238 221
238 238 221
221 221 221
221 221 221
221 221 221
221 221 221
221 221 221
221 238 221
221 238 221
221 221 221
221 221 221
221 221 221
221 221 221
221 221 221
221 221 221
221 221 221
221 221 221
221 221 221
221 221 221
221 221 221
0 0 255
0 0 255
221 221 221
221 221 204
221 221 204
221 221 204
221 221 204
221 221 204
221 221 204
221 221 204
221 221 204
221 221 204
221 221 204
221 221 204
221 221 204
221 221 204
221 221 204
221 221 204
221 221 204
221 221 204
204 221 204
204 221 204
204 221 204
204 204 204
204 204 204
204 204 204
204 221 204
221 221 204
204 221 204
221 221 204
204 221 204
204 221 204
204 221 204
221 221 204
221 221 204
221 221 204
204 221 204
204 204 204
204 204 204
204 204 204
204 204 204
204 204 204
204 204 204
204 204 204
204 204 204
204 204 204
204 204 204
204 204 204
204 204 204
204 204 187
204 204 187
204 204 204
204 204 204
204 204 204
204 204 204
204 204 204
204 204 204
204 204 204
204 204 204
204 204 204
204 204 204
204 204 204
204 204 204
204 204 204
204 204 204
204 204 204
204 204 204
204 204 204
204 204 204
204 204 204
204 221 204
204 204 204
204 204 204
204 221 204
204 221 204
204 221 204
204 221 204
204 221 204
204 221 204
221 221 204
221 221 204
204 221 204
204 221 204
204 221 204
221 221 221
221 221 221
221 221 221
221 221 221
221 221 221
221 221 221
221 221 221
221 221 221
221 221 221
221 221 221
221 221 221
221 221 221
204 221 204
221 221 204
221 221 221
221 221 221
221 221 221
221 221 221
221 221 221
221 221 221
221 221 221
221 221 221
221 221 221
0 0 255
0 0 255
221 238 221
221 238 221
221 238 221
221 238 221
221 238 221
221 238 221
221 238 221
221 238 221
221 238 221
221 238 221
221 238 221
221 238 221
221 238 221
221 238 221
221 238 221
221 238 221
221 238 221
221 238 221
221 238 221
221 238 221
221 238 221
221 238 221
221 238 221
221 238 221
221 238 221
221 238 221
221 238 221
221 238 221
221 238 221
221 238 221
221 238 221
221 238 221
221 238 221
238 238 221
221 238 221
238 238 221
238 238 221
238 238 221
238 238 221
238 238 221
238 238 238
238 238 238
238 238 221
238 238 238
238 238 238
238 238 221
221 238 221
221 238 221
221 238 221
238 238 221
238 238 221
221 238 221
238 238 221
238 238 221
221 238 221
221 238 221
221 238 221
221 238 221
221 238 221
221 238 221
221 238 221
221 238 221
221 238 221
221 238 221
221 238 221
221 238 221
221 238 221
221 238 221
221 221 221
221 238 221
221 238 221
221 238 221
221 238 221
221 238 221
221 238 221
221 238 221
221 221 221
221 238 221
221 221 221
221 238 221
221 238 221
221 221 221
221 238 221
221 238 221
221 238 221
221 238 221
221 238 221
221 238 221
221 221 221
221 221 221
221 238 221
221 238 221
221 238 221
221 221 221
221 221 221
221 238 221
221 221 221
221 238 221
221 238 221
221 238 221
221 221 221
221 238 221
221 221 221
221 238 221
221 221 221
34 34 34
34 51 34
17 17 17
17 17 17
34 34 34
102 102 102
187 204 187
204 204 187
204 204 187
187 204 187
170 187 153
136 136 102
153 153 136
187 187 170
187 187 170
204 204 170
204 204 187
221 221 204
204 204 187
187 187 170
187 187 170
204 204 204
221 221 204
221 221 221
221 238 221
238 238 221
238 238 221
238 238 221
238 238 221
238 238 221
238 238 221
221 238 221
221 221 221
221 221 221
221 221 221
221 238 221
238 238 221
238 238 238
238 238 238
238 238 238
238 238 238
238 238 221
238 238 238
238 238 238
238 238 238
238 238 238
238 238 238
238 238 221
238 238 221
238 238 221
238 238 221
221 238 221
221 238 221
221 238 221
221 238 221
221 238 221
221 238 221
221 238 221
221 238 221
221 238 221
221 238 221
221 238 221
221 238 221
221 238 221
221 238 221
221 238 221
221 238 221
221 238 221
221 238 221
221 221 221
221 221 221
221 221 221
221 238 221
221 238 221
221 238 221
221 238 221
221 238 221
221 238 221
221 238 221
221 238 221
221 221 221
221 221 221
221 221 221
221 238 221
221 238 221
221 238 221
221 238 221
221 238 221
221 221 221
221 221 221
221 221 221
221 221 221
238 238 221
238 238 221
221 238 221
221 238 221
221 221 221
221 221 221
221 221 221
221 221 221
221 221 221
221 221 221
221 221 221
221 221 221
221 221 221
221 221 221
0 0 255
0 0 255
221 221 221
221 221 221
221 221 221
221 221 221
221 221 221
221 221 221
221 221 204
221 221 204
221 221 221
221 221 204
221 221 204
221 221 204
221 221 204
221 221 204
221 221 204
221 221 204
221 221 204
221 221 204
221 221 204
221 221 204
221 221 204
221 221 204
204 221 204
204 221 204
204 221 204
221 221 204
221 221 204
204 221 204
204 221 204
221 221 204
221 221 204
221 221 204
204 221 204
221 221 204
204 221 204
204 221 204
204 204 204
204 204 204
204 204 204
204 204 204
204 204 204
204 204 204
204 204 204
204 204 204
204 204 204
204 204 204
204 204 204
204 204 204
204 204 204
204 204 204
204 204 204
204 204 204
204 204 204
204 204 204
204 204 204
204 204 204
204 204 204
204 204 204
204 204 204
204 204 204
204 204 204
204 204 204
204 204 204
204 204 204
204 204 204
204 204 204
204 221 204
204 221 204
204 221 204
204 204 204
204 221 204
204 221 204
204 221 204
204 221 204
204 221 204
204 221 204
204 221 204
221 221 204
221 221 204
221 221 204
221 221 204
221 221 221
221 221 221
221 221 221
221 221 221
221 221 221
221 221 221
221 221 221
221 221 221
221 221 221
221 221 221
221 221 221
221 221 221
221 221 221
221 221 204
221 221 221
221 221 221
221 221 221
221 221 221
221 221 221
221 221 221
221 221 221
221 221 221
221 221 221
221 221 221
0 0 255
0 0 255
221 238 221
221 238 221
221 238 221
221 238 221
221 238 221
221 238 221
221 238 221
221 238 221
221 238 221
221 238 221
221 238 221
221 238 221
221 238 221
221 238 221
221 238 221
221 238 221
221 238 221
221 238 221
221 238 221
221 238 221
221 238 221
221 238 221
221 238 221
221 238 221
221 238 221
221 238 221
221 238 221
221 238 221
221 238 221
221 238 221
221 238 221
221 238 221
221 238 221
221 238 221
221 238 221
221 238 221
238 238 221
221 238 221
238 238 221
238 238 221
238 238 221
238 238 238
238 238 221
238 238 221
238 238 221
238 238 238
238 238 221
238 238 238
238 238 221
238 238 221
238 238 221
221 238 221
221 238 221
221 238 221
221 238 221
221 238 221
221 238 221
221 238 221
221 238 221
221 238 221
221 238 221
221 238 221
221 238 221
221 238 221
221 238 221
221 238 221
221 238 221
221 238 221
221 238 221
221 221 221
221 221 221
221 221 221
221 221 221
221 221 221
221 238 221
221 221 221
221 221 221
221 221 221
221 238 221
221 238 221
221 238 221
221 221 221
221 221 221
221 221 221
221 221 221
221 221 221
221 221 221
221 221 221
221 221 221
221 221 221
221 221 221
221 221 221
221 238 221
221 238 221
221 221 221
221 238 221
221 238 221
221 238 221
221 238 221
221 238 221
221 238 221
221 238 221
221 238 221
221 238 221
221 221 221
68 68 68
34 51 34
17 17 17
17 17 17
51 51 51
153 153 153
187 204 187
204 204 187
204 204 187
187 187 170
136 153 119
102 102 68
119 119 102
187 187 170
187 204 187
204 204 187
204 204 187
187 187 170
170 170 153
170 170 153
170 187 170
204 204 204
221 221 204
221 221 221
221 238 221
221 238 221
221 221 221
221 221 221
221 221 221
221 221 221
221 221 221
221 221 221
221 221 221
221 221 221
238 238 221
238 238 221
238 238 238
238 238 221
238 238 221
238 238 221
221 238 221
221 238 221
238 238 238
238 238 238
238 238 238
238 238 238
238 238 238
238 238 221
238 238 221
238 238 238
238 238 221
221 238 221
221 238 221
221 238 221
221 238 221
221 238 221
221 238 221
221 238 221
221 238 221
221 238 221
221 238 221
221 238 221
221 238 221
221 238 221
221 238 221
221 238 221
221 238 221
221 238 221
221 238 221
221 221 221
221 221 221
221 238 221
221 238 221
221 238 221
221 238 221
221 238 221
221 238 221
221 238 221
221 238 221
221 238 221
221 238 221
221 221 221
221 221 221
221 238 221
221 238 221
221 238 221
221 238 221
221 238 221
221 221 221
221 221 221
221 221 221
238 238 221
238 238 221
238 238 221
238 238 221
238 238 221
221 238 221
221 238 221
221 221 221
221 221 221
221 221 221
221 221 221
221 221 221
221 221 221
221 221 221
221 221 221
0 0 255
0 0 255
221 221 221
221 221 221
221 221 221
221 221 221
221 221 221
221 221 221
221 221 221
221 221 221
221 221 221
221 221 204
221 221 204
221 221 204
221 221 204
221 221 204
221 221 204
221 221 204
221 221 204
221 221 204
221 221 204
221 221 204
221 221 204
221 221 204
221 221 204
221 221 204
221 221 204
221 221 204
221 221 204
221 221 204
221 221 204
221 221 204
204 221 204
221 221 204
221 221 204
221 221 204
221 221 204
221 221 204
204 221 204
221 221 204
221 221 204
221 221 204
221 221 204
204 204 204
204 204 204
204 204 204
204 204 204
204 204 204
204 204 204
204 204 204
204 204 204
204 204 204
204 204 204
204 204 204
204 204 204
204 204 204
204 204 204
204 204 204
204 204 204
204 204 204
204 204 204
204 204 204
204 204 204
204 204 204
204 204 204
204 204 204
204 221 204
204 221 204
204 221 204
204 204 204
204 204 204
204 204 204
204 221 204
204 221 204
204 221 204
204 221 204
204 221 204
204 221 204
204 221 204
204 221 204
204 221 204
221 221 204
221 221 204
221 221 204
221 221 221
221 221 221
221 221 221
221 221 221
221 221 221
221 221 221
221 221 221
221 221 221
221 221 221
221 221 221
221 221 221
221 221 221
221 221 221
221 221 221
221 221 221
221 221 221
221 221 221
221 221 221
221 221 221
221 221 221
221 221 221
221 221 221
221 221 221
0 0 255
0 0 255
221 238 221
221 238 221
221 221 221
221 238 221
221 238 221
221 238 221
221 238 221
221 238 221
221 238 221
221 238 221
221 238 221
221 238 221
221 238 221
221 238 221
221 238 221
221 238 221
221 238 221
221 238 221
221 238 221
221 238 221
221 238 221
221 238 221
221 238 221
221 238 221
221 238 221
221 238 221
221 238 221
221 238 221
221 238 221
221 238 221
221 238 221
221 238 221
221 238 221
221 238 221
221 238 221
221 238 221
221 238 221
221 238 221
221 238 221
221 238 221
238 238 221
238 238 221
238 238 221
238 238 238
238 238 238
238 238 238
238 238 238
238 238 238
238 238 221
238 238 221
238 238 221
221 238 221
221 238 221
221 238 221
221 238 221
221 238 221
221 238 221
221 238 221
221 238 221
221 238 221
221 238 221
221 238 221
221 238 221
221 238 221
221 238 221
221 238 221
221 221 221
221 238 221
221 221 221
221 221 221
221 221 221
221 221 221
221 221 221
221 221 221
221 221 221
221 221 221
221 221 221
221 221 221
221 221 221
221 221 221
221 221 221
221 221 221
221 221 221
221 221 221
221 221 221
221 221 221
221 221 221
221 221 221
221 221 221
221 221 221
221 221 221
221 221 221
221 221 221
221 221 221
221 221 221
221 221 221
221 221 221
221 221 221
221 221 221
221 221 221
221 238 221
221 221 221
221 221 221
221 221 221
221 221 221
51 51 51
34 34 34
34 51 34
34 34 34
68 68 68
187 187 187
187 204 187
204 204 187
187 204 187
170 170 153
85 85 68
34 34 17
51 51 51
136 136 136
187 187 170
170 170 153
170 170 136
153 153 119
153 153 119
153 153 119
170 187 170
204 204 204
221 221 221
221 221 221
221 221 204
204 204 204
204 204 187
204 204 187
221 221 204
221 221 221
221 221 204
221 221 204
221 221 221
221 238 221
238 238 221
221 238 221
221 238 221
221 238 221
221 238 221
221 238 221
221 238 221
221 238 221
221 238 221
221 238 221
221 238 221
221 238 221
238 238 221
238 238 238
238 238 238
238 238 238
238 238 221
221 238 221
238 238 221
238 238 221
221 238 221
238 238 221
221 238 221
221 238 221
221 238 221
221 238 221
221 238 221
221 238 221
221 238 221
221 238 221
221 238 221
221 238 221
221 238 221
221 238 221
221 238 221
221 238 221
221 238 221
221 238 221
238 238 221
221 238 221
221 238 221
221 238 221
221 238 221
221 238 221
221 238 221
221 238 221
221 238 221
221 238 221
238 238 221
221 238 221
221 238 221
221 238 221
221 238 221
221 238 221
221 221 221
221 221 221
221 238 221
238 238 221
238 238 221
238 238 221
238 238 221
238 238 221
238 238 221
238 238 221
221 221 221
221 221 221
221 221 221
221 221 221
238 238 221
221 221 221
221 221 221
221 221 221
0 0 255
0 0 255
221 221 221
221 221 221
221 221 221
221 221 221
221 221 221
221 221 221
221 221 221
221 221 204
221 221 204
221 221 204
221 221 204
221 221 204
221 221 204
221 221 204
221 221 204
221 221 204
221 221 204
221 221 204
221 221 204
221 221 204
221 221 204
221 221 204
221 221 204
221 221 204
221 221 204
221 221 204
221 221 204
221 221 204
221 221 204
221 221 204
221 221 204
221 221 204
221 221 204
221 221 204
221 221 204
221 221 204
221 221 204
221 221 204
221 221 204
221 221 204
221 221 204
221 221 204
221 221 204
221 221 204
221 221 204
221 221 204
204 204 204
204 221 204
204 221 204
204 204 204
204 204 204
204 204 204
204 204 204
204 204 204
204 204 204
204 204 204
204 204 204
204 204 204
204 204 204
204 204 204
204 204 204
204 204 204
204 221 204
204 221 204
204 221 204
204 221 204
204 204 204
204 221 204
204 204 204
204 221 204
204 221 204
204 221 204
204 221 204
204 221 204
204 221 204
221 221 204
221 221 204
221 221 204
221 221 204
221 221 204
204 221 204
204 221 204
221 221 221
221 221 221
221 221 221
221 221 221
221 221 221
221 221 221
221 221 221
221 221 221
221 221 221
221 221 221
221 221 221
221 221 221
221 221 221
221 221 221
221 221 221
221 221 221
221 221 221
221 221 221
221 221 221
221 221 221
221 221 221
221 221 221
221 221 221
0 0 255
0 0 255
221 221 221
221 238 221
221 238 221
221 238 221
221 238 221
221 238 221
221 238 221
221 238 221
221 238 221
221 238 221
221 238 221
221 238 221
221 238 221
221 238 221
221 238 221
221 238 221
221 238 221
221 238 221
221 238 221
221 238 221
221 238 221
221 238 221
221 238 221
221 238 221
221 238 221
221 238 221
221 238 221
221 238 221
221 238 221
221 238 221
221 238 221
221 238 221
221 238 221
221 238 221
221 238 221
221 238 221
221 238 221
221 238 221
221 238 221
221 238 221
221 238 221
221 238 221
221 238 221
238 238 221
238 238 238
238 238 238
238 238 238
238 238 238
238 238 238
238 238 238
238 238 238
238 238 221
238 238 221
238 238 221
238 238 221
221 238 221
221 238 221
221 238 221
221 238 221
221 238 221
221 238 221
221 238 221
221 238 221
221 238 221
221 221 221
221 221 221
221 238 221
221 238 221
221 221 221
221 221 221
221 221 221
221 221 221
221 221 221
221 238 221
221 221 221
221 221 221
221 221 221
221 221 221
221 221 221
221 221 221
221 221 221
221 221 221
221 221 221
221 221 221
221 221 221
221 221 221
221 221 221
221 221 221
221 221 221
221 221 221
221 221 221
221 221 221
221 221 221
221 221 221
221 221 221
221 221 221
221 221 221
221 221 221
221 221 221
221 221 221
221 221 221
221 221 221
221 221 221
221 221 221
221 221 221
51 51 34
51 51 51
68 68 68
51 68 68
119 119 119
187 204 187
187 204 187
204 204 187
187 187 187
153 153 136
51 51 34
17 17 17
34 34 34
85 85 85
136 136 119
119 119 102
136 136 119
153 153 136
153 153 136
170 170 153
187 187 170
187 204 187
204 221 204
204 204 204
187 204 187
187 204 187
187 204 187
204 204 204
204 221 204
204 204 204
204 221 204
204 221 204
221 221 221
221 238 221
221 221 221
221 221 221
221 221 221
221 221 221
221 221 221
221 238 221
221 238 221
221 238 221
221 238 221
221 238 221
221 238 221
221 238 221
238 238 238
238 238 238
221 238 221
221 238 221
238 238 221
238 238 221
238 238 238
238 238 221
238 238 221
238 238 221
238 238 221
238 238 221
221 238 221
221 238 221
221 238 221
221 238 221
221 238 221
221 238 221
221 238 221
221 238 221
221 238 221
221 238 221
221 238 221
221 238 221
221 238 221
238 238 221
221 238 221
221 238 221
221 238 221
221 238 221
221 238 221
221 238 221
221 238 221
221 238 221
221 238 221
221 238 221
221 238 221
221 238 221
221 238 221
221 238 221
221 238 221
221 238 221
221 238 221
221 238 221
238 238 221
238 238 221
238 238 221
238 238 221
238 238 221
238 238 221
221 221 221
221 221 221
221 221 221
221 221 221
221 221 221
221 221 221
221 221 221
221 221 221
221 221 221
221 221 221
0 0 255
0 0 255
221 221 221
221 221 221
221 221 221
221 221 221
221 221 221
221 221 221
221 221 204
221 221 204
221 221 204
221 221 204
221 221 221
221 221 204
221 221 221
221 221 221
221 221 204
221 221 204
221 221 204
221 221 204
221 221 204
221 221 204
221 221 204
221 221 204
221 221 204
221 221 204
221 221 221
221 221 204
221 221 204
221 221 221
221 221 204
221 221 204
221 221 204
221 221 204
221 221 204
221 221 204
221 221 204
221 221 204
221 221 204
221 221 204
221 221 204
221 221 204
221 221 204
221 221 204
221 221 204
221 221 204
221 221 204
221 221 204
204 221 204
204 221 204
204 221 204
204 221 204
204 221 204
204 221 204
204 204 204
204 204 204
204 204 204
204 204 204
204 204 204
204 204 204
204 204 204
204 221 204
204 204 204
204 221 204
204 221 204
204 221 204
204 221 204
204 221 204
204 221 204
204 221 204
204 221 204
204 221 204
204 221 204
204 221 204
204 221 204
204 221 204
204 221 204
221 221 204
221 221 204
221 221 204
221 221 221
221 221 221
221 221 221
221 221 221
221 221 221
221 221 221
221 221 221
221 221 221
221 221 221
221 221 221
221 221 221
221 221 221
221 221 221
221 221 221
221 221 221
221 221 221
221 221 221
221 221 221
221 221 221
221 221 221
221 221 221
221 221 221
221 221 221
221 221 221
221 221 221
221 221 221
221 221 221
0 0 255
0 0 255
221 221 221
221 221 221
221 238 221
221 238 221
221 221 221
221 238 221
221 238 221
221 238 221
221 238 221
221 238 221
221 238 221
221 238 221
221 238 221
221 238 221
221 238 221
221 238 221
221 238 221
221 238 221
221 238 221
221 238 221
221 238 221
221 238 221
221 238 221
221 238 221
221 238 221
221 238 221
221 238 221
221 238 221
221 238 221
221 238 221
221 238 221
221 238 221
221 238 221
221 238 221
221 238 221
221 238 221
221 238 221
221 238 221
221 238 221
221 238 221
221 238 221
221 238 221
221 238 221
221 238 221
221 238 221
221 238 221
238 238 221
238 238 221
238 238 221
238 238 221
238 238 238
238 238 221
238 238 221
238 238 221
238 238 221
221 238 221
221 238 221
221 238 221
221 238 221
221 238 221
221 238 221
221 238 221
221 238 221
221 238 221
221 238 221
221 238 221
221 221 221
221 221 221
221 221 221
221 221 221
221 221 221
221 221 221
221 221 221
221 221 221
221 221 221
221 221 221
221 221 221
221 221 221
221 221 221
221 221 221
221 221 221
221 221 221
221 221 221
221 221 221
221 221 221
221 221 221
221 221 221
221 221 221
221 221 221
221 221 221
221 221 221
221 221 221
221 221 221
221 221 221
221 221 221
221 221 221
221 221 221
221 221 221
221 221 221
221 221 221
221 221 221
221 221 221
221 221 221
221 221 221
221 221 221
68 85 68
85 85 85
85 85 85
85 85 85
170 170 170
187 187 187
204 204 187
187 204 187
170 187 170
136 136 119
34 34 17
0 0 0
0 0 0
17 34 17
85 85 68
85 102 85
136 136 119
153 170 136
170 170 153
170 170 170
170 187 170
170 187 170
187 187 170
170 187 170
170 187 170
187 187 170
187 204 187
204 204 187
187 204 187
187 204 187
204 204 187
204 204 204
221 221 204
221 221 204
204 204 204
204 204 204
204 204 204
221 221 204
221 221 204
221 221 221
221 221 221
221 221 221
221 221 221
221 221 221
221 238 221
221 238 221
221 238 221
221 238 221
221 238 221
221 238 221
238 238 221
238 238 221
221 238 221
238 238 221
238 238 221
238 238 221
238 238 221
238 238 221
221 238 221
221 238 221
221 238 221
221 238 221
221 238 221
221 238 221
221 238 221
221 238 221
221 238 221
221 238 221
221 238 221
238 238 221
238 238 221
221 238 221
221 238 221
221 238 221
221 238 221
221 238 221
221 238 221
221 238 221
221 238 221
221 238 221
221 238 221
238 238 221
221 238 221
221 238 221
221 238 221
221 238 221
221 238 221
221 238 221
221 238 221
221 238 221
221 238 221
238 238 221
238 238 221
238 238 221
238 238 221
221 221 221
221 221 221
221 221 221
221 221 221
221 221 221
221 221 221
221 221 221
221 221 221
221 221 221
221 221 221
221 221 221
0 0 255
0 0 255
221 221 221
221 221 221
221 221 221
221 221 221
221 221 221
221 221 221
221 221 221
221 221 221
221 221 221
221 221 221
221 221 221
221 221 221
221 221 221
221 221 221
221 221 221
221 221 221
221 221 221
221 221 221
221 221 221
221 221 221
221 221 221
221 221 221
221 221 221
221 221 221
221 221 221
221 221 221
221 221 221
221 221 221
221 221 221
221 221 221
221 221 221
221 221 204
221 221 221
221 221 221
221 221 221
221 221 204
221 221 204
221 221 204
221 221 204
221 221 204
221 221 204
221 221 204
221 221 204
221 221 204
221 221 204
221 221 204
221 221 204
221 221 204
204 221 204
204 221 204
204 221 204
204 221 204
204 221 204
204 221 204
204 221 204
204 221 204
204 221 204
204 221 204
204 221 204
204 221 204
204 221 204
204 221 204
204 221 204
204 221 204
204 221 204
204 221 204
204 221 204
221 221 204
204 221 204
204 221 204
204 221 204
221 221 204
221 221 204
221 221 204
221 221 204
221 221 221
221 221 221
221 221 221
221 221 221
221 221 221
221 221 221
221 221 221
221 221 221
221 221 221
221 221 221
221 221 221
221 221 221
221 221 221
221 221 221
221 221 221
221 221 221
221 221 221
221 221 221
221 221 221
221 221 221
221 221 221
221 221 221
221 221 221
221 221 221
221 221 221
221 221 221
221 221 221
221 221 221
221 221 221
221 221 221
0 0 255
0 0 255
221 221 221
221 221 221
221 221 221
221 238 221
221 221 221
221 238 221
221 238 221
221 238 221
221 238 221
221 238 221
221 238 221
221 238 221
221 238 221
221 238 221
221 238 221
221 238 221
221 238 221
221 238 221
221 238 221
221 238 221
221 238 221
221 238 221
221 238 221
221 238 221
221 238 221
221 238 221
221 238 221
221 238 221
221 238 221
221 238 221
238 238 221
221 238 221
221 238 221
221 238 221
221 238 221
221 238 221
221 238 221
221 238 221
221 238 221
221 238 221
221 238 221
221 238 221
221 238 221
221 238 221
221 238 221
221 238 221
221 238 221
238 238 221
238 238 221
238 238 221
238 238 221
238 238 221
238 238 221
238 238 221
221 238 221
221 238 221
221 238 221
221 238 221
221 238 221
221 238 221
221 238 221
221 238 221
221 238 221
221 238 221
221 221 221
221 238 221
221 221 221
221 221 221
221 221 221
221 221 221
221 221 221
221 221 221
221 221 221
221 221 221
221 221 221
221 221 221
221 221 221
221 221 221
221 221 221
221 221 221
221 221 221
221 221 221
221 221 221
221 221 221
221 221 221
221 221 221
221 221 221
221 221 221
221 221 221
221 221 221
221 221 221
221 221 221
221 221 221
221 221 221
221 221 221
221 221 221
221 221 221
221 221 221
221 221 221
221 221 221
221 221 221
221 221 221
221 221 221
221 221 221
221 221 221
68 85 85
85 85 85
85 85 85
119 119 119
187 187 187
187 187 187
187 204 187
187 187 187
170 170 170
102 102 85
17 17 17
0 0 0
0 0 0
0 0 255
0 0 0
51 51 51
119 136 119
153 153 136
170 170 153
170 170 170
170 170 153
170 170 153
170 170 153
170 170 153
170 170 153
170 187 170
187 187 187
187 187 187
187 187 170
187 187 187
204 204 187
204 221 204
204 221 204
204 204 187
187 204 187
187 204 187
204 204 187
204 204 204
204 204 204
204 221 204
204 221 204
204 221 204
221 221 204
221 221 204
221 221 221
221 221 221
221 221 221
221 221 221
221 221 221
221 221 221
221 238 221
221 238 221
221 238 221
221 238 221
221 238 221
221 238 221
238 238 221
221 238 221
221 238 221
221 238 221
221 238 221
221 238 221
221 238 221
238 238 221
221 238 221
221 238 221
221 238 221
221 238 221
221 238 221
238 238 221
238 238 221
221 238 221
221 238 221
221 238 221
221 238 221
221 238 221
221 238 221
221 238 221
221 238 221
221 238 221
238 238 221
221 238 221
221 238 221
221 238 221
221 238 221
221 238 221
221 238 221
221 238 221
221 238 221
221 238 221
221 238 221
221 238 221
221 238 221
221 238 221
221 221 221
221 221 221
221 221 221
221 221 221
221 221 221
221 221 221
221 221 221
221 221 221
221 221 221
221 221 221
221 221 221
221 221 221
0 0 255
0 0 255
221 221 221
221 221 221
221 221 221
221 221 221
221 221 221
221 221 221
221 221 221
221 221 221
221 221 221
221 221 221
221 221 221
221 221 221
221 221 221
221 221 221
221 221 221
221 221 221
221 221 221
221 221 221
221 221 221
221 221 221
221 221 221
221 221 221
221 221 221
221 221 221
221 221 221
221 221 221
221 221 221
221 221 221
221 221 221
221 221 221
221 221 221
221 221 221
221 221 221
221 221 221
221 221 221
221 221 221
221 221 221
221 221 204
221 221 221
221 221 204
221 221 204
221 221 204
221 221 204
221 221 204
221 221 204
221 221 204
221 221 204
221 221 204
221 221 204
221 221 204
204 221 204
204 221 204
204 221 204
204 221 204
204 221 204
204 221 204
204 221 204
204 221 204
204 221 204
204 221 204
204 221 204
204 221 204
204 221 204
204 221 204
204 221 204
204 221 204
204 221 204
221 221 204
204 221 204
204 221 204
221 221 204
221 221 204
204 221 204
204 221 204
221 221 204
221 221 204
221 221 221
221 221 221
221 221 221
221 221 221
221 221 221
221 221 221
221 221 221
221 221 221
221 221 221
221 221 221
221 221 221
221 221 221
221 221 221
221 221 221
221 221 221
221 221 221
221 221 221
221 221 221
221 221 221
221 221 221
221 221 221
221 221 221
221 221 221
221 221 221
221 221 221
221 221 221
221 221 221
221 221 221
221 221 221
0 0 255
0 0 255
221 238 221
221 221 221
221 238 221
221 238 221
221 221 221
221 238 221
221 238 221
221 238 221
221 238 221
221 238 221
221 238 221
221 238 221
221 238 221
221 238 221
221 238 221
221 238 221
221 238 221
221 238 221
221 238 221
221 238 221
221 238 221
221 238 221
221 238 221
221 238 221
238 238 221
221 238 221
221 238 221
221 238 221
221 238 221
221 238 221
221 238 221
221 238 221
221 238 238
221 238 221
221 238 221
238 238 221
238 238 221
221 238 221
221 238 221
221 238 221
221 238 221
221 238 221
221 238 221
221 238 221
221 238 221
238 238 221
221 238 221
221 238 221
238 238 221
238 238 221
238 238 221
221 238 221
221 238 221
221 238 221
221 238 221
221 238 221
221 238 221
221 238 221
221 238 221
221 238 221
221 238 221
221 238 221
221 238 221
221 238 221
221 221 221
221 238 221
221 221 221
221 221 221
221 221 221
221 221 221
221 221 221
221 221 221
221 221 221
221 221 221
221 221 221
221 221 221
221 221 221
221 221 221
221 221 221
221 221 221
221 221 221
221 221 221
221 221 221
221 221 221
221 221 221
221 221 221
221 221 221
221 221 221
221 221 221
221 221 221
221 221 221
221 221 221
221 221 221
221 221 221
221 221 221
221 221 221
221 221 221
221 221 221
221 221 221
221 221 221
221 221 221
221 221 221
221 221 221
221 221 221
221 221 204
34 34 34
68 68 68
85 102 102
153 170 153
187 187 187
187 204 187
204 204 187
187 204 187
153 170 153
51 68 51
0 17 0
0 0 0
0 0 0
0 0 0
0 0 0
17 17 17
68 85 85
136 136 136
170 170 153
170 170 153
170 170 153
170 170 153
153 170 153
153 170 153
170 170 153
170 187 170
187 187 170
170 187 170
170 187 170
187 187 170
187 204 187
204 204 204
204 204 204
187 204 187
187 187 187
187 187 187
187 204 187
187 204 187
187 204 187
204 204 187
204 204 187
204 204 187
204 204 187
204 204 204
204 204 204
204 204 204
204 204 204
204 221 204
221 221 204
221 221 221
221 221 221
221 221 221
221 221 221
221 221 221
221 238 221
221 238 221
221 238 221
221 238 221
221 238 221
221 238 221
221 238 221
221 238 221
221 238 221
221 238 221
221 238 221
221 238 221
221 238 221
238 238 221
238 238 221
238 238 238
221 238 221
221 238 221
238 238 221
221 238 221
221 238 221
221 238 221
221 238 221
221 238 221
221 238 221
238 238 221
221 238 221
221 238 221
221 238 221
221 238 221
221 238 221
221 238 221
221 238 221
221 238 221
221 238 221
221 238 221
221 238 221
221 238 221
221 238 221
221 238 221
221 238 221
221 238 221
221 238 221
221 221 221
221 221 221
221 238 221
221 221 221
221 221 221
221 238 221
221 221 221
221 221 221
221 221 221
0 0 255
0 0 255
238 238 221
238 238 221
221 238 221
221 221 221
221 221 221
221 221 221
221 221 221
221 221 221
221 221 221
221 221 221
221 221 221
221 221 221
221 221 221
221 221 221
221 221 221
221 221 221
221 221 221
221 221 221
221 221 221
221 221 221
221 221 221
221 221 221
221 221 221
221 221 221
221 221 221
221 221 221
221 221 221
221 221 221
221 221 221
221 221 221
221 221 221
221 221 221
221 221 221
221 221 221
221 221 221
221 221 221
221 221 221
221 221 221
221 221 221
221 221 221
221 221 221
221 221 221
221 221 204
221 221 204
221 221 204
221 221 204
221 221 221
221 221 204
221 221 221
221 221 204
221 221 204
221 221 204
221 221 204
204 221 204
204 221 204
204 221 204
204 221 204
204 221 204
204 221 204
204 221 204
204 221 204
204 221 204
204 221 204
204 221 204
204 221 204
204 221 204
204 221 204
204 221 204
204 221 204
221 221 204
221 221 204
221 221 204
221 221 204
204 221 204
221 221 204
221 221 221
221 221 221
221 221 221
221 221 221
221 221 221
221 221 221
221 221 221
221 221 221
221 221 221
221 221 221
221 221 221
221 221 221
221 221 221
221 221 221
221 221 221
221 221 221
221 221 221
221 221 221
221 221 221
221 221 221
221 221 221
221 221 221
221 221 221
221 221 221
221 221 221
221 221 221
221 221 221
221 221 221
221 221 221
221 221 221
0 0 255
0 0 255
221 238 221
221 238 221
221 238 221
221 238 221
221 238 221
221 238 221
221 238 221
221 238 221
221 238 221
221 238 221
221 238 221
221 238 221
221 238 221
221 238 221
221 238 221
221 238 221
221 238 221
221 238 221
221 238 221
221 238 221
221 238 221
221 238 221
221 238 221
221 238 221
221 238 221
221 238 221
238 238 221
221 238 221
221 238 221
221 238 221
221 238 221
221 238 238
221 238 238
238 238 238
238 238 221
221 238 221
221 238 221
221 238 221
221 238 221
221 238 221
221 238 221
221 238 221
221 238 221
221 238 221
221 238 221
221 238 221
221 238 221
221 238 221
238 238 221
238 238 221
221 238 221
221 238 221
221 238 221
221 238 221
221 238 221
221 238 221
221 238 221
221 238 221
221 238 221
221 238 221
221 238 221
221 238 221
221 238 221
221 238 221
221 238 221
221 238 221
221 238 221
221 221 221
221 221 221
221 221 221
221 221 221
221 221 221
221 221 221
221 221 221
221 221 221
221 221 221
221 221 221
221 221 221
221 221 221
221 221 221
221 221 221
221 221 221
221 221 221
221 221 221
221 221 221
221 221 221
221 221 221
221 221 221
221 221 221
221 221 221
221 221 221
221 221 221
221 221 221
221 221 221
221 221 221
221 221 221
221 221 221
221 221 204
221 221 221
221 221 221
221 221 221
221 221 204
221 221 204
221 221 204
221 221 204
17 17 17
34 51 51
102 102 102
187 187 187
187 187 187
204 204 187
204 204 204
170 187 170
153 153 136
51 51 34
17 17 0
0 0 0
0 0 0
0 0 0
0 0 0
0 0 0
17 34 17
85 85 85
136 136 136
153 170 153
170 170 170
170 170 170
170 170 153
153 170 153
153 170 153
170 170 170
170 187 170
170 170 170
170 187 170
170 187 170
187 187 170
187 187 170
187 187 170
170 187 170
170 187 170
187 187 170
187 187 187
187 187 187
187 187 187
187 187 187
187 187 187
187 204 187
187 204 187
187 204 187
187 204 187
187 204 187
187 204 187
204 204 187
204 204 187
204 204 204
204 204 204
204 204 204
204 221 204
204 221 204
221 221 221
221 221 221
221 221 204
221 221 221
221 221 221
221 221 221
221 221 221
221 238 221
221 238 221
221 238 221
221 238 221
221 238 221
221 238 221
221 238 221
238 238 221
221 238 221
221 221 221
221 238 221
238 238 221
221 238 221
221 238 221
221 238 221
221 238 221
221 238 221
221 238 221
221 238 221
221 238 221
221 238 221
221 238 221
221 238 221
221 238 221
221 238 221
221 238 221
221 238 221
221 238 221
221 238 221
221 238 221
221 238 221
221 238 221
221 238 221
221 238 221
221 238 221
221 238 221
221 238 221
221 238 221
238 238 221
238 238 221
221 221 221
221 238 221
221 221 221
221 221 221
221 238 221
0 0 255
0 0 255
238 238 221
238 238 221
221 238 221
221 238 221
221 221 221
221 221 221
221 221 221
221 221 221
221 221 221
221 221 221
221 221 221
238 238 221
221 221 221
221 221 221
221 221 221
221 221 221
221 221 221
221 221 221
221 221 221
221 221 221
221 221 221
221 221 221
221 221 221
221 221 221
221 221 221
221 221 221
221 221 221
221 221 221
221 221 221
221 221 221
221 221 221
221 221 221
221 221 221
221 221 221
221 221 221
221 221 221
221 221 221
221 221 221
221 221 221
221 221 221
221 221 221
221 221 221
221 221 221
221 221 221
221 221 221
221 221 221
221 221 221
221 221 221
221 221 221
221 221 221
221 221 221
221 221 204
221 221 204
221 221 204
221 221 204
221 221 204
204 221 204
221 221 204
204 221 204
221 221 204
204 221 204
204 221 204
204 221 204
204 221 204
204 221 204
204 221 204
221 221 204
221 221 221
221 221 221
221 221 204
221 221 204
221 221 221
221 221 221
221 221 221
221 221 221
221 221 221
221 221 221
221 221 221
221 221 221
221 221 221
221 221 221
221 221 221
221 221 221
221 221 221
221 221 221
221 221 221
221 221 221
221 221 221
221 221 221
221 221 221
221 221 221
221 221 221
221 221 221
221 221 221
221 221 221
221 221 221
221 221 221
221 221 221
221 221 221
221 221 221
221 221 221
221 221 221
221 221 221
221 221 221
221 221 221
0 0 255
0 0 255
221 238 221
221 221 221
221 238 221
221 238 221
221 238 221
221 238 221
221 238 221
221 238 221
221 238 221
221 238 221
221 238 221
221 238 221
221 238 221
221 238 221
221 238 221
221 238 221
221 238 221
221 238 221
221 238 221
221 238 221
221 238 221
221 238 221
221 238 221
221 238 221
238 238 221
221 238 221
221 238 221
221 238 221
221 238 221
221 238 221
221 238 221
221 238 221
221 238 238
221 238 238
221 238 238
221 238 238
221 238 238
221 238 238
221 238 221
221 238 221
221 238 221
221 238 221
221 238 221
221 238 221
221 238 221
221 238 221
221 238 221
221 238 221
221 238 221
221 238 221
221 238 221
221 238 221
221 238 221
221 238 221
238 238 221
221 238 221
221 238 221
221 238 221
221 238 221
221 238 221
221 238 221
221 238 221
221 238 221
221 238 221
221 238 221
221 238 221
221 221 221
221 221 221
221 221 221
221 221 221
221 221 221
221 221 221
221 221 221
221 221 221
221 221 221
221 221 221
221 221 221
221 221 221
221 221 221
221 221 221
221 221 221
221 221 221
221 221 221
221 221 221
221 221 221
221 221 221
221 221 221
221 221 221
221 221 221
221 221 221
221 221 221
221 221 221
221 221 221
221 221 221
221 221 221
221 221 221
221 221 221
221 221 221
221 221 204
221 221 204
221 221 204
221 221 204
221 221 204
221 221 204
221 221 204
34 34 34
51 51 51
119 136 119
187 204 187
187 204 187
204 204 204
187 204 187
170 170 170
136 136 119
34 34 34
17 17 17
17 17 17
17 17 0
17 17 0
0 0 0
0 0 0
0 17 0
34 34 34
85 85 85
136 153 136
153 170 153
170 170 153
170 170 153
170 170 153
153 170 153
153 170 153
153 170 153
153 170 153
170 170 153
170 170 170
170 170 153
170 170 153
170 170 153
170 170 170
170 187 170
170 187 170
170 187 170
187 187 170
187 187 170
187 187 170
187 187 170
187 187 170
187 187 170
187 187 187
187 187 187
187 187 187
187 187 187
187 187 187
187 187 187
187 187 187
187 204 187
187 204 187
187 204 187
204 204 187
204 204 187
204 204 204
204 204 204
204 204 204
204 221 204
204 221 204
221 221 204
221 221 204
221 221 221
221 221 221
221 221 221
221 221 221
221 221 221
221 221 221
221 221 221
221 221 221
221 221 221
221 238 221
221 238 221
221 238 221
221 238 221
221 238 221
221 238 221
221 238 221
221 238 221
221 238 221
221 238 221
221 238 221
221 238 221
221 238 221
238 238 221
221 238 221
221 238 221
221 238 221
221 238 221
221 238 221
221 238 221
221 238 221
238 238 221
221 238 221
221 238 221
221 238 221
221 238 221
221 238 221
238 238 221
238 238 221
238 238 221
221 221 221
221 238 221
221 238 221
221 238 221
238 238 221
0 0 255
0 0 255
238 238 221
221 238 221
221 238 221
221 238 221
221 238 221
221 238 221
221 221 221
221 238 221
238 238 221
221 221 221
221 221 221
221 238 221
221 221 221
221 221 221
221 221 221
221 221 221
221 221 221
221 221 221
221 238 221
221 221 221
221 221 221
221 221 221
221 221 221
221 221 221
221 221 221
221 221 221
221 221 221
221 221 221
221 221 221
221 221 221
221 221 221
221 221 221
221 221 221
221 221 221
221 221 221
221 221 221
221 221 221
221 221 221
221 221 221
221 221 221
221 221 221
221 221 221
221 221 221
221 221 221
221 221 221
221 221 221
221 221 221
221 221 221
221 221 221
221 221 221
221 221 221
221 221 221
221 221 221
221 221 204
221 221 204
221 221 204
221 221 204
221 221 204
221 221 204
204 221 204
221 221 204
221 221 204
221 221 204
221 221 204
204 221 204
204 221 204
221 221 204
221 221 221
221 221 221
221 221 221
221 221 221
221 221 221
221 221 221
221 221 221
221 221 221
221 221 221
221 221 221
221 221 221
221 221 221
221 221 221
221 221 221
221 221 221
221 221 221
221 221 221
221 221 221
221 221 221
221 221 221
221 221 221
221 221 221
221 221 221
221 221 221
221 221 221
221 221 221
221 221 221
221 221 221
221 221 221
221 221 221
221 221 221
221 221 221
221 221 221
221 221 221
221 238 221
221 238 221
221 221 221
221 221 221
0 0 255
0 0 255
221 221 221
221 238 221
221 238 221
221 221 221
221 238 221
221 238 221
221 238 221
221 221 221
221 238 221
221 221 221
221 238 221
221 238 221
221 238 221
221 238 221
221 238 221
221 238 221
221 238 221
221 238 221
221 238 221
221 238 221
221 238 221
221 238 221
221 238 221
221 238 221
221 238 221
221 238 221
221 238 221
221 238 221
221 238 221
221 238 221
221 238 221
238 238 221
221 238 238
221 238 238
221 238 238
221 238 238
221 238 238
221 238 238
221 238 221
221 238 221
221 238 221
221 238 221
221 238 221
221 238 221
221 238 221
221 238 221
221 238 221
221 238 221
238 238 221
238 238 221
221 238 221
221 238 221
221 238 221
221 238 221
221 238 221
238 238 221
221 238 221
221 238 221
221 238 221
221 238 221
221 238 221
221 238 221
221 238 221
221 238 221
221 221 221
221 221 221
221 221 221
221 221 221
221 221 221
221 221 221
221 221 221
221 221 221
221 221 221
221 221 221
221 221 221
221 221 221
221 221 221
221 221 221
221 221 221
221 221 221
221 221 221
221 221 221
221 221 221
221 221 221
221 221 221
221 221 221
221 221 221
221 221 221
221 221 221
221 221 221
221 221 204
221 221 204
221 221 221
221 221 221
221 221 204
221 221 204
221 221 204
221 221 204
221 221 204
221 221 204
221 221 204
221 221 221
221 221 204
204 221 204
204 221 204
